impulse-robot/matlab/leg_analysis/data/leg_geometry_stroke.csv
A_x,A_y,B_x,B_y,C_x,C_y,D_x,D_y,F_x,F_y,G_x,G_y,H_x,H_y,K_x,K_y,L_x,L_y,M_x,M_y,P_0_x,P_0_y,theta_1,theta_2,theta_3,theta_4,theta_5,theta_6,theta_7-0.036495,-0.023044,0,0,0.0567,0.018106,0.013285,-0.0024798,-0.011578,0.00013423,0.095359,0.038728,0.063931,0.038803,0.045626,0.022081,-0.068932,-0.10051,-0.081818,-0.092833,0.0006966,-0.1077,3.13,0.47329,-1.9069,3.1359,0.73374,-2.7029,0.46531
-0.036495,-0.023044,0,0,0.056827,0.017816,0.013281,-0.0025017,-0.011578,0.00015337,0.095523,0.03837,0.064095,0.038501,0.045762,0.021827,-0.069015,-0.10058,-0.081881,-0.092866,0.00059469,-0.10795,3.1283,0.46903,-1.9087,3.1333,0.73201,-2.7061,0.46122
-0.036495,-0.023044,0,0,0.056957,0.017517,0.013277,-0.0025237,-0.011578,0.0001725,0.09569,0.038002,0.064262,0.038189,0.045901,0.021565,-0.069095,-0.10065,-0.081941,-0.092907,0.00049478,-0.10821,3.1267,0.46466,-1.9105,3.1307,0.73028,-2.7093,0.45702
-0.036495,-0.023044,0,0,0.057091,0.017208,0.013273,-0.0025456,-0.011578,0.00019164,0.09586,0.037624,0.064432,0.037867,0.046043,0.021294,-0.069172,-0.10074,-0.081997,-0.092956,0.00039697,-0.10848,3.125,0.46017,-1.9122,3.128,0.72854,-2.7126,0.4527
-0.036495,-0.023044,0,0,0.057227,0.016889,0.013269,-0.0025675,-0.011577,0.00021077,0.096033,0.037236,0.064606,0.037535,0.046189,0.021014,-0.069246,-0.10083,-0.082049,-0.093014,0.00030136,-0.10877,3.1234,0.45555,-1.914,3.1252,0.72681,-2.716,0.44827
-0.036495,-0.023044,0,0,0.057367,0.016559,0.013264,-0.0025895,-0.011577,0.0002299,0.096209,0.036836,0.064783,0.037191,0.046339,0.020724,-0.069316,-0.10093,-0.082097,-0.093081,0.00020806,-0.10907,3.1217,0.4508,-1.9158,3.1223,0.72507,-2.7195,0.44371
-0.036495,-0.023044,0,0,0.057511,0.016217,0.01326,-0.0026114,-0.011577,0.00024904,0.096389,0.036424,0.064963,0.036835,0.046492,0.020423,-0.069383,-0.10105,-0.082141,-0.093159,0.00011722,-0.10939,3.1201,0.4459,-1.9176,3.1194,0.72334,-2.7231,0.43901
-0.036495,-0.023044,0,0,0.057659,0.015861,0.013256,-0.0026333,-0.011576,0.00026817,0.096573,0.035999,0.065148,0.036467,0.04665,0.020111,-0.069446,-0.10118,-0.08218,-0.093248,2.8961e-05,-0.10973,3.1184,0.44083,-1.9194,3.1164,0.72161,-2.7269,0.43417
-0.036495,-0.023044,0,0,0.057811,0.015492,0.013251,-0.0026552,-0.011576,0.0002873,0.096761,0.035559,0.065337,0.036084,0.046812,0.019787,-0.069504,-0.10132,-0.082213,-0.093349,-5.6548e-05,-0.11008,3.1168,0.4356,-1.9212,3.1133,0.71987,-2.7308,0.42916
-0.036495,-0.023044,0,0,0.057967,0.015107,0.013247,-0.0026771,-0.011575,0.00030643,0.096953,0.035105,0.06553,0.035686,0.04698,0.019449,-0.069559,-0.10147,-0.082242,-0.093463,-0.00013914,-0.11046,3.1151,0.43018,-1.923,3.1101,0.71814,-2.7349,0.42398
-0.036495,-0.023044,0,0,0.058128,0.014706,0.013243,-0.002699,-0.011575,0.00032556,0.09715,0.034633,0.065728,0.035271,0.047152,0.019097,-0.069608,-0.10164,-0.082264,-0.093591,-0.00021861,-0.11086,3.1135,0.42456,-1.9248,3.1067,0.71641,-2.7391,0.41862
-0.036495,-0.023044,0,0,0.058294,0.014287,0.013238,-0.0027209,-0.011574,0.00034469,0.097352,0.034144,0.065932,0.034838,0.04733,0.018728,-0.069652,-0.10183,-0.082281,-0.093736,-0.00029475,-0.11129,3.1118,0.41873,-1.9266,3.1033,0.71468,-2.7436,0.41305
-0.036495,-0.023044,0,0,0.058465,0.013849,0.013234,-0.0027427,-0.011574,0.00036381,0.09756,0.033634,0.06614,0.034386,0.047515,0.018343,-0.06969,-0.10204,-0.08229,-0.093898,-0.00036733,-0.11174,3.1102,0.41265,-1.9284,3.0997,0.71296,-2.7482,0.40726
-0.036495,-0.023044,0,0,0.058643,0.013388,0.013229,-0.0027646,-0.011573,0.00038294,0.097773,0.033103,0.066355,0.033911,0.047706,0.017938,-0.069722,-0.10226,-0.082292,-0.094079,-0.00043605,-0.11223,3.1085,0.40631,-1.9302,3.096,0.71124,-2.753,0.40123
-0.036495,-0.023044,0,0,0.058827,0.012904,0.013224,-0.0027865,-0.011572,0.00040207,0.097993,0.032548,0.066576,0.033413,0.047904,0.017513,-0.069748,-0.10252,-0.082286,-0.094281,-0.00050062,-0.11275,3.1069,0.39968,-1.9321,3.0921,0.70952,-2.7581,0.39493
-0.036495,-0.023044,0,0,0.059018,0.012394,0.01322,-0.0028083,-0.011572,0.00042119,0.098219,0.031966,0.066804,0.032889,0.04811,0.017064,-0.069766,-0.10279,-0.08227,-0.094508,-0.00056068,-0.11331,3.1052,0.39273,-1.9339,3.0881,0.70782,-2.7635,0.38834
-0.036495,-0.023044,0,0,0.059217,0.011854,0.013215,-0.0028302,-0.011571,0.00044031,0.098453,0.031355,0.06704,0.032334,0.048325,0.016589,-0.069776,-0.1031,-0.082245,-0.094761,-0.00061583,-0.11391,3.1036,0.38543,-1.9357,3.0838,0.70612,-2.7691,0.38142
-0.036495,-0.023044,0,0,0.059424,0.011281,0.01321,-0.002852,-0.01157,0.00045944,0.098696,0.030711,0.067284,0.031747,0.048549,0.016085,-0.069776,-0.10344,-0.082208,-0.095045,-0.0006656,-0.11456,3.1019,0.37773,-1.9375,3.0794,0.70443,-2.7751,0.37413
-0.036495,-0.023044,0,0,0.05964,0.010671,0.013206,-0.0028738,-0.011569,0.00047856,0.098947,0.030031,0.067537,0.031123,0.048784,0.015548,-0.069767,-0.10382,-0.082159,-0.095363,-0.00070947,-0.11526,3.1003,0.36959,-1.9393,3.0746,0.70276,-2.7814,0.36644
-0.036495,-0.023044,0,0,0.059866,0.01002,0.013201,-0.0028956,-0.011569,0.00049768,0.099207,0.029309,0.0678,0.030458,0.04903,0.014975,-0.069746,-0.10423,-0.082096,-0.09572,-0.00074682,-0.11602,3.0986,0.36095,-1.9411,3.0696,0.70111,-2.7882,0.35828
-0.036495,-0.023044,0,0,0.060102,0.0093209,0.013196,-0.0029175,-0.011568,0.0005168,0.099478,0.02854,0.068073,0.029745,0.049289,0.01436,-0.069713,-0.1047,-0.082016,-0.096122,-0.00077693,-0.11686,3.0969,0.35174,-1.9429,3.0643,0.69949,-2.7955,0.34961
-0.036495,-0.023044,0,0,0.060351,0.0085687,0.013191,-0.0029393,-0.011567,0.00053591,0.099761,0.027719,0.068358,0.028979,0.049562,0.013697,-0.069664,-0.10523,-0.081919,-0.096576,-0.000799,-0.11777,3.0953,0.3419,-1.9446,3.0586,0.6979,-2.8032,0.34036
-0.036495,-0.023044,0,0,0.060613,0.0077554,0.013186,-0.0029611,-0.011566,0.00055503,0.10006,0.026837,0.068655,0.028152,0.04985,0.01298,-0.0696,-0.10581,-0.081801,-0.097089,-0.0008121,-0.11878,3.0936,0.33133,-1.9464,3.0525,0.69635,-2.8116,0.33044
-0.036495,-0.023044,0,0,0.060889,0.0068727,0.013182,-0.0029828,-0.011565,0.00057414,0.10036,0.025888,0.068965,0.027255,0.050155,0.012202,-0.069516,-0.10648,-0.08166,-0.097671,-0.0008152,-0.1199,3.092,0.31994,-1.9481,3.0459,0.69486,-2.8207,0.31978
-0.036495,-0.023044,0,0,0.061179,0.0059116,0.013177,-0.0030046,-0.011564,0.00059325,0.10068,0.024862,0.069288,0.026281,0.050478,0.011354,-0.06941,-0.10722,-0.081492,-0.098333,-0.0008072,-0.12113,3.0903,0.30763,-1.9497,3.0388,0.69345,-2.8305,0.30829
-0.036495,-0.023044,0,0,0.061483,0.0048638,0.013172,-0.0030264,-0.011563,0.00061236,0.10102,0.023753,0.069624,0.025221,0.050819,0.010429,-0.069281,-0.10807,-0.081293,-0.099086,-0.00078708,-0.12251,3.0887,0.2943,-1.9512,3.0311,0.69215,-2.8413,0.29589
-0.036495,-0.023044,0,0,0.061801,0.0037233,0.013167,-0.0030482,-0.011562,0.00063147,0.10136,0.022556,0.069971,0.024068,0.051179,0.009422,-0.069125,-0.10902,-0.081061,-0.099939,-0.00075408,-0.12403,3.087,0.27991,-1.9527,3.0227,0.69098,-2.8529,0.28254
-0.036495,-0.023044,0,0,0.062128,0.0024904,0.013162,-0.0030699,-0.011561,0.00065058,0.10171,0.021272,0.070325,0.022825,0.051553,0.0083324,-0.068941,-0.11009,-0.080796,-0.1009,-0.00070814,-0.12571,3.0854,0.26446,-1.9539,3.0137,0.68999,-2.8654,0.26826
-0.036495,-0.023044,0,0,0.062459,0.0011765,0.013156,-0.0030917,-0.01156,0.00066969,0.10207,0.019916,0.070677,0.021502,0.051935,0.0071703,-0.068731,-0.11126,-0.080497,-0.10196,-0.00065037,-0.12754,3.0837,0.2481,-1.955,3.0042,0.68922,-2.8787,0.25322
-0.036495,-0.023044,0,0,0.062784,-0.00019141,0.013151,-0.0031134,-0.011559,0.00068879,0.10241,0.018515,0.071019,0.020128,0.052316,0.0059594,-0.068499,-0.11252,-0.080173,-0.1031,-0.00058358,-0.12947,3.0821,0.23119,-1.9558,2.9943,0.68871,-2.8925,0.23774
-0.036495,-0.023044,0,0,0.063092,-0.0015722,0.013146,-0.0031351,-0.011558,0.00070789,0.10272,0.017112,0.071338,0.018742,0.052682,0.004736,-0.068255,-0.11383,-0.079834,-0.10429,-0.00051204,-0.13146,3.0804,0.21422,-1.9564,2.9843,0.68846,-2.9064,0.22229
-0.036495,-0.023044,0,0,0.063373,-0.0029201,0.013141,-0.0031569,-0.011556,0.00072699,0.10301,0.015752,0.071625,0.017392,0.053022,0.0035407,-0.068008,-0.11513,-0.079493,-0.10549,-0.0004405,-0.13342,3.0788,0.19772,-1.9567,2.9745,0.68846,-2.9199,0.20738
-0.036495,-0.023044,0,0,0.063622,-0.0041975,0.013136,-0.0031786,-0.011555,0.00074609,0.10326,0.014471,0.071876,0.016114,0.05333,0.0024069,-0.067769,-0.1164,-0.079164,-0.10665,-0.00037291,-0.13531,3.0771,0.18215,-1.9568,2.9653,0.68866,-2.9327,0.19339
-0.036495,-0.023044,0,0,0.063838,-0.0053826,0.01313,-0.0032003,-0.011554,0.00076518,0.10348,0.01329,0.07209,0.014929,0.053601,0.0013542,-0.067542,-0.1176,-0.078853,-0.10775,-0.0003116,-0.13709,3.0755,0.16775,-1.9567,2.9567,0.68902,-2.9445,0.18054
-0.036495,-0.023044,0,0,0.064023,-0.0064686,0.013125,-0.003222,-0.011553,0.00078428,0.10366,0.012213,0.072271,0.013845,0.053839,0.00038875,-0.067332,-0.11871,-0.078565,-0.10877,-0.0002574,-0.13873,3.0738,0.15457,-1.9565,2.9488,0.68948,-2.9553,0.16887
-0.036495,-0.023044,0,0,0.064181,-0.0074588,0.01312,-0.0032437,-0.011551,0.00080337,0.10381,0.011235,0.072423,0.012857,0.054047,-0.0004922,-0.067139,-0.11974,-0.078301,-0.10972,-0.00021017,-0.14025,3.0722,0.14257,-1.9562,2.9416,0.69,-2.9652,0.15831
-0.036495,-0.023044,0,0,0.064317,-0.0083615,0.013114,-0.0032653,-0.01155,0.00082246,0.10394,0.010347,0.072551,0.011958,0.054228,-0.0012958,-0.066962,-0.1207,-0.078057,-0.1106,-0.00016927,-0.14164,3.0705,0.13164,-1.9558,2.935,0.69056,-2.9741,0.14877
-0.036495,-0.023044,0,0,0.064433,-0.0091865,0.013109,-0.003287,-0.011549,0.00084155,0.10405,0.009538,0.072659,0.011136,0.054388,-0.0020306,-0.0668,-0.12157,-0.077834,-0.11141,-0.00013388,-0.14292,3.0689,0.12165,-1.9554,2.929,0.69115,-2.9823,0.14011
-0.036495,-0.023044,0,0,0.064534,-0.0099433,0.013104,-0.0033087,-0.011547,0.00086063,0.10414,0.0087982,0.072751,0.010383,0.054529,-0.0027051,-0.06665,-0.12239,-0.077628,-0.11217,-0.00010323,-0.1441,3.0672,0.11248,-1.955,2.9235,0.69174,-2.9898,0.13221
-0.036495,-0.023044,0,0,0.064622,-0.010641,0.013098,-0.0033303,-0.011546,0.00087971,0.10422,0.0081184,0.07283,0.009689,0.054655,-0.0033271,-0.066512,-0.12314,-0.077437,-0.11287,-7.6585e-05,-0.1452,3.0655,0.10403,-1.9545,2.9184,0.69233,-2.9967,0.12499
-0.036495,-0.023044,0,0,0.0647,-0.011287,0.013093,-0.003352,-0.011544,0.00089879,0.10429,0.0074905,0.072898,0.0090469,0.054768,-0.0039033,-0.066383,-0.12385,-0.07726,-0.11352,-5.3346e-05,-0.14621,3.0639,0.096195,-1.9541,2.9137,0.69292,-3.0031,0.11834
-0.036495,-0.023044,0,0,0.064768,-0.011887,0.013087,-0.0033736,-0.011543,0.00091787,0.10435,0.0069079,0.072957,0.0084499,0.054869,-0.0044395,-0.066264,-0.12451,-0.077095,-0.11413,-3.2991e-05,-0.14717,3.0622,0.088902,-1.9536,2.9092,0.6935,-3.009,0.11219
-0.036495,-0.023044,0,0,0.064828,-0.012449,0.013081,-0.0033952,-0.011541,0.00093695,0.1044,0.0063649,0.073008,0.0078925,0.054961,-0.0049405,-0.066152,-0.12513,-0.07694,-0.11471,-1.5089e-05,-0.14806,3.0606,0.082082,-1.9531,2.9051,0.69407,-3.0146,0.10648
-0.036495,-0.023044,0,0,0.064882,-0.012975,0.013076,-0.0034168,-0.01154,0.00095602,0.10444,0.0058567,0.073052,0.00737,0.055045,-0.0054106,-0.066047,-0.12572,-0.076795,-0.11525,7.1888e-07,-0.1489,3.0589,0.075678,-1.9527,2.9013,0.69464,-3.0197,0.10115
-0.036495,-0.023044,0,0,0.06493,-0.01347,0.01307,-0.0034384,-0.011538,0.00097509,0.10448,0.0053793,0.073091,0.0068784,0.055121,-0.0058532,-0.065948,-0.12627,-0.076658,-0.11577,1.473e-05,-0.1497,3.0573,0.069642,-1.9522,2.8976,0.69519,-3.0246,0.096162
-0.036495,-0.023044,0,0,0.064973,-0.013938,0.013064,-0.00346,-0.011537,0.00099416,0.10452,0.0049292,0.073125,0.0064143,0.055191,-0.0062713,-0.065854,-0.1268,-0.076528,-0.11626,2.7195e-05,-0.15045,3.0556,0.063934,-1.9518,2.8942,0.69573,-3.0292,0.091476
-0.036495,-0.023044,0,0,0.065011,-0.014381,0.013059,-0.0034816,-0.011535,0.0010132,0.10455,0.0045036,0.073155,0.0059747,0.055256,-0.0066676,-0.065765,-0.1273,-0.076404,-0.11673,3.832e-05,-0.15117,3.054,0.058517,-1.9513,2.8909,0.69626,-3.0336,0.087059
-0.036495,-0.023044,0,0,0.065046,-0.014802,0.013053,-0.0035032,-0.011533,0.0010323,0.10458,0.0040999,0.073181,0.0055572,0.055316,-0.0070442,-0.065681,-0.12778,-0.076287,-0.11717,4.8282e-05,-0.15185,3.0523,0.053364,-1.9509,2.8878,0.69679,-3.0378,0.082883
-0.036495,-0.023044,0,0,0.065078,-0.015203,0.013047,-0.0035248,-0.011531,0.0010513,0.1046,0.0037159,0.073204,0.0051597,0.055372,-0.007403,-0.0656,-0.12824,-0.076175,-0.1176,5.7229e-05,-0.1525,3.0507,0.048447,-1.9505,2.8848,0.6973,-3.0417,0.078924
-0.036495,-0.023044,0,0,0.065107,-0.015586,0.013041,-0.0035463,-0.01153,0.0010704,0.10462,0.0033499,0.073224,0.0047802,0.055424,-0.0077457,-0.065523,-0.12867,-0.076067,-0.11801,6.5286e-05,-0.15313,3.049,0.043744,-1.95,2.882,0.6978,-3.0455,0.075162
-0.036495,-0.023044,0,0,0.065133,-0.015953,0.013035,-0.0035679,-0.011528,0.0010895,0.10464,0.0030001,0.073242,0.0044172,0.055473,-0.0080737,-0.065449,-0.1291,-0.075964,-0.1184,7.2561e-05,-0.15373,3.0474,0.039237,-1.9496,2.8793,0.69829,-3.0491,0.071578
-0.036495,-0.023044,0,0,0.065157,-0.016304,0.013029,-0.0035894,-0.011526,0.0011085,0.10465,0.0026652,0.073257,0.0040693,0.055518,-0.0083883,-0.065378,-0.1295,-0.075865,-0.11878,7.9146e-05,-0.15431,3.0457,0.034907,-1.9492,2.8766,0.69878,-3.0525,0.068158
-0.036495,-0.023044,0,0,0.065179,-0.016641,0.013023,-0.0036109,-0.011524,0.0011275,0.10467,0.0023439,0.07327,0.0037351,0.055561,-0.0086906,-0.06531,-0.12989,-0.07577,-0.11914,8.512e-05,-0.15486,3.0441,0.030741,-1.9488,2.8741,0.69925,-3.0559,0.064886
-0.036495,-0.023044,0,0,0.065199,-0.016966,0.013017,-0.0036325,-0.011522,0.0011466,0.10468,0.0020351,0.073282,0.0034135,0.055601,-0.0089816,-0.065244,-0.13027,-0.075678,-0.11949,9.0552e-05,-0.1554,3.0424,0.026725,-1.9484,2.8717,0.69972,-3.0591,0.061752
-0.036495,-0.023044,0,0,0.065217,-0.017279,0.013011,-0.003654,-0.01152,0.0011656,0.10469,0.0017378,0.073292,0.0031036,0.055639,-0.0092622,-0.06518,-0.13064,-0.07559,-0.11984,9.5502e-05,-0.15591,3.0408,0.022846,-1.948,2.8694,0.70018,-3.0621,0.058743
-0.036495,-0.023044,0,0,0.065234,-0.017582,0.013005,-0.0036755,-0.011519,0.0011847,0.1047,0.0014512,0.073301,0.0028046,0.055674,-0.0095331,-0.065119,-0.13099,-0.075504,-0.12017,0.00010002,-0.15641,3.0391,0.019096,-1.9476,2.8672,0.70064,-3.0651,0.055851
-0.036495,-0.023044,0,0,0.065249,-0.017874,0.012999,-0.0036969,-0.011517,0.0012037,0.10471,0.0011744,0.073308,0.0025155,0.055708,-0.0097951,-0.065059,-0.13133,-0.07542,-0.12049,0.00010415,-0.1569,3.0375,0.015464,-1.9472,2.865,0.70109,-3.068,0.053068
-0.036495,-0.023044,0,0,0.065263,-0.018157,0.012993,-0.0037184,-0.011515,0.0012227,0.10471,0.00090677,0.073314,0.0022358,0.05574,-0.010049,-0.065001,-0.13167,-0.07534,-0.1208,0.00010794,-0.15737,3.0358,0.011941,-1.9468,2.8629,0.70153,-3.0708,0.050384
-0.036495,-0.023044,0,0,0.065276,-0.018431,0.012987,-0.0037399,-0.011512,0.0012418,0.10472,0.00064769,0.073319,0.0019647,0.05577,-0.010295,-0.064945,-0.13199,-0.075261,-0.1211,0.00011142,-0.15783,3.0341,0.0085214,-1.9464,2.8608,0.70196,-3.0735,0.047793
-0.036495,-0.023044,0,0,0.065288,-0.018697,0.012981,-0.0037614,-0.01151,0.0012608,0.10472,0.00039657,0.073323,0.0017017,0.055799,-0.010533,-0.06489,-0.13231,-0.075185,-0.1214,0.00011462,-0.15827,3.0325,0.0051972,-1.9461,2.8588,0.70239,-3.0761,0.04529
-0.036495,-0.023044,0,0,0.065298,-0.018955,0.012975,-0.0037828,-0.011508,0.0012798,0.10473,0.00015291,0.073326,0.0014463,0.055826,-0.010765,-0.064837,-0.13261,-0.075111,-0.12168,0.00011757,-0.1587,3.0308,0.0019623,-1.9457,2.8569,0.70281,-3.0786,0.042868
-0.036495,-0.023044,0,0,0.065308,-0.019207,0.012968,-0.0038042,-0.011506,0.0012988,0.10473,-8.3778e-05,0.073329,0.001198,0.055852,-0.010991,-0.064785,-0.13291,-0.075038,-0.12196,0.00012028,-0.15912,3.0292,-0.0011888,-1.9453,2.855,0.70323,-3.0811,0.040522
-0.036495,-0.023044,0,0,0.065317,-0.019451,0.012962,-0.0038257,-0.011504,0.0013178,0.10473,-0.00031391,0.07333,0.00095634,0.055877,-0.01121,-0.064735,-0.1332,-0.074968,-0.12224,0.0001228,-0.15954,3.0275,-0.0042612,-1.9449,2.8532,0.70364,-3.0835,0.038248
-0.036495,-0.023044,0,0,0.065325,-0.019689,0.012956,-0.0038471,-0.011502,0.0013369,0.10473,-0.00053788,0.073331,0.00072098,0.055901,-0.011424,-0.064685,-0.13349,-0.074899,-0.1225,0.00012513,-0.15994,3.0259,-0.0072597,-1.9446,2.8514,0.70405,-3.0858,0.036041
-0.036495,-0.023044,0,0,0.065333,-0.019922,0.012949,-0.0038685,-0.0115,0.0013559,0.10473,-0.00075605,0.073331,0.00049154,0.055924,-0.011632,-0.064637,-0.13377,-0.074831,-0.12276,0.00012728,-0.16033,3.0242,-0.010188,-1.9442,2.8497,0.70445,-3.0881,0.033897
-0.036495,-0.023044,0,0,0.065339,-0.020148,0.012943,-0.0038899,-0.011497,0.0013749,0.10473,-0.00096874,0.07333,0.00026767,0.055945,-0.011836,-0.06459,-0.13404,-0.074765,-0.12302,0.00012929,-0.16071,3.0226,-0.013052,-1.9439,2.848,0.70485,-3.0903,0.031813
-0.036495,-0.023044,0,0,0.065345,-0.02037,0.012936,-0.0039113,-0.011495,0.0013939,0.10473,-0.0011763,0.073329,4.9079e-05,0.055966,-0.012035,-0.064544,-0.13431,-0.074701,-0.12327,0.00013115,-0.16109,3.0209,-0.015852,-1.9435,2.8463,0.70524,-3.0925,0.029785
-0.036495,-0.023044,0,0,0.065351,-0.020586,0.01293,-0.0039326,-0.011493,0.0014129,0.10473,-0.0013789,0.073327,-0.00016452,0.055986,-0.012229,-0.064498,-0.13457,-0.074638,-0.12352,0.00013289,-0.16145,3.0193,-0.018595,-1.9432,2.8447,0.70563,-3.0946,0.027811
-0.036495,-0.023044,0,0,0.065356,-0.020798,0.012923,-0.003954,-0.01149,0.0014319,0.10473,-0.0015769,0.073325,-0.00037339,0.056005,-0.012419,-0.064454,-0.13483,-0.074576,-0.12376,0.00013451,-0.16181,3.0176,-0.021281,-1.9428,2.8431,0.70602,-3.0967,0.025887
-0.036495,-0.023044,0,0,0.06536,-0.021005,0.012917,-0.0039754,-0.011488,0.0014508,0.10473,-0.0017704,0.073323,-0.00057777,0.056023,-0.012606,-0.06441,-0.13508,-0.074515,-0.12399,0.00013603,-0.16216,3.016,-0.023915,-1.9425,2.8415,0.7064,-3.0987,0.024011
-0.036495,-0.023044,0,0,0.065364,-0.021208,0.01291,-0.0039967,-0.011486,0.0014698,0.10473,-0.0019598,0.073319,-0.00077789,0.056041,-0.012788,-0.064368,-0.13533,-0.074455,-0.12422,0.00013745,-0.16251,3.0143,-0.026498,-1.9421,2.84,0.70678,-3.1007,0.022181
-0.036495,-0.023044,0,0,0.065367,-0.021407,0.012904,-0.004018,-0.011483,0.0014888,0.10472,-0.0021453,0.073316,-0.00097395,0.056057,-0.012966,-0.064326,-0.13557,-0.074396,-0.12445,0.00013878,-0.16285,3.0127,-0.029034,-1.9418,2.8385,0.70716,-3.1027,0.020394
-0.036495,-0.023044,0,0,0.06537,-0.021601,0.012897,-0.0040393,-0.011481,0.0015078,0.10472,-0.0023269,0.073312,-0.0011661,0.056074,-0.013142,-0.064284,-0.13581,-0.074339,-0.12468,0.00014003,-0.16318,3.011,-0.031524,-1.9415,2.8371,0.70753,-3.1046,0.018647
-0.036495,-0.023044,0,0,0.065373,-0.021793,0.01289,-0.0040607,-0.011478,0.0015267,0.10472,-0.0025049,0.073308,-0.0013547,0.056089,-0.013313,-0.064244,-0.13604,-0.074282,-0.1249,0.00014121,-0.16351,3.0094,-0.033971,-1.9411,2.8356,0.7079,-3.1065,0.016941
-0.036495,-0.023044,0,0,0.065375,-0.02198,0.012884,-0.004082,-0.011476,0.0015457,0.10471,-0.0026795,0.073303,-0.0015397,0.056104,-0.013482,-0.064204,-0.13627,-0.074226,-0.12511,0.00014232,-0.16383,3.0077,-0.036377,-1.9408,2.8342,0.70826,-3.1083,0.015271
-0.036495,-0.023044,0,0,0.065377,-0.022165,0.012877,-0.0041032,-0.011473,0.0015647,0.10471,-0.0028508,0.073298,-0.0017213,0.056118,-0.013648,-0.064164,-0.1365,-0.074171,-0.12533,0.00014337,-0.16415,3.0061,-0.038744,-1.9405,2.8328,0.70863,-3.1101,0.013637
-0.036495,-0.023044,0,0,0.065378,-0.022346,0.01287,-0.0041245,-0.01147,0.0015836,0.1047,-0.003019,0.073293,-0.0018998,0.056132,-0.013811,-0.064125,-0.13672,-0.074117,-0.12553,0.00014437,-0.16446,3.0044,-0.041072,-1.9401,2.8315,0.70899,-3.1119,0.012038
-0.036495,-0.023044,0,0,0.065379,-0.022523,0.012863,-0.0041458,-0.011468,0.0016026,0.1047,-0.0031842,0.073287,-0.0020751,0.056146,-0.013971,-0.064087,-0.13694,-0.074064,-0.12574,0.00014531,-0.16476,3.0027,-0.043365,-1.9398,2.8301,0.70934,-3.1136,0.010471
-0.036495,-0.023044,0,0,0.06538,-0.022698,0.012856,-0.004167,-0.011465,0.0016215,0.10469,-0.0033465,0.073281,-0.0022476,0.056158,-0.014128,-0.06405,-0.13716,-0.074012,-0.12594,0.0001462,-0.16507,3.0011,-0.045623,-1.9395,2.8288,0.7097,-3.1154,0.0089348
-0.036495,-0.023044,0,0,0.06538,-0.022871,0.012849,-0.0041883,-0.011462,0.0016405,0.10468,-0.003506,0.073275,-0.0024172,0.056171,-0.014283,-0.064012,-0.13737,-0.07396,-0.12615,0.00014705,-0.16536,2.9994,-0.047848,-1.9392,2.8275,0.71005,-3.117,0.0074289
-0.036495,-0.023044,0,0,0.06538,-0.02304,0.012843,-0.0042095,-0.01146,0.0016594,0.10468,-0.0036629,0.073269,-0.0025841,0.056183,-0.014436,-0.063976,-0.13758,-0.073909,-0.12634,0.00014786,-0.16566,2.9978,-0.050042,-1.9389,2.8262,0.7104,-3.1187,0.0059516
-0.036495,-0.023044,0,0,0.06538,-0.023207,0.012836,-0.0042307,-0.011457,0.0016784,0.10467,-0.0038173,0.073262,-0.0027484,0.056194,-0.014586,-0.063939,-0.13779,-0.073858,-0.12654,0.00014864,-0.16594,2.9961,-0.052205,-1.9385,2.825,0.71075,-3.1203,0.0045018
-0.036495,-0.023044,0,0,0.06538,-0.023371,0.012829,-0.0042519,-0.011454,0.0016973,0.10467,-0.0039692,0.073255,-0.0029103,0.056205,-0.014734,-0.063904,-0.138,-0.073809,-0.12673,0.00014938,-0.16623,2.9945,-0.054339,-1.9382,2.8237,0.71109,-3.122,0.0030784
-0.036495,-0.023044,0,0,0.065379,-0.023533,0.012821,-0.0042731,-0.011451,0.0017162,0.10466,-0.0041188,0.073248,-0.0030697,0.056216,-0.014879,-0.063868,-0.1382,-0.07376,-0.12692,0.00015009,-0.16651,2.9928,-0.056445,-1.9379,2.8225,0.71144,-3.1235,0.0016803
-0.036495,-0.023044,0,0,0.065378,-0.023693,0.012814,-0.0042943,-0.011449,0.0017351,0.10465,-0.0042661,0.073241,-0.0032269,0.056226,-0.015023,-0.063833,-0.1384,-0.073711,-0.12711,0.00015077,-0.16679,2.9912,-0.058524,-1.9376,2.8213,0.71178,-3.1251,0.0003067
-0.036495,-0.023044,0,0,0.065377,-0.02385,0.012807,-0.0043155,-0.011446,0.0017541,0.10465,-0.0044113,0.073234,-0.0033818,0.056236,-0.015165,-0.063799,-0.1386,-0.073663,-0.1273,0.00015143,-0.16706,2.9895,-0.060576,-1.9373,2.8201,0.71212,-3.1267,-0.0010435
-0.036495,-0.023044,0,0,0.065376,-0.024005,0.0128,-0.0043366,-0.011443,0.001773,0.10464,-0.0045544,0.073226,-0.0035346,0.056246,-0.015305,-0.063765,-0.13879,-0.073616,-0.12748,0.00015206,-0.16733,2.9879,-0.062604,-1.937,2.8189,0.71245,-3.1282,-0.0023711
-0.036495,-0.023044,0,0,0.065374,-0.024158,0.012793,-0.0043578,-0.01144,0.0017919,0.10463,-0.0046955,0.073218,-0.0036853,0.056255,-0.015442,-0.063731,-0.13898,-0.073569,-0.12766,0.00015267,-0.1676,2.9862,-0.064608,-1.9367,2.8177,0.71279,-3.1297,-0.0036769
-0.036495,-0.023044,0,0,0.065373,-0.02431,0.012786,-0.0043789,-0.011437,0.0018108,0.10462,-0.0048346,0.07321,-0.0038341,0.056264,-0.015579,-0.063698,-0.13917,-0.073522,-0.12784,0.00015326,-0.16786,2.9846,-0.066589,-1.9364,2.8166,0.71312,-3.1312,-0.0049618
-0.036495,-0.023044,0,0,0.065371,-0.024459,0.012778,-0.0044001,-0.011434,0.0018297,0.10461,-0.0049719,0.073202,-0.0039809,0.056273,-0.015713,-0.063665,-0.13936,-0.073476,-0.12802,0.00015383,-0.16812,2.9829,-0.068547,-1.9361,2.8155,0.71345,-3.1326,-0.0062264
-0.036495,-0.023044,0,0,0.065368,-0.024606,0.012771,-0.0044212,-0.011431,0.0018486,0.10461,-0.0051073,0.073193,-0.0041259,0.056281,-0.015846,-0.063632,-0.13955,-0.073431,-0.12819,0.00015439,-0.16838,2.9813,-0.070483,-1.9358,2.8144,0.71378,-3.1341,-0.0074715
-0.036495,-0.023044,0,0,0.065366,-0.024752,0.012764,-0.0044423,-0.011428,0.0018675,0.1046,-0.005241,0.073185,-0.0042691,0.056289,-0.015977,-0.063599,-0.13973,-0.073386,-0.12837,0.00015493,-0.16864,2.9796,-0.072399,-1.9355,2.8132,0.71411,-3.1355,-0.0086978
-0.036495,-0.023044,0,0,0.065364,-0.024896,0.012757,-0.0044634,-0.011425,0.0018864,0.10459,-0.0053731,0.073176,-0.0044106,0.056297,-0.016107,-0.063567,-0.13992,-0.073342,-0.12854,0.00015545,-0.16889,2.978,-0.074295,-1.9351,2.8122,0.71444,-3.1369,-0.0099059
-0.036495,-0.023044,0,0,0.065361,-0.025038,0.012749,-0.0044844,-0.011421,0.0019052,0.10458,-0.0055035,0.073167,-0.0045505,0.056305,-0.016235,-0.063535,-0.1401,-0.073297,-0.12871,0.00015597,-0.16914,2.9763,-0.076171,-1.9348,2.8111,0.71477,-3.1383,-0.011096
-0.036495,-0.023044,0,0,0.065358,-0.025178,0.012742,-0.0045055,-0.011418,0.0019241,0.10457,-0.0056323,0.073158,-0.0046887,0.056312,-0.016361,-0.063504,-0.14028,-0.073254,-0.12888,0.00015647,-0.16938,2.9746,-0.078028,-1.9346,2.81,0.71509,-3.1397,-0.01227
-0.036495,-0.023044,0,0,0.065355,-0.025317,0.012734,-0.0045265,-0.011415,0.001943,0.10456,-0.0057596,0.073149,-0.0048253,0.056319,-0.016487,-0.063473,-0.14045,-0.07321,-0.12905,0.00015696,-0.16963,2.973,-0.079867,-1.9343,2.809,0.71541,-3.1411,-0.013427
-0.036495,-0.023044,0,0,0.065352,-0.025455,0.012727,-0.0045476,-0.011412,0.0019618,0.10455,-0.0058854,0.07314,-0.0049605,0.056326,-0.016611,-0.063442,-0.14063,-0.073167,-0.12921,0.00015744,-0.16987,2.9713,-0.081688,-1.934,2.8079,0.71573,-3.1424,-0.014568
-0.036495,-0.023044,0,0,0.065349,-0.025591,0.012719,-0.0045686,-0.011409,0.0019807,0.10455,-0.0060098,0.073131,-0.0050941,0.056332,-0.016733,-0.063411,-0.1408,-0.073125,-0.12937,0.00015791,-0.17011,2.9697,-0.083493,-1.9337,2.8069,0.71605,-3.1437,-0.015694
-0.036495,-0.023044,0,0,0.065345,-0.025725,0.012712,-0.0045896,-0.011405,0.0019995,0.10454,-0.0061328,0.073121,-0.0052264,0.056338,-0.016855,-0.06338,-0.14098,-0.073083,-0.12954,0.00015837,-0.17035,2.968,-0.08528,-1.9334,2.8059,0.71637,-3.1451,-0.016804
-0.036495,-0.023044,0,0,0.065342,-0.025859,0.012704,-0.0046106,-0.011402,0.0020184,0.10453,-0.0062545,0.073112,-0.0053573,0.056345,-0.016975,-0.06335,-0.14115,-0.073041,-0.1297,0.00015883,-0.17058,2.9664,-0.087052,-1.9331,2.8048,0.71669,-3.1464,-0.017901
-0.036495,-0.023044,0,0,0.065338,-0.02599,0.012696,-0.0046316,-0.011399,0.0020372,0.10452,-0.0063749,0.073102,-0.0054869,0.05635,-0.017094,-0.06332,-0.14132,-0.072999,-0.12986,0.00015928,-0.17082,2.9647,-0.088808,-1.9328,2.8038,0.717,-3.1477,-0.018983
-0.036495,-0.023044,0,0,0.065334,-0.026121,0.012689,-0.0046526,-0.011395,0.0020561,0.10451,-0.006494,0.073092,-0.0056151,0.056356,-0.017211,-0.06329,-0.14149,-0.072958,-0.13002,0.00015972,-0.17105,2.9631,-0.090549,-1.9325,2.8028,0.71732,-3.149,-0.020051
-0.036495,-0.023044,0,0,0.06533,-0.02625,0.012681,-0.0046736,-0.011392,0.0020749,0.1045,-0.0066118,0.073082,-0.0057421,0.056362,-0.017328,-0.063261,-0.14165,-0.072917,-0.13017,0.00016015,-0.17128,2.9614,-0.092275,-1.9322,2.8019,0.71763,-3.1502,-0.021107
-0.036495,-0.023044,0,0,0.065326,-0.026378,0.012673,-0.0046945,-0.011388,0.0020937,0.10449,-0.0067285,0.073072,-0.0058679,0.056367,-0.017443,-0.063231,-0.14182,-0.072877,-0.13033,0.00016058,-0.17151,2.9598,-0.093987,-1.9319,2.8009,0.71795,-3.1515,-0.022149
-0.036495,-0.023044,0,0,0.065322,-0.026505,0.012665,-0.0047154,-0.011385,0.0021125,0.10448,-0.006844,0.073062,-0.0059926,0.056372,-0.017558,-0.063202,-0.14198,-0.072836,-0.13048,0.00016101,-0.17173,2.9581,-0.095686,-1.9316,2.7999,0.71826,-3.1527,-0.02318
-0.036495,-0.023044,0,0,0.065317,-0.026631,0.012658,-0.0047364,-0.011381,0.0021314,0.10447,-0.0069584,0.073052,-0.006116,0.056377,-0.017671,-0.063173,-0.14214,-0.072796,-0.13064,0.00016143,-0.17195,2.9565,-0.097371,-1.9313,2.799,0.71857,-3.154,-0.024198
-0.036495,-0.023044,0,0,0.065313,-0.026755,0.01265,-0.0047573,-0.011378,0.0021502,0.10446,-0.0070717,0.073041,-0.0062384,0.056382,-0.017784,-0.063144,-0.14231,-0.072757,-0.13079,0.00016185,-0.17218,2.9548,-0.099042,-1.931,2.798,0.71888,-3.1552,-0.025204
-0.036495,-0.023044,0,0,0.065308,-0.026879,0.012642,-0.0047782,-0.011374,0.002169,0.10445,-0.007184,0.073031,-0.0063596,0.056386,-0.017895,-0.063116,-0.14247,-0.072717,-0.13094,0.00016226,-0.1724,2.9532,-0.1007,-1.9308,2.7971,0.71919,-3.1564,-0.026199
-0.036495,-0.023044,0,0,0.065304,-0.027001,0.012634,-0.0047991,-0.011371,0.0021878,0.10444,-0.0072952,0.07302,-0.0064798,0.056391,-0.018006,-0.063087,-0.14263,-0.072678,-0.13109,0.00016267,-0.17261,2.9515,-0.10235,-1.9305,2.7961,0.71949,-3.1576,-0.027183
-0.036495,-0.023044,0,0,0.065299,-0.027123,0.012626,-0.0048199,-0.011367,0.0022065,0.10443,-0.0074053,0.073009,-0.006599,0.056395,-0.018115,-0.063059,-0.14278,-0.072639,-0.13124,0.00016307,-0.17283,2.9499,-0.10398,-1.9302,2.7952,0.7198,-3.1588,-0.028156
-0.036495,-0.023044,0,0,0.065294,-0.027243,0.012618,-0.0048408,-0.011363,0.0022253,0.10442,-0.0075146,0.072999,-0.0067171,0.056399,-0.018224,-0.063031,-0.14294,-0.0726,-0.13139,0.00016348,-0.17305,2.9482,-0.10561,-1.9299,2.7943,0.72011,-3.16,-0.029118
-0.036495,-0.023044,0,0,0.065289,-0.027362,0.01261,-0.0048616,-0.01136,0.0022441,0.10441,-0.0076228,0.072988,-0.0068343,0.056403,-0.018332,-0.063003,-0.1431,-0.072562,-0.13154,0.00016388,-0.17326,2.9466,-0.10722,-1.9296,2.7934,0.72041,-3.1611,-0.03007
-0.036495,-0.023044,0,0,0.065284,-0.027481,0.012602,-0.0048825,-0.011356,0.0022629,0.1044,-0.0077302,0.072977,-0.0069506,0.056407,-0.018438,-0.062975,-0.14325,-0.072524,-0.13168,0.00016427,-0.17347,2.9449,-0.10882,-1.9293,2.7925,0.72072,-3.1623,-0.031013
-0.036495,-0.023044,0,0,0.065279,-0.027598,0.012594,-0.0049033,-0.011352,0.0022816,0.10439,-0.0078366,0.072966,-0.0070659,0.05641,-0.018545,-0.062948,-0.1434,-0.072486,-0.13183,0.00016467,-0.17368,2.9432,-0.11041,-1.929,2.7916,0.72102,-3.1635,-0.031945
-0.036495,-0.023044,0,0,0.065273,-0.027715,0.012586,-0.0049241,-0.011348,0.0023004,0.10437,-0.0079421,0.072955,-0.0071803,0.056414,-0.01865,-0.06292,-0.14356,-0.072448,-0.13197,0.00016506,-0.17389,2.9416,-0.11199,-1.9288,2.7907,0.72132,-3.1646,-0.032868
-0.036495,-0.023044,0,0,0.065268,-0.027831,0.012578,-0.0049449,-0.011345,0.0023192,0.10436,-0.0080468,0.072944,-0.0072939,0.056417,-0.018754,-0.062893,-0.14371,-0.07241,-0.13212,0.00016545,-0.1741,2.9399,-0.11356,-1.9285,2.7898,0.72163,-3.1657,-0.033782
-0.036495,-0.023044,0,0,0.065262,-0.027945,0.012569,-0.0049657,-0.011341,0.0023379,0.10435,-0.0081506,0.072933,-0.0074065,0.05642,-0.018858,-0.062866,-0.14386,-0.072373,-0.13226,0.00016584,-0.17431,2.9383,-0.11512,-1.9282,2.7889,0.72193,-3.1669,-0.034687
-0.036495,-0.023044,0,0,0.065257,-0.028059,0.012561,-0.0049864,-0.011337,0.0023566,0.10434,-0.0082537,0.072921,-0.0075184,0.056423,-0.018961,-0.062839,-0.14401,-0.072336,-0.1324,0.00016623,-0.17451,2.9366,-0.11667,-1.9279,2.788,0.72223,-3.168,-0.035583
-0.036495,-0.023044,0,0,0.065251,-0.028173,0.012553,-0.0050072,-0.011333,0.0023754,0.10433,-0.0083559,0.07291,-0.0076294,0.056426,-0.019063,-0.062812,-0.14416,-0.072299,-0.13254,0.00016661,-0.17471,2.935,-0.11821,-1.9276,2.7872,0.72253,-3.1691,-0.036471
-0.036495,-0.023044,0,0,0.065246,-0.028285,0.012545,-0.0050279,-0.011329,0.0023941,0.10432,-0.0084573,0.072898,-0.0077397,0.056429,-0.019165,-0.062785,-0.14431,-0.072262,-0.13268,0.000167,-0.17492,2.9333,-0.11974,-1.9274,2.7863,0.72283,-3.1702,-0.03735
-0.036495,-0.023044,0,0,0.06524,-0.028397,0.012536,-0.0050487,-0.011325,0.0024128,0.10431,-0.008558,0.072887,-0.0078491,0.056432,-0.019266,-0.062759,-0.14445,-0.072225,-0.13282,0.00016738,-0.17512,2.9317,-0.12126,-1.9271,2.7854,0.72312,-3.1713,-0.038222
-0.036495,-0.023044,0,0,0.065234,-0.028507,0.012528,-0.0050694,-0.011321,0.0024315,0.1043,-0.008658,0.072875,-0.0079578,0.056434,-0.019366,-0.062732,-0.1446,-0.072189,-0.13296,0.00016776,-0.17532,2.93,-0.12277,-1.9268,2.7846,0.72342,-3.1724,-0.039085
-0.036495,-0.023044,0,0,0.065228,-0.028617,0.01252,-0.0050901,-0.011317,0.0024502,0.10428,-0.0087572,0.072863,-0.0080658,0.056437,-0.019465,-0.062706,-0.14475,-0.072153,-0.1331,0.00016814,-0.17552,2.9284,-0.12428,-1.9265,2.7837,0.72372,-3.1735,-0.039941
-0.036495,-0.023044,0,0,0.065222,-0.028727,0.012511,-0.0051108,-0.011313,0.0024689,0.10427,-0.0088557,0.072852,-0.008173,0.056439,-0.019564,-0.06268,-0.14489,-0.072117,-0.13323,0.00016852,-0.17571,2.9267,-0.12577,-1.9262,2.7829,0.72402,-3.1746,-0.040789
-0.036495,-0.023044,0,0,0.065216,-0.028835,0.012503,-0.0051314,-0.011309,0.0024876,0.10426,-0.0089535,0.07284,-0.0082795,0.056441,-0.019662,-0.062654,-0.14504,-0.072081,-0.13337,0.00016889,-0.17591,2.9251,-0.12726,-1.926,2.7821,0.72431,-3.1756,-0.041629
-0.036495,-0.023044,0,0,0.065209,-0.028943,0.012494,-0.0051521,-0.011305,0.0025063,0.10425,-0.0090506,0.072828,-0.0083854,0.056443,-0.01976,-0.062628,-0.14518,-0.072045,-0.1335,0.00016927,-0.17611,2.9234,-0.12874,-1.9257,2.7812,0.72461,-3.1767,-0.042463
-0.036495,-0.023044,0,0,0.065203,-0.029051,0.012486,-0.0051727,-0.011301,0.002525,0.10424,-0.0091471,0.072816,-0.0084905,0.056445,-0.019857,-0.062602,-0.14532,-0.07201,-0.13364,0.00016964,-0.1763,2.9218,-0.13021,-1.9254,2.7804,0.7249,-3.1777,-0.043289
-0.036495,-0.023044,0,0,0.065197,-0.029157,0.012477,-0.0051934,-0.011296,0.0025437,0.10423,-0.0092429,0.072804,-0.008595,0.056447,-0.019953,-0.062576,-0.14546,-0.071974,-0.13377,0.00017001,-0.17649,2.9201,-0.13168,-1.9251,2.7796,0.7252,-3.1788,-0.044109
-0.036495,-0.023044,0,0,0.06519,-0.029263,0.012469,-0.005214,-0.011292,0.0025623,0.10421,-0.0093381,0.072792,-0.0086989,0.056449,-0.020049,-0.06255,-0.14561,-0.071939,-0.13391,0.00017038,-0.17669,2.9185,-0.13314,-1.9249,2.7788,0.72549,-3.1798,-0.044922
-0.036495,-0.023044,0,0,0.065184,-0.029369,0.01246,-0.0052346,-0.011288,0.002581,0.1042,-0.0094327,0.07278,-0.0088021,0.05645,-0.020144,-0.062525,-0.14575,-0.071904,-0.13404,0.00017075,-0.17688,2.9168,-0.13459,-1.9246,2.778,0.72579,-3.1809,-0.045728
-0.036495,-0.023044,0,0,0.065177,-0.029473,0.012451,-0.0052552,-0.011284,0.0025996,0.10419,-0.0095266,0.072767,-0.0089047,0.056452,-0.020239,-0.062499,-0.14589,-0.071869,-0.13417,0.00017112,-0.17707,2.9152,-0.13603,-1.9243,2.7772,0.72608,-3.1819,-0.046528
-0.036495,-0.023044,0,0,0.065171,-0.029577,0.012443,-0.0052757,-0.011279,0.0026183,0.10418,-0.00962,0.072755,-0.0090067,0.056453,-0.020333,-0.062474,-0.14602,-0.071835,-0.1343,0.00017149,-0.17726,2.9135,-0.13746,-1.924,2.7764,0.72637,-3.1829,-0.047321
-0.036495,-0.023044,0,0,0.065164,-0.029681,0.012434,-0.0052963,-0.011275,0.0026369,0.10417,-0.0097128,0.072743,-0.0091082,0.056454,-0.020427,-0.062448,-0.14616,-0.0718,-0.13444,0.00017186,-0.17745,2.9118,-0.13889,-1.9238,2.7756,0.72666,-3.1839,-0.048109
-0.036495,-0.023044,0,0,0.065157,-0.029784,0.012425,-0.0053168,-0.011271,0.0026556,0.10415,-0.009805,0.07273,-0.009209,0.056456,-0.02052,-0.062423,-0.1463,-0.071765,-0.13457,0.00017222,-0.17763,2.9102,-0.14031,-1.9235,2.7748,0.72696,-3.185,-0.04889
-0.036495,-0.023044,0,0,0.06515,-0.029886,0.012416,-0.0053373,-0.011266,0.0026742,0.10414,-0.0098966,0.072718,-0.0093093,0.056457,-0.020612,-0.062398,-0.14644,-0.071731,-0.1347,0.00017258,-0.17782,2.9085,-0.14173,-1.9232,2.774,0.72725,-3.186,-0.049665
-0.036495,-0.023044,0,0,0.065144,-0.029988,0.012407,-0.0053579,-0.011262,0.0026928,0.10413,-0.0099877,0.072705,-0.009409,0.056458,-0.020704,-0.062373,-0.14658,-0.071697,-0.13483,0.00017294,-0.17801,2.9069,-0.14314,-1.9229,2.7732,0.72754,-3.187,-0.050435
-0.036495,-0.023044,0,0,0.065137,-0.030089,0.012399,-0.0053784,-0.011257,0.0027114,0.10412,-0.010078,0.072693,-0.0095081,0.056459,-0.020796,-0.062348,-0.14671,-0.071663,-0.13495,0.0001733,-0.17819,2.9052,-0.14454,-1.9227,2.7724,0.72783,-3.188,-0.051199
-0.036495,-0.023044,0,0,0.06513,-0.03019,0.01239,-0.0053988,-0.011253,0.00273,0.1041,-0.010168,0.07268,-0.0096068,0.05646,-0.020887,-0.062323,-0.14685,-0.071629,-0.13508,0.00017366,-0.17837,2.9036,-0.14594,-1.9224,2.7716,0.72812,-3.1889,-0.051958
-0.036495,-0.023044,0,0,0.065122,-0.03029,0.012381,-0.0054193,-0.011248,0.0027486,0.10409,-0.010258,0.072667,-0.0097049,0.05646,-0.020978,-0.062299,-0.14698,-0.071595,-0.13521,0.00017402,-0.17856,2.9019,-0.14733,-1.9221,2.7709,0.72841,-3.1899,-0.052711
-0.036495,-0.023044,0,0,0.065115,-0.03039,0.012372,-0.0054398,-0.011244,0.0027672,0.10408,-0.010347,0.072655,-0.0098025,0.056461,-0.021068,-0.062274,-0.14712,-0.071561,-0.13534,0.00017437,-0.17874,2.9003,-0.14871,-1.9218,2.7701,0.7287,-3.1909,-0.053458
-0.036495,-0.023044,0,0,0.065108,-0.030489,0.012363,-0.0054602,-0.011239,0.0027858,0.10407,-0.010435,0.072642,-0.0098996,0.056461,-0.021157,-0.062249,-0.14725,-0.071528,-0.13546,0.00017473,-0.17892,2.8986,-0.15009,-1.9216,2.7693,0.72899,-3.1919,-0.054201
-0.036495,-0.023044,0,0,0.065101,-0.030587,0.012354,-0.0054806,-0.011235,0.0028043,0.10405,-0.010524,0.072629,-0.0099962,0.056462,-0.021247,-0.062225,-0.14738,-0.071494,-0.13559,0.00017508,-0.1791,2.897,-0.15147,-1.9213,2.7686,0.72928,-3.1929,-0.054939
-0.036495,-0.023044,0,0,0.065093,-0.030686,0.012345,-0.005501,-0.01123,0.0028229,0.10404,-0.010611,0.072616,-0.010092,0.056462,-0.021336,-0.062201,-0.14752,-0.071461,-0.13572,0.00017543,-0.17928,2.8953,-0.15283,-1.921,2.7678,0.72957,-3.1938,-0.055671
-0.036495,-0.023044,0,0,0.065086,-0.030783,0.012335,-0.0055214,-0.011225,0.0028415,0.10403,-0.010698,0.072603,-0.010188,0.056463,-0.021424,-0.062176,-0.14765,-0.071428,-0.13584,0.00017578,-0.17946,2.8937,-0.1542,-1.9208,2.7671,0.72985,-3.1948,-0.056399
-0.036495,-0.023044,0,0,0.065079,-0.030881,0.012326,-0.0055418,-0.011221,0.00286,0.10401,-0.010785,0.07259,-0.010283,0.056463,-0.021512,-0.062152,-0.14778,-0.071394,-0.13597,0.00017612,-0.17964,2.892,-0.15555,-1.9205,2.7663,0.73014,-3.1957,-0.057121
-0.036495,-0.023044,0,0,0.065071,-0.030977,0.012317,-0.0055622,-0.011216,0.0028785,0.104,-0.010871,0.072577,-0.010378,0.056463,-0.0216,-0.062128,-0.14791,-0.071361,-0.13609,0.00017647,-0.17982,2.8904,-0.1569,-1.9202,2.7656,0.73043,-3.1967,-0.05784
-0.036495,-0.023044,0,0,0.065064,-0.031074,0.012308,-0.0055825,-0.011211,0.0028971,0.10399,-0.010957,0.072564,-0.010472,0.056463,-0.021687,-0.062104,-0.14804,-0.071328,-0.13621,0.00017681,-0.18,2.8887,-0.15825,-1.9199,2.7648,0.73072,-3.1976,-0.058553
-0.036495,-0.023044,0,0,0.065056,-0.031169,0.012299,-0.0056029,-0.011206,0.0029156,0.10398,-0.011042,0.072551,-0.010566,0.056463,-0.021774,-0.062079,-0.14817,-0.071296,-0.13634,0.00017715,-0.18017,2.8871,-0.15959,-1.9197,2.7641,0.731,-3.1986,-0.059262
-0.036495,-0.023044,0,0,0.065048,-0.031265,0.012289,-0.0056232,-0.011201,0.0029341,0.10396,-0.011127,0.072537,-0.010659,0.056463,-0.02186,-0.062055,-0.1483,-0.071263,-0.13646,0.00017749,-0.18035,2.8854,-0.16093,-1.9194,2.7633,0.73129,-3.1995,-0.059967
-0.036495,-0.023044,0,0,0.06504,-0.03136,0.01228,-0.0056435,-0.011197,0.0029526,0.10395,-0.011212,0.072524,-0.010752,0.056463,-0.021946,-0.062032,-0.14843,-0.07123,-0.13658,0.00017782,-0.18052,2.8838,-0.16226,-1.9191,2.7626,0.73158,-3.2005,-0.060667
-0.036495,-0.023044,0,0,0.065033,-0.031455,0.012271,-0.0056638,-0.011192,0.0029711,0.10394,-0.011296,0.072511,-0.010845,0.056462,-0.022032,-0.062008,-0.14856,-0.071198,-0.13671,0.00017815,-0.1807,2.8821,-0.16359,-1.9189,2.7619,0.73186,-3.2014,-0.061363
-0.036495,-0.023044,0,0,0.065025,-0.031549,0.012261,-0.005684,-0.011187,0.0029896,0.10392,-0.011379,0.072497,-0.010937,0.056462,-0.022117,-0.061984,-0.14869,-0.071165,-0.13683,0.00017849,-0.18087,2.8804,-0.16491,-1.9186,2.7611,0.73215,-3.2023,-0.062054
-0.036495,-0.023044,0,0,0.065017,-0.031643,0.012252,-0.0057043,-0.011182,0.0030081,0.10391,-0.011463,0.072484,-0.011029,0.056462,-0.022202,-0.06196,-0.14882,-0.071133,-0.13695,0.00017882,-0.18105,2.8788,-0.16623,-1.9183,2.7604,0.73243,-3.2033,-0.062742
-0.036495,-0.023044,0,0,0.065009,-0.031736,0.012243,-0.0057245,-0.011177,0.0030266,0.1039,-0.011545,0.07247,-0.01112,0.056461,-0.022287,-0.061936,-0.14895,-0.071101,-0.13707,0.00017914,-0.18122,2.8771,-0.16754,-1.9181,2.7597,0.73272,-3.2042,-0.063425
-0.036495,-0.023044,0,0,0.065001,-0.031829,0.012233,-0.0057448,-0.011172,0.003045,0.10388,-0.011628,0.072457,-0.011211,0.056461,-0.022371,-0.061913,-0.14907,-0.071068,-0.13719,0.00017947,-0.18139,2.8755,-0.16885,-1.9178,2.759,0.73301,-3.2051,-0.064105
-0.036495,-0.023044,0,0,0.064993,-0.031922,0.012224,-0.005765,-0.011167,0.0030635,0.10387,-0.01171,0.072443,-0.011302,0.05646,-0.022455,-0.061889,-0.1492,-0.071036,-0.13731,0.00017979,-0.18156,2.8738,-0.17015,-1.9175,2.7582,0.73329,-3.206,-0.064781
-0.036495,-0.023044,0,0,0.064985,-0.032014,0.012214,-0.0057852,-0.011162,0.0030819,0.10386,-0.011792,0.072429,-0.011392,0.056459,-0.022538,-0.061866,-0.14933,-0.071004,-0.13743,0.00018011,-0.18173,2.8722,-0.17145,-1.9172,2.7575,0.73358,-3.2069,-0.065453
-0.036495,-0.023044,0,0,0.064977,-0.032106,0.012204,-0.0058053,-0.011156,0.0031004,0.10384,-0.011873,0.072416,-0.011482,0.056458,-0.022621,-0.061842,-0.14945,-0.070972,-0.13755,0.00018042,-0.1819,2.8705,-0.17275,-1.917,2.7568,0.73386,-3.2078,-0.066121
-0.036495,-0.023044,0,0,0.064968,-0.032197,0.012195,-0.0058255,-0.011151,0.0031188,0.10383,-0.011954,0.072402,-0.011571,0.056458,-0.022704,-0.061819,-0.14958,-0.07094,-0.13767,0.00018074,-0.18207,2.8689,-0.17404,-1.9167,2.7561,0.73414,-3.2087,-0.066785
-0.036495,-0.023044,0,0,0.06496,-0.032288,0.012185,-0.0058456,-0.011146,0.0031372,0.10381,-0.012035,0.072388,-0.011661,0.056457,-0.022787,-0.061796,-0.1497,-0.070909,-0.13779,0.00018105,-0.18224,2.8672,-0.17533,-1.9164,2.7554,0.73443,-3.2096,-0.067446
-0.036495,-0.023044,0,0,0.064952,-0.032379,0.012175,-0.0058658,-0.011141,0.0031557,0.1038,-0.012115,0.072374,-0.011749,0.056456,-0.022869,-0.061772,-0.14983,-0.070877,-0.13791,0.00018135,-0.18241,2.8656,-0.17661,-1.9162,2.7547,0.73471,-3.2105,-0.068103
-0.036495,-0.023044,0,0,0.064943,-0.03247,0.012166,-0.0058859,-0.011136,0.0031741,0.10379,-0.012195,0.07236,-0.011838,0.056455,-0.022951,-0.061749,-0.14995,-0.070845,-0.13803,0.00018166,-0.18258,2.8639,-0.17789,-1.9159,2.754,0.735,-3.2114,-0.068757
-0.036495,-0.023044,0,0,0.064935,-0.03256,0.012156,-0.005906,-0.01113,0.0031925,0.10377,-0.012275,0.072346,-0.011926,0.056453,-0.023033,-0.061726,-0.15008,-0.070814,-0.13814,0.00018196,-0.18275,2.8623,-0.17917,-1.9156,2.7533,0.73528,-3.2123,-0.069407
-0.036495,-0.023044,0,0,0.064927,-0.032649,0.012146,-0.0059261,-0.011125,0.0032109,0.10376,-0.012354,0.072332,-0.012014,0.056452,-0.023114,-0.061703,-0.1502,-0.070782,-0.13826,0.00018226,-0.18291,2.8606,-0.18044,-1.9154,2.7526,0.73556,-3.2132,-0.070054
-0.036495,-0.023044,0,0,0.064918,-0.032739,0.012136,-0.0059461,-0.01112,0.0032292,0.10374,-0.012433,0.072318,-0.012101,0.056451,-0.023195,-0.06168,-0.15032,-0.070751,-0.13838,0.00018256,-0.18308,2.859,-0.18171,-1.9151,2.7519,0.73585,-3.2141,-0.070697
-0.036495,-0.023044,0,0,0.06491,-0.032828,0.012127,-0.0059662,-0.011115,0.0032476,0.10373,-0.012512,0.072304,-0.012188,0.05645,-0.023276,-0.061657,-0.15045,-0.07072,-0.13849,0.00018285,-0.18325,2.8573,-0.18297,-1.9148,2.7512,0.73613,-3.2149,-0.071338
-0.036495,-0.023044,0,0,0.064901,-0.032917,0.012117,-0.0059862,-0.011109,0.003266,0.10372,-0.012591,0.07229,-0.012275,0.056448,-0.023357,-0.061634,-0.15057,-0.070688,-0.13861,0.00018314,-0.18341,2.8557,-0.18423,-1.9146,2.7505,0.73641,-3.2158,-0.071975
-0.036495,-0.023044,0,0,0.064892,-0.033005,0.012107,-0.0060062,-0.011104,0.0032843,0.1037,-0.012669,0.072276,-0.012362,0.056447,-0.023437,-0.061611,-0.15069,-0.070657,-0.13873,0.00018342,-0.18358,2.854,-0.18549,-1.9143,2.7498,0.7367,-3.2167,-0.072608
-0.036495,-0.023044,0,0,0.064884,-0.033094,0.012097,-0.0060262,-0.011098,0.0033027,0.10369,-0.012746,0.072262,-0.012448,0.056445,-0.023517,-0.061588,-0.15081,-0.070626,-0.13884,0.00018371,-0.18374,2.8524,-0.18675,-1.914,2.7491,0.73698,-3.2176,-0.073239
-0.036495,-0.023044,0,0,0.064875,-0.033181,0.012087,-0.0060462,-0.011093,0.003321,0.10367,-0.012824,0.072247,-0.012534,0.056444,-0.023597,-0.061565,-0.15094,-0.070595,-0.13896,0.00018399,-0.1839,2.8507,-0.188,-1.9137,2.7484,0.73726,-3.2184,-0.073867
-0.036495,-0.023044,0,0,0.064866,-0.033269,0.012077,-0.0060662,-0.011087,0.0033393,0.10366,-0.012901,0.072233,-0.012619,0.056442,-0.023676,-0.061542,-0.15106,-0.070564,-0.13907,0.00018426,-0.18407,2.849,-0.18924,-1.9135,2.7478,0.73755,-3.2193,-0.074492
-0.036495,-0.023044,0,0,0.064857,-0.033356,0.012067,-0.0060861,-0.011082,0.0033577,0.10365,-0.012978,0.072219,-0.012705,0.05644,-0.023755,-0.061519,-0.15118,-0.070533,-0.13919,0.00018453,-0.18423,2.8474,-0.19049,-1.9132,2.7471,0.73783,-3.2201,-0.075113
-0.036495,-0.023044,0,0,0.064848,-0.033443,0.012057,-0.0061061,-0.011076,0.003376,0.10363,-0.013054,0.072204,-0.01279,0.056439,-0.023834,-0.061497,-0.1513,-0.070502,-0.1393,0.0001848,-0.18439,2.8457,-0.19173,-1.9129,2.7464,0.73811,-3.221,-0.075732
-0.036495,-0.023044,0,0,0.064839,-0.03353,0.012047,-0.006126,-0.011071,0.0033943,0.10362,-0.013131,0.07219,-0.012875,0.056437,-0.023913,-0.061474,-0.15142,-0.070472,-0.13942,0.00018507,-0.18456,2.8441,-0.19297,-1.9127,2.7457,0.73839,-3.2219,-0.076348
-0.036495,-0.023044,0,0,0.06483,-0.033616,0.012037,-0.0061459,-0.011065,0.0034126,0.1036,-0.013207,0.072175,-0.012959,0.056435,-0.023991,-0.061451,-0.15154,-0.070441,-0.13953,0.00018533,-0.18472,2.8424,-0.1942,-1.9124,2.7451,0.73868,-3.2227,-0.076961
-0.036495,-0.023044,0,0,0.064821,-0.033703,0.012026,-0.0061658,-0.011059,0.0034309,0.10359,-0.013283,0.072161,-0.013043,0.056433,-0.024069,-0.061429,-0.15166,-0.07041,-0.13965,0.00018559,-0.18488,2.8408,-0.19543,-1.9121,2.7444,0.73896,-3.2236,-0.077571
-0.036495,-0.023044,0,0,0.064812,-0.033789,0.012016,-0.0061856,-0.011054,0.0034491,0.10357,-0.013358,0.072146,-0.013127,0.056431,-0.024147,-0.061406,-0.15178,-0.070379,-0.13976,0.00018584,-0.18504,2.8391,-0.19666,-1.9119,2.7437,0.73924,-3.2244,-0.078179
-0.036495,-0.023044,0,0,0.064803,-0.033874,0.012006,-0.0062055,-0.011048,0.0034674,0.10356,-0.013433,0.072131,-0.013211,0.056429,-0.024225,-0.061384,-0.1519,-0.070349,-0.13987,0.00018609,-0.1852,2.8375,-0.19788,-1.9116,2.743,0.73952,-3.2253,-0.078784
-0.036495,-0.023044,0,0,0.064794,-0.033959,0.011996,-0.0062253,-0.011042,0.0034856,0.10354,-0.013508,0.072117,-0.013294,0.056427,-0.024302,-0.061361,-0.15202,-0.070318,-0.13999,0.00018634,-0.18536,2.8358,-0.19911,-1.9113,2.7424,0.73981,-3.2261,-0.079386
-0.036495,-0.023044,0,0,0.064785,-0.034045,0.011985,-0.0062451,-0.011036,0.0035039,0.10353,-0.013583,0.072102,-0.013377,0.056425,-0.02438,-0.061339,-0.15214,-0.070288,-0.1401,0.00018658,-0.18552,2.8342,-0.20033,-1.9111,2.7417,0.74009,-3.2269,-0.079986
-0.036495,-0.023044,0,0,0.064776,-0.034129,0.011975,-0.0062649,-0.011031,0.0035221,0.10351,-0.013657,0.072087,-0.01346,0.056422,-0.024457,-0.061316,-0.15226,-0.070258,-0.14021,0.00018682,-0.18568,2.8325,-0.20154,-1.9108,2.741,0.74037,-3.2278,-0.080583
-0.036495,-0.023044,0,0,0.064766,-0.034214,0.011965,-0.0062847,-0.011025,0.0035403,0.1035,-0.013732,0.072072,-0.013543,0.05642,-0.024533,-0.061294,-0.15237,-0.070227,-0.14032,0.00018705,-0.18584,2.8309,-0.20276,-1.9105,2.7404,0.74065,-3.2286,-0.081177
-0.036495,-0.023044,0,0,0.064757,-0.034298,0.011954,-0.0063045,-0.011019,0.0035586,0.10349,-0.013806,0.072057,-0.013625,0.056418,-0.02461,-0.061272,-0.15249,-0.070197,-0.14044,0.00018728,-0.186,2.8292,-0.20397,-1.9103,2.7397,0.74093,-3.2294,-0.081769
-0.036495,-0.023044,0,0,0.064748,-0.034382,0.011944,-0.0063242,-0.011013,0.0035768,0.10347,-0.013879,0.072042,-0.013707,0.056415,-0.024686,-0.061249,-0.15261,-0.070167,-0.14055,0.00018751,-0.18616,2.8276,-0.20517,-1.91,2.7391,0.74121,-3.2303,-0.082359
-0.036495,-0.023044,0,0,0.064738,-0.034466,0.011933,-0.006344,-0.011007,0.003595,0.10346,-0.013953,0.072027,-0.013789,0.056413,-0.024762,-0.061227,-0.15273,-0.070137,-0.14066,0.00018773,-0.18632,2.8259,-0.20638,-1.9097,2.7384,0.7415,-3.2311,-0.082946
-0.036495,-0.023044,0,0,0.064729,-0.03455,0.011923,-0.0063637,-0.011001,0.0036131,0.10344,-0.014026,0.072012,-0.013871,0.05641,-0.024838,-0.061205,-0.15285,-0.070106,-0.14077,0.00018795,-0.18647,2.8243,-0.20758,-1.9095,2.7378,0.74178,-3.2319,-0.083531
-0.036495,-0.023044,0,0,0.064719,-0.034633,0.011912,-0.0063834,-0.010995,0.0036313,0.10343,-0.014099,0.071997,-0.013952,0.056408,-0.024914,-0.061183,-0.15296,-0.070076,-0.14088,0.00018816,-0.18663,2.8226,-0.20878,-1.9092,2.7371,0.74206,-3.2328,-0.084113
-0.036495,-0.023044,0,0,0.06471,-0.034716,0.011902,-0.006403,-0.010989,0.0036495,0.10341,-0.014172,0.071982,-0.014033,0.056405,-0.024989,-0.061161,-0.15308,-0.070046,-0.14099,0.00018837,-0.18679,2.821,-0.20998,-1.9089,2.7365,0.74234,-3.2336,-0.084693
-0.036495,-0.023044,0,0,0.0647,-0.034799,0.011891,-0.0064227,-0.010983,0.0036676,0.1034,-0.014244,0.071967,-0.014114,0.056403,-0.025065,-0.061139,-0.1532,-0.070016,-0.14111,0.00018858,-0.18694,2.8193,-0.21117,-1.9087,2.7358,0.74262,-3.2344,-0.085271
-0.036495,-0.023044,0,0,0.06469,-0.034882,0.01188,-0.0064423,-0.010977,0.0036858,0.10338,-0.014317,0.071952,-0.014195,0.0564,-0.02514,-0.061116,-0.15331,-0.069986,-0.14122,0.00018878,-0.1871,2.8176,-0.21237,-1.9084,2.7352,0.7429,-3.2352,-0.085847
-0.036495,-0.023044,0,0,0.064681,-0.034964,0.01187,-0.006462,-0.010971,0.0037039,0.10337,-0.014389,0.071937,-0.014276,0.056397,-0.025215,-0.061094,-0.15343,-0.069957,-0.14133,0.00018897,-0.18726,2.816,-0.21356,-1.9081,2.7345,0.74318,-3.236,-0.08642
-0.036495,-0.023044,0,0,0.064671,-0.035047,0.011859,-0.0064816,-0.010965,0.0037221,0.10335,-0.014461,0.071921,-0.014356,0.056394,-0.025289,-0.061072,-0.15354,-0.069927,-0.14144,0.00018917,-0.18741,2.8143,-0.21474,-1.9079,2.7339,0.74347,-3.2368,-0.086991
-0.036495,-0.023044,0,0,0.064661,-0.035129,0.011848,-0.0065012,-0.010959,0.0037402,0.10333,-0.014532,0.071906,-0.014436,0.056391,-0.025364,-0.06105,-0.15366,-0.069897,-0.14155,0.00018935,-0.18757,2.8127,-0.21593,-1.9076,2.7332,0.74375,-3.2376,-0.08756
-0.036495,-0.023044,0,0,0.064651,-0.03521,0.011838,-0.0065207,-0.010952,0.0037583,0.10332,-0.014604,0.071891,-0.014516,0.056388,-0.025438,-0.061028,-0.15378,-0.069867,-0.14166,0.00018953,-0.18772,2.811,-0.21711,-1.9073,2.7326,0.74403,-3.2385,-0.088127
-0.036495,-0.023044,0,0,0.064642,-0.035292,0.011827,-0.0065403,-0.010946,0.0037764,0.1033,-0.014675,0.071875,-0.014596,0.056385,-0.025512,-0.061006,-0.15389,-0.069837,-0.14177,0.00018971,-0.18788,2.8094,-0.21829,-1.907,2.7319,0.74431,-3.2393,-0.088692
-0.036495,-0.023044,0,0,0.064632,-0.035373,0.011816,-0.0065598,-0.01094,0.0037945,0.10329,-0.014746,0.07186,-0.014675,0.056382,-0.025586,-0.060984,-0.15401,-0.069808,-0.14188,0.00018988,-0.18803,2.8077,-0.21947,-1.9068,2.7313,0.74459,-3.2401,-0.089254
-0.036495,-0.023044,0,0,0.064622,-0.035455,0.011805,-0.0065794,-0.010934,0.0038125,0.10327,-0.014817,0.071845,-0.014754,0.056379,-0.02566,-0.060963,-0.15412,-0.069778,-0.14199,0.00019005,-0.18818,2.8061,-0.22064,-1.9065,2.7307,0.74487,-3.2409,-0.089815
-0.036495,-0.023044,0,0,0.064612,-0.035536,0.011794,-0.0065989,-0.010927,0.0038306,0.10326,-0.014887,0.071829,-0.014833,0.056376,-0.025733,-0.060941,-0.15424,-0.069749,-0.14209,0.00019022,-0.18834,2.8044,-0.22182,-1.9062,2.73,0.74515,-3.2417,-0.090374
-0.036495,-0.023044,0,0,0.064602,-0.035616,0.011783,-0.0066183,-0.010921,0.0038486,0.10324,-0.014958,0.071813,-0.014912,0.056373,-0.025807,-0.060919,-0.15435,-0.069719,-0.1422,0.00019038,-0.18849,2.8028,-0.22299,-1.906,2.7294,0.74543,-3.2425,-0.090931
-0.036495,-0.023044,0,0,0.064592,-0.035697,0.011772,-0.0066378,-0.010915,0.0038667,0.10323,-0.015028,0.071798,-0.014991,0.05637,-0.02588,-0.060897,-0.15446,-0.069689,-0.14231,0.00019053,-0.18864,2.8011,-0.22416,-1.9057,2.7288,0.74572,-3.2433,-0.091485
-0.036495,-0.023044,0,0,0.064582,-0.035777,0.011761,-0.0066573,-0.010908,0.0038847,0.10321,-0.015098,0.071782,-0.015069,0.056367,-0.025953,-0.060875,-0.15458,-0.06966,-0.14242,0.00019068,-0.1888,2.7995,-0.22532,-1.9054,2.7281,0.746,-3.2441,-0.092038
-0.036495,-0.023044,0,0,0.064571,-0.035857,0.01175,-0.0066767,-0.010902,0.0039027,0.10319,-0.015168,0.071766,-0.015147,0.056363,-0.026026,-0.060854,-0.15469,-0.069631,-0.14253,0.00019082,-0.18895,2.7978,-0.22649,-1.9052,2.7275,0.74628,-3.2449,-0.092589
-0.036495,-0.023044,0,0,0.064561,-0.035937,0.011739,-0.0066961,-0.010895,0.0039208,0.10318,-0.015237,0.071751,-0.015225,0.05636,-0.026099,-0.060832,-0.15481,-0.069601,-0.14264,0.00019096,-0.1891,2.7962,-0.22765,-1.9049,2.7269,0.74656,-3.2456,-0.093138
-0.036495,-0.023044,0,0,0.064551,-0.036017,0.011728,-0.0067155,-0.010889,0.0039388,0.10316,-0.015307,0.071735,-0.015303,0.056356,-0.026171,-0.06081,-0.15492,-0.069572,-0.14274,0.0001911,-0.18925,2.7945,-0.22881,-1.9046,2.7262,0.74684,-3.2464,-0.093685
-0.036495,-0.023044,0,0,0.064541,-0.036097,0.011717,-0.0067349,-0.010882,0.0039568,0.10315,-0.015376,0.071719,-0.015381,0.056353,-0.026243,-0.060788,-0.15503,-0.069543,-0.14285,0.00019122,-0.1894,2.7929,-0.22997,-1.9044,2.7256,0.74712,-3.2472,-0.09423
-0.036495,-0.023044,0,0,0.064531,-0.036176,0.011706,-0.0067542,-0.010876,0.0039747,0.10313,-0.015445,0.071703,-0.015458,0.056349,-0.026316,-0.060767,-0.15515,-0.069513,-0.14296,0.00019135,-0.18955,2.7912,-0.23112,-1.9041,2.725,0.7474,-3.248,-0.094774
-0.036495,-0.023044,0,0,0.06452,-0.036255,0.011695,-0.0067735,-0.010869,0.0039927,0.10312,-0.015514,0.071687,-0.015536,0.056346,-0.026388,-0.060745,-0.15526,-0.069484,-0.14307,0.00019147,-0.18971,2.7896,-0.23228,-1.9038,2.7244,0.74768,-3.2488,-0.095316
-0.036495,-0.023044,0,0,0.06451,-0.036334,0.011684,-0.0067929,-0.010863,0.0040107,0.1031,-0.015583,0.071671,-0.015613,0.056342,-0.02646,-0.060724,-0.15537,-0.069455,-0.14317,0.00019158,-0.18986,2.7879,-0.23343,-1.9036,2.7237,0.74797,-3.2496,-0.095856
-0.036495,-0.023044,0,0,0.064499,-0.036413,0.011672,-0.0068122,-0.010856,0.0040286,0.10308,-0.015651,0.071656,-0.01569,0.056339,-0.026531,-0.060702,-0.15548,-0.069426,-0.14328,0.00019169,-0.19001,2.7862,-0.23458,-1.9033,2.7231,0.74825,-3.2504,-0.096394
-0.036495,-0.023044,0,0,0.064489,-0.036492,0.011661,-0.0068314,-0.010849,0.0040465,0.10307,-0.015719,0.07164,-0.015767,0.056335,-0.026603,-0.06068,-0.1556,-0.069396,-0.14339,0.00019179,-0.19016,2.7846,-0.23573,-1.903,2.7225,0.74853,-3.2511,-0.096931
-0.036495,-0.023044,0,0,0.064478,-0.036571,0.01165,-0.0068507,-0.010842,0.0040645,0.10305,-0.015788,0.071623,-0.015843,0.056331,-0.026674,-0.060659,-0.15571,-0.069367,-0.1435,0.00019189,-0.19031,2.7829,-0.23687,-1.9028,2.7219,0.74881,-3.2519,-0.097465
-0.036495,-0.023044,0,0,0.064468,-0.036649,0.011638,-0.00687,-0.010836,0.0040824,0.10304,-0.015856,0.071607,-0.01592,0.056327,-0.026745,-0.060637,-0.15582,-0.069338,-0.1436,0.00019199,-0.19046,2.7813,-0.23802,-1.9025,2.7212,0.74909,-3.2527,-0.097999
-0.036495,-0.023044,0,0,0.064457,-0.036727,0.011627,-0.0068892,-0.010829,0.0041003,0.10302,-0.015923,0.071591,-0.015996,0.056323,-0.026817,-0.060616,-0.15593,-0.069309,-0.14371,0.00019207,-0.19061,2.7796,-0.23916,-1.9022,2.7206,0.74937,-3.2535,-0.09853
-0.036495,-0.023044,0,0,0.064447,-0.036805,0.011616,-0.0069084,-0.010822,0.0041182,0.103,-0.015991,0.071575,-0.016072,0.05632,-0.026887,-0.060594,-0.15604,-0.06928,-0.14381,0.00019216,-0.19076,2.778,-0.2403,-1.9019,2.72,0.74965,-3.2542,-0.09906
-0.036495,-0.023044,0,0,0.064436,-0.036883,0.011604,-0.0069276,-0.010815,0.004136,0.10299,-0.016058,0.071559,-0.016148,0.056316,-0.026958,-0.060573,-0.15616,-0.069251,-0.14392,0.00019223,-0.1909,2.7763,-0.24144,-1.9017,2.7194,0.74993,-3.255,-0.099589
-0.036495,-0.023044,0,0,0.064425,-0.036961,0.011593,-0.0069467,-0.010809,0.0041539,0.10297,-0.016126,0.071543,-0.016224,0.056312,-0.027029,-0.060552,-0.15627,-0.069222,-0.14403,0.00019231,-0.19105,2.7747,-0.24257,-1.9014,2.7188,0.75022,-3.2558,-0.10012
-0.036495,-0.023044,0,0,0.064415,-0.037038,0.011581,-0.0069659,-0.010802,0.0041718,0.10295,-0.016193,0.071526,-0.016299,0.056308,-0.027099,-0.06053,-0.15638,-0.069193,-0.14413,0.00019237,-0.1912,2.773,-0.24371,-1.9011,2.7182,0.7505,-3.2565,-0.10064
-0.036495,-0.023044,0,0,0.064404,-0.037115,0.01157,-0.006985,-0.010795,0.0041896,0.10294,-0.01626,0.07151,-0.016375,0.056304,-0.02717,-0.060509,-0.15649,-0.069165,-0.14424,0.00019244,-0.19135,2.7714,-0.24484,-1.9009,2.7176,0.75078,-3.2573,-0.10116
-0.036495,-0.023044,0,0,0.064393,-0.037193,0.011558,-0.0070041,-0.010788,0.0042075,0.10292,-0.016327,0.071494,-0.01645,0.056299,-0.02724,-0.060487,-0.1566,-0.069136,-0.14434,0.00019249,-0.1915,2.7697,-0.24597,-1.9006,2.7169,0.75106,-3.2581,-0.10169
-0.036495,-0.023044,0,0,0.064382,-0.03727,0.011547,-0.0070232,-0.010781,0.0042253,0.10291,-0.016393,0.071477,-0.016525,0.056295,-0.02731,-0.060466,-0.15671,-0.069107,-0.14445,0.00019254,-0.19164,2.7681,-0.2471,-1.9003,2.7163,0.75134,-3.2588,-0.10221
-0.036495,-0.023044,0,0,0.064371,-0.037347,0.011535,-0.0070423,-0.010774,0.0042431,0.10289,-0.01646,0.071461,-0.0166,0.056291,-0.02738,-0.060445,-0.15682,-0.069078,-0.14455,0.00019259,-0.19179,2.7664,-0.24823,-1.9001,2.7157,0.75162,-3.2596,-0.10273
-0.036495,-0.023044,0,0,0.064361,-0.037423,0.011523,-0.0070614,-0.010767,0.0042609,0.10287,-0.016526,0.071444,-0.016675,0.056287,-0.02745,-0.060423,-0.15693,-0.069049,-0.14466,0.00019263,-0.19194,2.7648,-0.24936,-1.8998,2.7151,0.75191,-3.2604,-0.10324
-0.036495,-0.023044,0,0,0.06435,-0.0375,0.011512,-0.0070804,-0.01076,0.0042787,0.10286,-0.016592,0.071428,-0.01675,0.056282,-0.02752,-0.060402,-0.15704,-0.069021,-0.14476,0.00019266,-0.19209,2.7631,-0.25048,-1.8995,2.7145,0.75219,-3.2611,-0.10376
-0.036495,-0.023044,0,0,0.064339,-0.037576,0.0115,-0.0070994,-0.010753,0.0042965,0.10284,-0.016658,0.071411,-0.016824,0.056278,-0.027589,-0.060381,-0.15715,-0.068992,-0.14487,0.00019269,-0.19223,2.7615,-0.25161,-1.8993,2.7139,0.75247,-3.2619,-0.10427
-0.036495,-0.023044,0,0,0.064328,-0.037653,0.011488,-0.0071184,-0.010746,0.0043142,0.10282,-0.016724,0.071394,-0.016898,0.056274,-0.027658,-0.06036,-0.15726,-0.068963,-0.14497,0.00019271,-0.19238,2.7598,-0.25273,-1.899,2.7133,0.75275,-3.2626,-0.10479
-0.036495,-0.023044,0,0,0.064317,-0.037729,0.011476,-0.0071374,-0.010738,0.004332,0.10281,-0.01679,0.071378,-0.016973,0.056269,-0.027728,-0.060338,-0.15737,-0.068935,-0.14508,0.00019273,-0.19253,2.7582,-0.25385,-1.8987,2.7127,0.75303,-3.2634,-0.1053
-0.036495,-0.023044,0,0,0.064305,-0.037805,0.011465,-0.0071563,-0.010731,0.0043497,0.10279,-0.016856,0.071361,-0.017047,0.056265,-0.027797,-0.060317,-0.15748,-0.068906,-0.14518,0.00019274,-0.19267,2.7565,-0.25497,-1.8984,2.7121,0.75332,-3.2641,-0.10581
-0.036495,-0.023044,0,0,0.064294,-0.037881,0.011453,-0.0071753,-0.010724,0.0043674,0.10277,-0.016921,0.071344,-0.017121,0.05626,-0.027866,-0.060296,-0.15759,-0.068877,-0.14529,0.00019275,-0.19282,2.7548,-0.25608,-1.8982,2.7115,0.7536,-3.2649,-0.10632
-0.036495,-0.023044,0,0,0.064283,-0.037956,0.011441,-0.0071942,-0.010717,0.0043852,0.10276,-0.016986,0.071327,-0.017194,0.056256,-0.027935,-0.060275,-0.1577,-0.068849,-0.14539,0.00019275,-0.19296,2.7532,-0.2572,-1.8979,2.7109,0.75388,-3.2657,-0.10683
-0.036495,-0.023044,0,0,0.064272,-0.038032,0.011429,-0.0072131,-0.01071,0.0044029,0.10274,-0.017051,0.071311,-0.017268,0.056251,-0.028004,-0.060254,-0.15781,-0.06882,-0.1455,0.00019275,-0.19311,2.7515,-0.25831,-1.8976,2.7103,0.75416,-3.2664,-0.10733
-0.036495,-0.023044,0,0,0.064261,-0.038107,0.011417,-0.007232,-0.010702,0.0044206,0.10272,-0.017116,0.071294,-0.017342,0.056247,-0.028072,-0.060233,-0.15792,-0.068792,-0.1456,0.00019274,-0.19325,2.7499,-0.25942,-1.8974,2.7097,0.75444,-3.2672,-0.10784
-0.036495,-0.023044,0,0,0.064249,-0.038182,0.011405,-0.0072508,-0.010695,0.0044382,0.1027,-0.017181,0.071277,-0.017415,0.056242,-0.028141,-0.060211,-0.15803,-0.068763,-0.1457,0.00019272,-0.1934,2.7482,-0.26053,-1.8971,2.7091,0.75473,-3.2679,-0.10834
-0.036495,-0.023044,0,0,0.064238,-0.038258,0.011393,-0.0072697,-0.010688,0.0044559,0.10269,-0.017246,0.07126,-0.017488,0.056237,-0.028209,-0.06019,-0.15814,-0.068735,-0.14581,0.0001927,-0.19354,2.7466,-0.26164,-1.8968,2.7085,0.75501,-3.2686,-0.10885
-0.036495,-0.023044,0,0,0.064227,-0.038333,0.011381,-0.0072885,-0.01068,0.0044736,0.10267,-0.017311,0.071243,-0.017561,0.056232,-0.028277,-0.060169,-0.15824,-0.068706,-0.14591,0.00019268,-0.19369,2.7449,-0.26275,-1.8965,2.7079,0.75529,-3.2694,-0.10935
-0.036495,-0.023044,0,0,0.064215,-0.038407,0.011369,-0.0073073,-0.010673,0.0044912,0.10265,-0.017375,0.071226,-0.017634,0.056228,-0.028346,-0.060148,-0.15835,-0.068678,-0.14601,0.00019264,-0.19383,2.7433,-0.26386,-1.8963,2.7073,0.75557,-3.2701,-0.10985
-0.036495,-0.023044,0,0,0.064204,-0.038482,0.011357,-0.0073261,-0.010665,0.0045088,0.10264,-0.017439,0.071209,-0.017707,0.056223,-0.028414,-0.060127,-0.15846,-0.068649,-0.14612,0.0001926,-0.19398,2.7416,-0.26496,-1.896,2.7067,0.75586,-3.2709,-0.11035
-0.036495,-0.023044,0,0,0.064192,-0.038557,0.011345,-0.0073448,-0.010658,0.0045265,0.10262,-0.017504,0.071192,-0.01778,0.056218,-0.028482,-0.060106,-0.15857,-0.068621,-0.14622,0.00019256,-0.19412,2.74,-0.26606,-1.8957,2.7061,0.75614,-3.2716,-0.11084
-0.036495,-0.023044,0,0,0.064181,-0.038631,0.011333,-0.0073636,-0.01065,0.0045441,0.1026,-0.017568,0.071175,-0.017852,0.056213,-0.028549,-0.060085,-0.15868,-0.068593,-0.14632,0.00019251,-0.19427,2.7383,-0.26717,-1.8955,2.7055,0.75642,-3.2724,-0.11134
-0.036495,-0.023044,0,0,0.064169,-0.038706,0.01132,-0.0073823,-0.010643,0.0045617,0.10258,-0.017632,0.071158,-0.017925,0.056208,-0.028617,-0.060064,-0.15879,-0.068564,-0.14643,0.00019246,-0.19441,2.7367,-0.26827,-1.8952,2.7049,0.7567,-3.2731,-0.11183
-0.036495,-0.023044,0,0,0.064158,-0.03878,0.011308,-0.007401,-0.010635,0.0045792,0.10257,-0.017695,0.07114,-0.017997,0.056203,-0.028685,-0.060043,-0.15889,-0.068536,-0.14653,0.00019239,-0.19455,2.735,-0.26937,-1.8949,2.7043,0.75699,-3.2738,-0.11233
-0.036495,-0.023044,0,0,0.064146,-0.038854,0.011296,-0.0074196,-0.010628,0.0045968,0.10255,-0.017759,0.071123,-0.018069,0.056198,-0.028752,-0.060022,-0.159,-0.068508,-0.14663,0.00019233,-0.1947,2.7334,-0.27046,-1.8947,2.7038,0.75727,-3.2746,-0.11282
-0.036495,-0.023044,0,0,0.064135,-0.038928,0.011284,-0.0074383,-0.01062,0.0046144,0.10253,-0.017823,0.071106,-0.018141,0.056193,-0.02882,-0.060001,-0.15911,-0.068479,-0.14674,0.00019226,-0.19484,2.7317,-0.27156,-1.8944,2.7032,0.75755,-3.2753,-0.11331
-0.036495,-0.023044,0,0,0.064123,-0.039002,0.011271,-0.0074569,-0.010612,0.0046319,0.10252,-0.017886,0.071088,-0.018213,0.056188,-0.028887,-0.05998,-0.15922,-0.068451,-0.14684,0.00019218,-0.19498,2.7301,-0.27265,-1.8941,2.7026,0.75784,-3.276,-0.1138
-0.036495,-0.023044,0,0,0.064111,-0.039075,0.011259,-0.0074756,-0.010605,0.0046495,0.1025,-0.017949,0.071071,-0.018285,0.056182,-0.028954,-0.059959,-0.15932,-0.068423,-0.14694,0.00019209,-0.19513,2.7284,-0.27375,-1.8938,2.702,0.75812,-3.2768,-0.11429
-0.036495,-0.023044,0,0,0.064099,-0.039149,0.011247,-0.0074942,-0.010597,0.004667,0.10248,-0.018012,0.071054,-0.018357,0.056177,-0.029021,-0.059938,-0.15943,-0.068395,-0.14704,0.000192,-0.19527,2.7268,-0.27484,-1.8936,2.7014,0.7584,-3.2775,-0.11478
-0.036495,-0.023044,0,0,0.064088,-0.039222,0.011234,-0.0075127,-0.010589,0.0046845,0.10246,-0.018075,0.071036,-0.018428,0.056172,-0.029088,-0.059917,-0.15954,-0.068367,-0.14714,0.00019191,-0.19541,2.7251,-0.27593,-1.8933,2.7008,0.75869,-3.2782,-0.11527
-0.036495,-0.023044,0,0,0.064076,-0.039296,0.011222,-0.0075313,-0.010582,0.004702,0.10245,-0.018138,0.071019,-0.0185,0.056167,-0.029155,-0.059896,-0.15965,-0.068338,-0.14725,0.00019181,-0.19555,2.7234,-0.27702,-1.893,2.7002,0.75897,-3.279,-0.11575
-0.036495,-0.023044,0,0,0.064064,-0.039369,0.011209,-0.0075498,-0.010574,0.0047195,0.10243,-0.018201,0.071001,-0.018571,0.056161,-0.029222,-0.059875,-0.15975,-0.06831,-0.14735,0.0001917,-0.19569,2.7218,-0.27811,-1.8927,2.6996,0.75925,-3.2797,-0.11624
-0.036495,-0.023044,0,0,0.064052,-0.039442,0.011197,-0.0075683,-0.010566,0.0047369,0.10241,-0.018264,0.070984,-0.018642,0.056156,-0.029288,-0.059854,-0.15986,-0.068282,-0.14745,0.00019159,-0.19584,2.7201,-0.2792,-1.8925,2.6991,0.75954,-3.2804,-0.11672
-0.036495,-0.023044,0,0,0.06404,-0.039515,0.011184,-0.0075868,-0.010558,0.0047544,0.10239,-0.018326,0.070966,-0.018713,0.056151,-0.029355,-0.059834,-0.15997,-0.068254,-0.14755,0.00019147,-0.19598,2.7185,-0.28028,-1.8922,2.6985,0.75982,-3.2811,-0.11721
-0.036495,-0.023044,0,0,0.064028,-0.039588,0.011172,-0.0076053,-0.01055,0.0047718,0.10237,-0.018389,0.070948,-0.018784,0.056145,-0.029421,-0.059813,-0.16007,-0.068226,-0.14765,0.00019134,-0.19612,2.7168,-0.28137,-1.8919,2.6979,0.7601,-3.2819,-0.11769
-0.036495,-0.023044,0,0,0.064016,-0.03966,0.011159,-0.0076238,-0.010542,0.0047893,0.10236,-0.018451,0.070931,-0.018855,0.05614,-0.029487,-0.059792,-0.16018,-0.068198,-0.14776,0.00019121,-0.19626,2.7152,-0.28245,-1.8917,2.6973,0.76039,-3.2826,-0.11817
-0.036495,-0.023044,0,0,0.064004,-0.039733,0.011147,-0.0076422,-0.010534,0.0048067,0.10234,-0.018513,0.070913,-0.018926,0.056134,-0.029554,-0.059771,-0.16029,-0.06817,-0.14786,0.00019108,-0.1964,2.7135,-0.28353,-1.8914,2.6967,0.76067,-3.2833,-0.11865
-0.036495,-0.023044,0,0,0.063992,-0.039806,0.011134,-0.0076606,-0.010527,0.0048241,0.10232,-0.018575,0.070895,-0.018996,0.056129,-0.02962,-0.05975,-0.16039,-0.068142,-0.14796,0.00019094,-0.19654,2.7119,-0.28461,-1.8911,2.6962,0.76095,-3.284,-0.11913
-0.036495,-0.023044,0,0,0.06398,-0.039878,0.011121,-0.007679,-0.010519,0.0048415,0.1023,-0.018637,0.070878,-0.019067,0.056123,-0.029686,-0.059729,-0.1605,-0.068114,-0.14806,0.00019079,-0.19668,2.7102,-0.28569,-1.8908,2.6956,0.76124,-3.2848,-0.1196
-0.036495,-0.023044,0,0,0.063968,-0.03995,0.011109,-0.0076974,-0.010511,0.0048588,0.10229,-0.018699,0.07086,-0.019137,0.056117,-0.029752,-0.059709,-0.1606,-0.068086,-0.14816,0.00019064,-0.19682,2.7086,-0.28677,-1.8906,2.695,0.76152,-3.2855,-0.12008
-0.036495,-0.023044,0,0,0.063956,-0.040022,0.011096,-0.0077157,-0.010502,0.0048762,0.10227,-0.018761,0.070842,-0.019208,0.056112,-0.029817,-0.059688,-0.16071,-0.068058,-0.14826,0.00019048,-0.19697,2.7069,-0.28785,-1.8903,2.6944,0.76181,-3.2862,-0.12056
-0.036495,-0.023044,0,0,0.063944,-0.040095,0.011083,-0.007734,-0.010494,0.0048936,0.10225,-0.018822,0.070824,-0.019278,0.056106,-0.029883,-0.059667,-0.16082,-0.06803,-0.14836,0.00019031,-0.19711,2.7053,-0.28893,-1.89,2.6938,0.76209,-3.2869,-0.12103
-0.036495,-0.023044,0,0,0.063931,-0.040167,0.01107,-0.0077523,-0.010486,0.0049109,0.10223,-0.018884,0.070806,-0.019348,0.0561,-0.029949,-0.059646,-0.16092,-0.068002,-0.14846,0.00019014,-0.19725,2.7036,-0.29,-1.8897,2.6933,0.76238,-3.2876,-0.1215
-0.036495,-0.023044,0,0,0.063919,-0.040238,0.011057,-0.0077706,-0.010478,0.0049282,0.10221,-0.018945,0.070788,-0.019418,0.056094,-0.030014,-0.059626,-0.16103,-0.067974,-0.14857,0.00018996,-0.19739,2.702,-0.29108,-1.8895,2.6927,0.76266,-3.2883,-0.12198
-0.036495,-0.023044,0,0,0.063907,-0.04031,0.011045,-0.0077889,-0.01047,0.0049455,0.10219,-0.019006,0.07077,-0.019488,0.056089,-0.03008,-0.059605,-0.16113,-0.067946,-0.14867,0.00018978,-0.19753,2.7003,-0.29215,-1.8892,2.6921,0.76295,-3.2891,-0.12245
-0.036495,-0.023044,0,0,0.063894,-0.040382,0.011032,-0.0078071,-0.010462,0.0049628,0.10218,-0.019067,0.070752,-0.019558,0.056083,-0.030145,-0.059584,-0.16124,-0.067918,-0.14877,0.00018959,-0.19767,2.6987,-0.29322,-1.8889,2.6915,0.76323,-3.2898,-0.12292
-0.036495,-0.023044,0,0,0.063882,-0.040453,0.011019,-0.0078254,-0.010454,0.0049801,0.10216,-0.019129,0.070734,-0.019627,0.056077,-0.03021,-0.059563,-0.16134,-0.06789,-0.14887,0.0001894,-0.19781,2.697,-0.29429,-1.8887,2.691,0.76351,-3.2905,-0.12339
-0.036495,-0.023044,0,0,0.06387,-0.040525,0.011006,-0.0078436,-0.010445,0.0049974,0.10214,-0.019189,0.070716,-0.019697,0.056071,-0.030275,-0.059543,-0.16145,-0.067862,-0.14897,0.0001892,-0.19795,2.6954,-0.29536,-1.8884,2.6904,0.7638,-3.2912,-0.12386
-0.036495,-0.023044,0,0,0.063857,-0.040596,0.010993,-0.0078617,-0.010437,0.0050146,0.10212,-0.01925,0.070698,-0.019766,0.056065,-0.030341,-0.059522,-0.16155,-0.067835,-0.14907,0.00018899,-0.19808,2.6937,-0.29643,-1.8881,2.6898,0.76408,-3.2919,-0.12433
-0.036495,-0.023044,0,0,0.063845,-0.040667,0.01098,-0.0078799,-0.010429,0.0050319,0.1021,-0.019311,0.070679,-0.019836,0.056059,-0.030406,-0.059501,-0.16166,-0.067807,-0.14917,0.00018878,-0.19822,2.692,-0.2975,-1.8878,2.6892,0.76437,-3.2926,-0.12479
-0.036495,-0.023044,0,0,0.063832,-0.040738,0.010967,-0.007898,-0.01042,0.0050491,0.10209,-0.019372,0.070661,-0.019905,0.056053,-0.03047,-0.059481,-0.16176,-0.067779,-0.14927,0.00018856,-0.19836,2.6904,-0.29856,-1.8876,2.6887,0.76466,-3.2933,-0.12526
-0.036495,-0.023044,0,0,0.06382,-0.040809,0.010954,-0.0079161,-0.010412,0.0050663,0.10207,-0.019432,0.070643,-0.019974,0.056047,-0.030535,-0.05946,-0.16187,-0.067751,-0.14937,0.00018834,-0.1985,2.6887,-0.29963,-1.8873,2.6881,0.76494,-3.294,-0.12573
-0.036495,-0.023044,0,0,0.063807,-0.04088,0.010941,-0.0079342,-0.010404,0.0050835,0.10205,-0.019493,0.070625,-0.020043,0.056041,-0.0306,-0.059439,-0.16197,-0.067723,-0.14947,0.00018811,-0.19864,2.6871,-0.30069,-1.887,2.6875,0.76523,-3.2947,-0.12619
-0.036495,-0.023044,0,0,0.063794,-0.040951,0.010928,-0.0079523,-0.010395,0.0051007,0.10203,-0.019553,0.070606,-0.020112,0.056034,-0.030665,-0.059419,-0.16208,-0.067695,-0.14957,0.00018788,-0.19878,2.6854,-0.30176,-1.8867,2.687,0.76551,-3.2954,-0.12665
-0.036495,-0.023044,0,0,0.063782,-0.041022,0.010914,-0.0079704,-0.010387,0.0051179,0.10201,-0.019613,0.070588,-0.020181,0.056028,-0.030729,-0.059398,-0.16218,-0.067668,-0.14967,0.00018764,-0.19892,2.6838,-0.30282,-1.8865,2.6864,0.7658,-3.2961,-0.12712
-0.036495,-0.023044,0,0,0.063769,-0.041092,0.010901,-0.0079884,-0.010378,0.005135,0.10199,-0.019673,0.07057,-0.02025,0.056022,-0.030794,-0.059377,-0.16229,-0.06764,-0.14977,0.00018739,-0.19906,2.6821,-0.30388,-1.8862,2.6858,0.76608,-3.2969,-0.12758
-0.036495,-0.023044,0,0,0.063756,-0.041163,0.010888,-0.0080064,-0.01037,0.0051522,0.10197,-0.019733,0.070551,-0.020318,0.056016,-0.030858,-0.059357,-0.16239,-0.067612,-0.14987,0.00018714,-0.19919,2.6805,-0.30494,-1.8859,2.6853,0.76637,-3.2976,-0.12804
-0.036495,-0.023044,0,0,0.063744,-0.041233,0.010875,-0.0080244,-0.010361,0.0051693,0.10196,-0.019793,0.070533,-0.020387,0.056009,-0.030922,-0.059336,-0.1625,-0.067585,-0.14997,0.00018688,-0.19933,2.6788,-0.306,-1.8856,2.6847,0.76665,-3.2983,-0.1285
-0.036495,-0.023044,0,0,0.063731,-0.041304,0.010861,-0.0080423,-0.010353,0.0051864,0.10194,-0.019853,0.070514,-0.020455,0.056003,-0.030986,-0.059315,-0.1626,-0.067557,-0.15007,0.00018662,-0.19947,2.6772,-0.30706,-1.8854,2.6841,0.76694,-3.299,-0.12896
-0.036495,-0.023044,0,0,0.063718,-0.041374,0.010848,-0.0080603,-0.010344,0.0052035,0.10192,-0.019913,0.070496,-0.020524,0.055997,-0.031051,-0.059295,-0.1627,-0.067529,-0.15017,0.00018635,-0.19961,2.6755,-0.30811,-1.8851,2.6836,0.76723,-3.2997,-0.12942
-0.036495,-0.023044,0,0,0.063705,-0.041444,0.010835,-0.0080782,-0.010336,0.0052206,0.1019,-0.019972,0.070477,-0.020592,0.05599,-0.031115,-0.059274,-0.16281,-0.067501,-0.15027,0.00018607,-0.19975,2.6739,-0.30917,-1.8848,2.683,0.76751,-3.3004,-0.12988
-0.036495,-0.023044,0,0,0.063692,-0.041514,0.010821,-0.0080961,-0.010327,0.0052377,0.10188,-0.020032,0.070458,-0.02066,0.055984,-0.031179,-0.059254,-0.16291,-0.067474,-0.15037,0.00018579,-0.19988,2.6722,-0.31022,-1.8845,2.6824,0.7678,-3.3011,-0.13033
-0.036495,-0.023044,0,0,0.063679,-0.041584,0.010808,-0.008114,-0.010318,0.0052548,0.10186,-0.020091,0.07044,-0.020728,0.055977,-0.031242,-0.059233,-0.16302,-0.067446,-0.15046,0.00018551,-0.20002,2.6706,-0.31128,-1.8843,2.6819,0.76809,-3.3018,-0.13079
-0.036495,-0.023044,0,0,0.063666,-0.041654,0.010795,-0.0081318,-0.01031,0.0052718,0.10184,-0.020151,0.070421,-0.020796,0.055971,-0.031306,-0.059212,-0.16312,-0.067418,-0.15056,0.00018521,-0.20016,2.6689,-0.31233,-1.884,2.6813,0.76837,-3.3025,-0.13125
-0.036495,-0.023044,0,0,0.063653,-0.041724,0.010781,-0.0081496,-0.010301,0.0052888,0.10182,-0.02021,0.070402,-0.020864,0.055964,-0.03137,-0.059192,-0.16322,-0.067391,-0.15066,0.00018492,-0.20029,2.6673,-0.31338,-1.8837,2.6807,0.76866,-3.3032,-0.1317
-0.036495,-0.023044,0,0,0.06364,-0.041793,0.010768,-0.0081674,-0.010292,0.0053058,0.1018,-0.020269,0.070383,-0.020932,0.055958,-0.031434,-0.059171,-0.16333,-0.067363,-0.15076,0.00018461,-0.20043,2.6656,-0.31444,-1.8834,2.6802,0.76895,-3.3038,-0.13215
-0.036495,-0.023044,0,0,0.063627,-0.041863,0.010754,-0.0081852,-0.010283,0.0053228,0.10179,-0.020328,0.070365,-0.021,0.055951,-0.031497,-0.059151,-0.16343,-0.067336,-0.15086,0.0001843,-0.20057,2.6639,-0.31549,-1.8831,2.6796,0.76923,-3.3045,-0.13261
-0.036495,-0.023044,0,0,0.063614,-0.041933,0.010741,-0.008203,-0.010275,0.0053398,0.10177,-0.020387,0.070346,-0.021067,0.055944,-0.031561,-0.05913,-0.16353,-0.067308,-0.15096,0.00018399,-0.20071,2.6623,-0.31654,-1.8829,2.6791,0.76952,-3.3052,-0.13306
-0.036495,-0.023044,0,0,0.063601,-0.042002,0.010727,-0.0082207,-0.010266,0.0053568,0.10175,-0.020446,0.070327,-0.021135,0.055938,-0.031624,-0.05911,-0.16364,-0.06728,-0.15106,0.00018367,-0.20084,2.6606,-0.31758,-1.8826,2.6785,0.76981,-3.3059,-0.13351
-0.036495,-0.023044,0,0,0.063588,-0.042071,0.010713,-0.0082384,-0.010257,0.0053738,0.10173,-0.020504,0.070308,-0.021202,0.055931,-0.031687,-0.059089,-0.16374,-0.067253,-0.15116,0.00018334,-0.20098,2.659,-0.31863,-1.8823,2.6779,0.77009,-3.3066,-0.13396
-0.036495,-0.023044,0,0,0.063575,-0.04214,0.0107,-0.0082561,-0.010248,0.0053907,0.10171,-0.020563,0.070289,-0.02127,0.055924,-0.031751,-0.059069,-0.16384,-0.067225,-0.15126,0.00018301,-0.20112,2.6573,-0.31968,-1.882,2.6774,0.77038,-3.3073,-0.13441
-0.036495,-0.023044,0,0,0.063561,-0.04221,0.010686,-0.0082738,-0.010239,0.0054076,0.10169,-0.020622,0.07027,-0.021337,0.055917,-0.031814,-0.059048,-0.16395,-0.067198,-0.15135,0.00018267,-0.20125,2.6557,-0.32072,-1.8818,2.6768,0.77067,-3.308,-0.13486
-0.036495,-0.023044,0,0,0.063548,-0.042279,0.010672,-0.0082915,-0.01023,0.0054246,0.10167,-0.02068,0.070251,-0.021404,0.05591,-0.031877,-0.059028,-0.16405,-0.06717,-0.15145,0.00018233,-0.20139,2.654,-0.32177,-1.8815,2.6763,0.77096,-3.3087,-0.13531
-0.036495,-0.023044,0,0,0.063535,-0.042348,0.010659,-0.0083091,-0.010221,0.0054415,0.10165,-0.020739,0.070232,-0.021471,0.055903,-0.03194,-0.059007,-0.16415,-0.067143,-0.15155,0.00018198,-0.20152,2.6524,-0.32281,-1.8812,2.6757,0.77124,-3.3094,-0.13576
-0.036495,-0.023044,0,0,0.063522,-0.042417,0.010645,-0.0083267,-0.010212,0.0054583,0.10163,-0.020797,0.070213,-0.021538,0.055897,-0.032003,-0.058987,-0.16426,-0.067115,-0.15165,0.00018162,-0.20166,2.6507,-0.32386,-1.8809,2.6751,0.77153,-3.3101,-0.13621
-0.036495,-0.023044,0,0,0.063508,-0.042485,0.010631,-0.0083443,-0.010203,0.0054752,0.10161,-0.020855,0.070193,-0.021605,0.05589,-0.032066,-0.058966,-0.16436,-0.067088,-0.15175,0.00018126,-0.2018,2.6491,-0.3249,-1.8807,2.6746,0.77182,-3.3108,-0.13665
-0.036495,-0.023044,0,0,0.063495,-0.042554,0.010617,-0.0083618,-0.010194,0.0054921,0.10159,-0.020913,0.070174,-0.021672,0.055883,-0.032128,-0.058946,-0.16446,-0.06706,-0.15185,0.00018089,-0.20193,2.6474,-0.32594,-1.8804,2.674,0.77211,-3.3114,-0.1371
-0.036495,-0.023044,0,0,0.063481,-0.042623,0.010604,-0.0083794,-0.010185,0.0055089,0.10157,-0.020971,0.070155,-0.021739,0.055876,-0.032191,-0.058925,-0.16456,-0.067033,-0.15194,0.00018052,-0.20207,2.6458,-0.32698,-1.8801,2.6735,0.7724,-3.3121,-0.13754
-0.036495,-0.023044,0,0,0.063468,-0.042691,0.01059,-0.0083969,-0.010176,0.0055257,0.10155,-0.021029,0.070136,-0.021805,0.055869,-0.032254,-0.058905,-0.16467,-0.067005,-0.15204,0.00018015,-0.2022,2.6441,-0.32802,-1.8798,2.6729,0.77269,-3.3128,-0.13799
-0.036495,-0.023044,0,0,0.063455,-0.04276,0.010576,-0.0084144,-0.010167,0.0055425,0.10154,-0.021087,0.070117,-0.021872,0.055861,-0.032316,-0.058884,-0.16477,-0.066978,-0.15214,0.00017976,-0.20234,2.6425,-0.32906,-1.8795,2.6724,0.77297,-3.3135,-0.13843
-0.036495,-0.023044,0,0,0.063441,-0.042828,0.010562,-0.0084318,-0.010157,0.0055593,0.10152,-0.021145,0.070097,-0.021939,0.055854,-0.032379,-0.058864,-0.16487,-0.06695,-0.15224,0.00017937,-0.20247,2.6408,-0.3301,-1.8793,2.6718,0.77326,-3.3142,-0.13888
-0.036495,-0.023044,0,0,0.063427,-0.042896,0.010548,-0.0084493,-0.010148,0.0055761,0.1015,-0.021203,0.070078,-0.022005,0.055847,-0.032441,-0.058843,-0.16497,-0.066923,-0.15234,0.00017898,-0.20261,2.6392,-0.33113,-1.879,2.6712,0.77355,-3.3149,-0.13932
-0.036495,-0.023044,0,0,0.063414,-0.042965,0.010534,-0.0084667,-0.010139,0.0055929,0.10148,-0.02126,0.070058,-0.022071,0.05584,-0.032504,-0.058823,-0.16508,-0.066895,-0.15243,0.00017858,-0.20274,2.6375,-0.33217,-1.8787,2.6707,0.77384,-3.3156,-0.13976
-0.036495,-0.023044,0,0,0.0634,-0.043033,0.01052,-0.0084841,-0.01013,0.0056096,0.10146,-0.021318,0.070039,-0.022138,0.055833,-0.032566,-0.058803,-0.16518,-0.066868,-0.15253,0.00017818,-0.20288,2.6359,-0.33321,-1.8784,2.6701,0.77413,-3.3162,-0.1402
-0.036495,-0.023044,0,0,0.063387,-0.043101,0.010506,-0.0085015,-0.01012,0.0056264,0.10144,-0.021375,0.07002,-0.022204,0.055826,-0.032628,-0.058782,-0.16528,-0.066841,-0.15263,0.00017777,-0.20301,2.6342,-0.33424,-1.8781,2.6696,0.77442,-3.3169,-0.14064
-0.036495,-0.023044,0,0,0.063373,-0.043169,0.010492,-0.0085188,-0.010111,0.0056431,0.10142,-0.021433,0.07,-0.02227,0.055818,-0.03269,-0.058762,-0.16538,-0.066813,-0.15273,0.00017735,-0.20315,2.6325,-0.33528,-1.8779,2.669,0.77471,-3.3176,-0.14108
-0.036495,-0.023044,0,0,0.063359,-0.043237,0.010478,-0.0085361,-0.010102,0.0056598,0.1014,-0.02149,0.069981,-0.022336,0.055811,-0.032752,-0.058741,-0.16548,-0.066786,-0.15282,0.00017693,-0.20328,2.6309,-0.33631,-1.8776,2.6685,0.775,-3.3183,-0.14152
-0.036495,-0.023044,0,0,0.063346,-0.043304,0.010464,-0.0085535,-0.010092,0.0056765,0.10138,-0.021547,0.069961,-0.022402,0.055804,-0.032814,-0.058721,-0.16559,-0.066758,-0.15292,0.0001765,-0.20342,2.6292,-0.33734,-1.8773,2.6679,0.77529,-3.319,-0.14196
-0.036495,-0.023044,0,0,0.063332,-0.043372,0.01045,-0.0085707,-0.010083,0.0056931,0.10136,-0.021604,0.069941,-0.022468,0.055796,-0.032876,-0.0587,-0.16569,-0.066731,-0.15302,0.00017607,-0.20355,2.6276,-0.33837,-1.877,2.6674,0.77557,-3.3196,-0.1424
-0.036495,-0.023044,0,0,0.063318,-0.04344,0.010435,-0.008588,-0.010074,0.0057098,0.10134,-0.021661,0.069922,-0.022534,0.055789,-0.032938,-0.05868,-0.16579,-0.066704,-0.15312,0.00017563,-0.20368,2.6259,-0.3394,-1.8768,2.6668,0.77586,-3.3203,-0.14284
-0.036495,-0.023044,0,0,0.063304,-0.043507,0.010421,-0.0086052,-0.010064,0.0057264,0.10132,-0.021718,0.069902,-0.0226,0.055781,-0.033,-0.05866,-0.16589,-0.066676,-0.15321,0.00017519,-0.20382,2.6243,-0.34043,-1.8765,2.6663,0.77615,-3.321,-0.14327
-0.036495,-0.023044,0,0,0.06329,-0.043575,0.010407,-0.0086224,-0.010055,0.0057431,0.1013,-0.021775,0.069882,-0.022665,0.055774,-0.033062,-0.058639,-0.16599,-0.066649,-0.15331,0.00017474,-0.20395,2.6226,-0.34146,-1.8762,2.6657,0.77644,-3.3217,-0.14371
-0.036495,-0.023044,0,0,0.063276,-0.043642,0.010393,-0.0086396,-0.010045,0.0057597,0.10128,-0.021832,0.069863,-0.022731,0.055766,-0.033123,-0.058619,-0.1661,-0.066621,-0.15341,0.00017428,-0.20409,2.621,-0.34249,-1.8759,2.6652,0.77673,-3.3223,-0.14414
-0.036495,-0.023044,0,0,0.063262,-0.04371,0.010378,-0.0086568,-0.010036,0.0057763,0.10126,-0.021888,0.069843,-0.022796,0.055759,-0.033185,-0.058598,-0.1662,-0.066594,-0.15351,0.00017383,-0.20422,2.6193,-0.34352,-1.8756,2.6646,0.77702,-3.323,-0.14458
-0.036495,-0.023044,0,0,0.063248,-0.043777,0.010364,-0.0086739,-0.010026,0.0057928,0.10124,-0.021945,0.069823,-0.022862,0.055751,-0.033247,-0.058578,-0.1663,-0.066567,-0.1536,0.00017336,-0.20435,2.6177,-0.34455,-1.8754,2.6641,0.77731,-3.3237,-0.14501
-0.036495,-0.023044,0,0,0.063234,-0.043844,0.01035,-0.008691,-0.010017,0.0058094,0.10122,-0.022002,0.069803,-0.022927,0.055743,-0.033308,-0.058558,-0.1664,-0.066539,-0.1537,0.00017289,-0.20449,2.616,-0.34557,-1.8751,2.6635,0.7776,-3.3244,-0.14545
-0.036495,-0.023044,0,0,0.06322,-0.043911,0.010335,-0.0087081,-0.010007,0.0058259,0.1012,-0.022058,0.069783,-0.022992,0.055736,-0.033369,-0.058537,-0.1665,-0.066512,-0.1538,0.00017241,-0.20462,2.6144,-0.3466,-1.8748,2.663,0.7779,-3.325,-0.14588
-0.036495,-0.023044,0,0,0.063206,-0.043978,0.010321,-0.0087252,-0.0099973,0.0058425,0.10118,-0.022114,0.069763,-0.023058,0.055728,-0.033431,-0.058517,-0.1666,-0.066485,-0.15389,0.00017193,-0.20475,2.6127,-0.34762,-1.8745,2.6624,0.77819,-3.3257,-0.14631
-0.036495,-0.023044,0,0,0.063192,-0.044045,0.010306,-0.0087423,-0.0099876,0.005859,0.10116,-0.022171,0.069743,-0.023123,0.05572,-0.033492,-0.058497,-0.1667,-0.066458,-0.15399,0.00017145,-0.20489,2.6111,-0.34865,-1.8742,2.6619,0.77848,-3.3264,-0.14675
-0.036495,-0.023044,0,0,0.063178,-0.044112,0.010292,-0.0087593,-0.0099779,0.0058755,0.10114,-0.022227,0.069723,-0.023188,0.055713,-0.033553,-0.058476,-0.1668,-0.06643,-0.15409,0.00017096,-0.20502,2.6094,-0.34967,-1.8739,2.6614,0.77877,-3.3271,-0.14718
-0.036495,-0.023044,0,0,0.063164,-0.044179,0.010277,-0.0087763,-0.0099682,0.005892,0.10112,-0.022283,0.069703,-0.023253,0.055705,-0.033615,-0.058456,-0.16691,-0.066403,-0.15418,0.00017046,-0.20515,2.6078,-0.35069,-1.8737,2.6608,0.77906,-3.3277,-0.14761
-0.036495,-0.023044,0,0,0.06315,-0.044246,0.010263,-0.0087932,-0.0099584,0.0059084,0.1011,-0.022339,0.069683,-0.023318,0.055697,-0.033676,-0.058436,-0.16701,-0.066376,-0.15428,0.00016996,-0.20529,2.6061,-0.35171,-1.8734,2.6603,0.77935,-3.3284,-0.14804
-0.036495,-0.023044,0,0,0.063136,-0.044313,0.010248,-0.0088102,-0.0099486,0.0059249,0.10108,-0.022395,0.069663,-0.023383,0.055689,-0.033737,-0.058415,-0.16711,-0.066348,-0.15438,0.00016945,-0.20542,2.6045,-0.35273,-1.8731,2.6597,0.77964,-3.3291,-0.14847
-0.036495,-0.023044,0,0,0.063121,-0.044379,0.010234,-0.0088271,-0.0099388,0.0059413,0.10106,-0.022451,0.069643,-0.023447,0.055681,-0.033798,-0.058395,-0.16721,-0.066321,-0.15447,0.00016894,-0.20555,2.6028,-0.35375,-1.8728,2.6592,0.77993,-3.3297,-0.1489
-0.036495,-0.023044,0,0,0.063107,-0.044446,0.010219,-0.008844,-0.009929,0.0059577,0.10104,-0.022507,0.069623,-0.023512,0.055673,-0.033859,-0.058375,-0.16731,-0.066294,-0.15457,0.00016842,-0.20568,2.6011,-0.35477,-1.8725,2.6586,0.78022,-3.3304,-0.14933
-0.036495,-0.023044,0,0,0.063093,-0.044512,0.010205,-0.0088609,-0.0099191,0.0059741,0.10101,-0.022563,0.069603,-0.023577,0.055665,-0.033919,-0.058354,-0.16741,-0.066267,-0.15467,0.0001679,-0.20582,2.5995,-0.35579,-1.8723,2.6581,0.78052,-3.3311,-0.14976
-0.036495,-0.023044,0,0,0.063078,-0.044579,0.01019,-0.0088777,-0.0099093,0.0059905,0.10099,-0.022619,0.069582,-0.023641,0.055657,-0.03398,-0.058334,-0.16751,-0.066239,-0.15476,0.00016737,-0.20595,2.5978,-0.35681,-1.872,2.6575,0.78081,-3.3317,-0.15018
-0.036495,-0.023044,0,0,0.063064,-0.044645,0.010175,-0.0088946,-0.0098993,0.0060069,0.10097,-0.022674,0.069562,-0.023706,0.055649,-0.034041,-0.058314,-0.16761,-0.066212,-0.15486,0.00016684,-0.20608,2.5962,-0.35783,-1.8717,2.657,0.7811,-3.3324,-0.15061
-0.036495,-0.023044,0,0,0.06305,-0.044711,0.010161,-0.0089114,-0.0098894,0.0060232,0.10095,-0.02273,0.069542,-0.02377,0.055641,-0.034102,-0.058293,-0.16771,-0.066185,-0.15496,0.0001663,-0.20621,2.5945,-0.35884,-1.8714,2.6565,0.78139,-3.3331,-0.15104
-0.036495,-0.023044,0,0,0.063035,-0.044777,0.010146,-0.0089282,-0.0098794,0.0060396,0.10093,-0.022785,0.069521,-0.023834,0.055633,-0.034162,-0.058273,-0.16781,-0.066158,-0.15505,0.00016576,-0.20635,2.5929,-0.35986,-1.8711,2.6559,0.78168,-3.3337,-0.15146
-0.036495,-0.023044,0,0,0.063021,-0.044844,0.010131,-0.0089449,-0.0098694,0.0060559,0.10091,-0.022841,0.069501,-0.023899,0.055625,-0.034223,-0.058253,-0.16791,-0.06613,-0.15515,0.00016521,-0.20648,2.5912,-0.36088,-1.8708,2.6554,0.78198,-3.3344,-0.15189
-0.036495,-0.023044,0,0,0.063006,-0.04491,0.010116,-0.0089616,-0.0098594,0.0060722,0.10089,-0.022896,0.069481,-0.023963,0.055617,-0.034283,-0.058232,-0.16801,-0.066103,-0.15524,0.00016466,-0.20661,2.5896,-0.36189,-1.8706,2.6548,0.78227,-3.3351,-0.15232
-0.036495,-0.023044,0,0,0.062992,-0.044976,0.010101,-0.0089784,-0.0098494,0.0060885,0.10087,-0.022951,0.06946,-0.024027,0.055609,-0.034344,-0.058212,-0.16811,-0.066076,-0.15534,0.0001641,-0.20674,2.5879,-0.3629,-1.8703,2.6543,0.78256,-3.3357,-0.15274
-0.036495,-0.023044,0,0,0.062977,-0.045041,0.010087,-0.008995,-0.0098393,0.0061048,0.10085,-0.023006,0.06944,-0.024091,0.055601,-0.034404,-0.058192,-0.16821,-0.066049,-0.15544,0.00016353,-0.20687,2.5863,-0.36392,-1.87,2.6538,0.78285,-3.3364,-0.15316
-0.036495,-0.023044,0,0,0.062963,-0.045107,0.010072,-0.0090117,-0.0098292,0.006121,0.10083,-0.023062,0.069419,-0.024155,0.055592,-0.034464,-0.058171,-0.16831,-0.066022,-0.15553,0.00016297,-0.207,2.5846,-0.36493,-1.8697,2.6532,0.78315,-3.337,-0.15359
-0.036495,-0.023044,0,0,0.062948,-0.045173,0.010057,-0.0090283,-0.0098191,0.0061372,0.10081,-0.023117,0.069399,-0.024219,0.055584,-0.034524,-0.058151,-0.16841,-0.065994,-0.15563,0.00016239,-0.20714,2.583,-0.36594,-1.8694,2.6527,0.78344,-3.3377,-0.15401
-0.036495,-0.023044,0,0,0.062933,-0.045239,0.010042,-0.0090449,-0.0098089,0.0061535,0.10079,-0.023172,0.069378,-0.024283,0.055576,-0.034585,-0.058131,-0.16851,-0.065967,-0.15572,0.00016181,-0.20727,2.5813,-0.36695,-1.8691,2.6521,0.78373,-3.3384,-0.15443
-0.036495,-0.023044,0,0,0.062919,-0.045304,0.010027,-0.0090615,-0.0097987,0.0061697,0.10077,-0.023227,0.069357,-0.024347,0.055567,-0.034645,-0.05811,-0.16861,-0.06594,-0.15582,0.00016123,-0.2074,2.5797,-0.36796,-1.8689,2.6516,0.78403,-3.339,-0.15486
-0.036495,-0.023044,0,0,0.062904,-0.04537,0.010012,-0.0090781,-0.0097885,0.0061858,0.10074,-0.023281,0.069337,-0.024411,0.055559,-0.034705,-0.05809,-0.16871,-0.065913,-0.15591,0.00016064,-0.20753,2.578,-0.36897,-1.8686,2.6511,0.78432,-3.3397,-0.15528
-0.036495,-0.023044,0,0,0.062889,-0.045436,0.0099969,-0.0090946,-0.0097783,0.006202,0.10072,-0.023336,0.069316,-0.024474,0.055551,-0.034765,-0.05807,-0.16881,-0.065886,-0.15601,0.00016005,-0.20766,2.5764,-0.36998,-1.8683,2.6505,0.78461,-3.3404,-0.1557
-0.036495,-0.023044,0,0,0.062875,-0.045501,0.0099819,-0.0091111,-0.009768,0.0062182,0.1007,-0.023391,0.069295,-0.024538,0.055542,-0.034825,-0.05805,-0.16891,-0.065859,-0.15611,0.00015945,-0.20779,2.5747,-0.37099,-1.868,2.65,0.78491,-3.341,-0.15612
-0.036495,-0.023044,0,0,0.06286,-0.045566,0.0099668,-0.0091276,-0.0097577,0.0062343,0.10068,-0.023445,0.069275,-0.024601,0.055534,-0.034885,-0.058029,-0.16901,-0.065831,-0.1562,0.00015885,-0.20792,2.5731,-0.372,-1.8677,2.6495,0.7852,-3.3417,-0.15654
-0.036495,-0.023044,0,0,0.062845,-0.045632,0.0099517,-0.0091441,-0.0097474,0.0062504,0.10066,-0.0235,0.069254,-0.024665,0.055525,-0.034945,-0.058009,-0.16911,-0.065804,-0.1563,0.00015824,-0.20805,2.5714,-0.37301,-1.8674,2.6489,0.78549,-3.3423,-0.15696
-0.036495,-0.023044,0,0,0.06283,-0.045697,0.0099366,-0.0091605,-0.0097371,0.0062665,0.10064,-0.023554,0.069233,-0.024728,0.055517,-0.035004,-0.057989,-0.16921,-0.065777,-0.15639,0.00015763,-0.20818,2.5697,-0.37402,-1.8672,2.6484,0.78579,-3.343,-0.15738
-0.036495,-0.023044,0,0,0.062815,-0.045762,0.0099214,-0.0091769,-0.0097267,0.0062826,0.10062,-0.023609,0.069212,-0.024792,0.055508,-0.035064,-0.057968,-0.16931,-0.06575,-0.15649,0.00015701,-0.20832,2.5681,-0.37502,-1.8669,2.6478,0.78608,-3.3436,-0.1578
-0.036495,-0.023044,0,0,0.0628,-0.045827,0.0099062,-0.0091933,-0.0097163,0.0062987,0.1006,-0.023663,0.069191,-0.024855,0.0555,-0.035124,-0.057948,-0.16941,-0.065723,-0.15658,0.00015639,-0.20845,2.5664,-0.37603,-1.8666,2.6473,0.78638,-3.3443,-0.15822
-0.036495,-0.023044,0,0,0.062785,-0.045892,0.009891,-0.0092096,-0.0097059,0.0063147,0.10058,-0.023718,0.06917,-0.024918,0.055491,-0.035183,-0.057928,-0.16951,-0.065696,-0.15668,0.00015577,-0.20858,2.5648,-0.37703,-1.8663,2.6468,0.78667,-3.3449,-0.15864
-0.036495,-0.023044,0,0,0.06277,-0.045957,0.0098758,-0.009226,-0.0096954,0.0063308,0.10055,-0.023772,0.069149,-0.024981,0.055482,-0.035243,-0.057908,-0.16961,-0.065668,-0.15677,0.00015513,-0.20871,2.5631,-0.37804,-1.866,2.6462,0.78696,-3.3456,-0.15906
-0.036495,-0.023044,0,0,0.062755,-0.046022,0.0098605,-0.0092423,-0.0096849,0.0063468,0.10053,-0.023826,0.069128,-0.025045,0.055474,-0.035302,-0.057887,-0.16971,-0.065641,-0.15687,0.0001545,-0.20884,2.5615,-0.37904,-1.8657,2.6457,0.78726,-3.3463,-0.15947
-0.036495,-0.023044,0,0,0.06274,-0.046087,0.0098452,-0.0092586,-0.0096744,0.0063628,0.10051,-0.02388,0.069107,-0.025108,0.055465,-0.035362,-0.057867,-0.16981,-0.065614,-0.15696,0.00015386,-0.20897,2.5598,-0.38004,-1.8655,2.6452,0.78755,-3.3469,-0.15989
-0.036495,-0.023044,0,0,0.062725,-0.046152,0.0098299,-0.0092748,-0.0096639,0.0063787,0.10049,-0.023934,0.069086,-0.025171,0.055456,-0.035421,-0.057847,-0.16991,-0.065587,-0.15706,0.00015321,-0.2091,2.5582,-0.38105,-1.8652,2.6446,0.78785,-3.3476,-0.16031
-0.036495,-0.023044,0,0,0.06271,-0.046217,0.0098146,-0.0092911,-0.0096534,0.0063947,0.10047,-0.023988,0.069065,-0.025234,0.055447,-0.035481,-0.057827,-0.17001,-0.06556,-0.15715,0.00015256,-0.20923,2.5565,-0.38205,-1.8649,2.6441,0.78814,-3.3482,-0.16072
-0.036495,-0.023044,0,0,0.062695,-0.046281,0.0097992,-0.0093073,-0.0096428,0.0064107,0.10045,-0.024042,0.069044,-0.025296,0.055439,-0.03554,-0.057806,-0.17011,-0.065533,-0.15725,0.00015191,-0.20936,2.5549,-0.38305,-1.8646,2.6436,0.78844,-3.3489,-0.16114
-0.036495,-0.023044,0,0,0.06268,-0.046346,0.0097838,-0.0093235,-0.0096322,0.0064266,0.10043,-0.024096,0.069023,-0.025359,0.05543,-0.035599,-0.057786,-0.17021,-0.065506,-0.15734,0.00015125,-0.20949,2.5532,-0.38405,-1.8643,2.643,0.78873,-3.3495,-0.16155
-0.036495,-0.023044,0,0,0.062665,-0.04641,0.0097684,-0.0093396,-0.0096215,0.0064425,0.1004,-0.024149,0.069002,-0.025422,0.055421,-0.035658,-0.057766,-0.1703,-0.065479,-0.15744,0.00015059,-0.20962,2.5516,-0.38505,-1.864,2.6425,0.78903,-3.3502,-0.16197
-0.036495,-0.023044,0,0,0.062649,-0.046475,0.0097529,-0.0093557,-0.0096109,0.0064584,0.10038,-0.024203,0.06898,-0.025485,0.055412,-0.035718,-0.057746,-0.1704,-0.065452,-0.15753,0.00014992,-0.20975,2.5499,-0.38605,-1.8637,2.642,0.78932,-3.3508,-0.16238
-0.036495,-0.023044,0,0,0.062634,-0.046539,0.0097375,-0.0093718,-0.0096002,0.0064743,0.10036,-0.024257,0.068959,-0.025547,0.055403,-0.035777,-0.057725,-0.1705,-0.065424,-0.15763,0.00014925,-0.20988,2.5483,-0.38705,-1.8634,2.6414,0.78962,-3.3515,-0.1628
-0.036495,-0.023044,0,0,0.062619,-0.046604,0.009722,-0.0093879,-0.0095895,0.0064901,0.10034,-0.02431,0.068938,-0.02561,0.055394,-0.035836,-0.057705,-0.1706,-0.065397,-0.15772,0.00014857,-0.21001,2.5466,-0.38805,-1.8632,2.6409,0.78992,-3.3521,-0.16321
-0.036495,-0.023044,0,0,0.062604,-0.046668,0.0097064,-0.009404,-0.0095787,0.006506,0.10032,-0.024364,0.068917,-0.025672,0.055385,-0.035895,-0.057685,-0.1707,-0.06537,-0.15782,0.00014789,-0.21014,2.545,-0.38904,-1.8629,2.6404,0.79021,-3.3528,-0.16362
-0.036495,-0.023044,0,0,0.062588,-0.046732,0.0096909,-0.00942,-0.009568,0.0065218,0.1003,-0.024417,0.068895,-0.025735,0.055376,-0.035954,-0.057665,-0.1708,-0.065343,-0.15791,0.0001472,-0.21027,2.5433,-0.39004,-1.8626,2.6398,0.79051,-3.3534,-0.16404
-0.036495,-0.023044,0,0,0.062573,-0.046796,0.0096753,-0.009436,-0.0095572,0.0065376,0.10027,-0.024471,0.068874,-0.025797,0.055367,-0.036012,-0.057644,-0.1709,-0.065316,-0.15801,0.00014651,-0.2104,2.5417,-0.39104,-1.8623,2.6393,0.7908,-3.3541,-0.16445
-0.036495,-0.023044,0,0,0.062557,-0.046861,0.0096597,-0.009452,-0.0095464,0.0065534,0.10025,-0.024524,0.068852,-0.025859,0.055358,-0.036071,-0.057624,-0.171,-0.065289,-0.1581,0.00014582,-0.21052,2.54,-0.39203,-1.862,2.6388,0.7911,-3.3547,-0.16486
-0.036495,-0.023044,0,0,0.062542,-0.046925,0.0096441,-0.0094679,-0.0095355,0.0065691,0.10023,-0.024577,0.068831,-0.025922,0.055349,-0.03613,-0.057604,-0.17109,-0.065262,-0.1582,0.00014512,-0.21065,2.5383,-0.39303,-1.8617,2.6383,0.7914,-3.3554,-0.16527
-0.036495,-0.023044,0,0,0.062527,-0.046989,0.0096284,-0.0094839,-0.0095246,0.0065849,0.10021,-0.02463,0.068809,-0.025984,0.05534,-0.036189,-0.057584,-0.17119,-0.065235,-0.15829,0.00014442,-0.21078,2.5367,-0.39402,-1.8614,2.6377,0.79169,-3.356,-0.16568
-0.036495,-0.023044,0,0,0.062511,-0.047053,0.0096127,-0.0094998,-0.0095138,0.0066006,0.10019,-0.024683,0.068788,-0.026046,0.055331,-0.036247,-0.057563,-0.17129,-0.065208,-0.15839,0.00014371,-0.21091,2.535,-0.39502,-1.8612,2.6372,0.79199,-3.3567,-0.16609
-0.036495,-0.023044,0,0,0.062496,-0.047116,0.009597,-0.0095156,-0.0095028,0.0066163,0.10016,-0.024736,0.068766,-0.026108,0.055321,-0.036306,-0.057543,-0.17139,-0.065181,-0.15848,0.000143,-0.21104,2.5334,-0.39601,-1.8609,2.6367,0.79229,-3.3573,-0.1665
-0.036495,-0.023044,0,0,0.06248,-0.04718,0.0095813,-0.0095315,-0.0094919,0.006632,0.10014,-0.024789,0.068745,-0.02617,0.055312,-0.036365,-0.057523,-0.17149,-0.065154,-0.15857,0.00014228,-0.21117,2.5317,-0.39701,-1.8606,2.6361,0.79258,-3.3579,-0.16691
-0.036495,-0.023044,0,0,0.062464,-0.047244,0.0095655,-0.0095473,-0.0094809,0.0066477,0.10012,-0.024842,0.068723,-0.026232,0.055303,-0.036423,-0.057503,-0.17159,-0.065127,-0.15867,0.00014156,-0.2113,2.5301,-0.398,-1.8603,2.6356,0.79288,-3.3586,-0.16732
-0.036495,-0.023044,0,0,0.062449,-0.047308,0.0095497,-0.0095631,-0.0094699,0.0066634,0.1001,-0.024895,0.068701,-0.026294,0.055294,-0.036482,-0.057482,-0.17168,-0.0651,-0.15876,0.00014083,-0.21143,2.5284,-0.39899,-1.86,2.6351,0.79318,-3.3592,-0.16773
-0.036495,-0.023044,0,0,0.062433,-0.047371,0.0095339,-0.0095789,-0.0094589,0.006679,0.10008,-0.024948,0.06868,-0.026356,0.055284,-0.03654,-0.057462,-0.17178,-0.065072,-0.15886,0.00014011,-0.21156,2.5268,-0.39998,-1.8597,2.6346,0.79348,-3.3599,-0.16814
-0.036495,-0.023044,0,0,0.062418,-0.047435,0.009518,-0.0095946,-0.0094478,0.0066946,0.10005,-0.025001,0.068658,-0.026418,0.055275,-0.036598,-0.057442,-0.17188,-0.065045,-0.15895,0.00013937,-0.21168,2.5251,-0.40097,-1.8594,2.634,0.79377,-3.3605,-0.16855
-0.036495,-0.023044,0,0,0.062402,-0.047499,0.0095022,-0.0096103,-0.0094368,0.0067102,0.10003,-0.025053,0.068636,-0.026479,0.055266,-0.036657,-0.057422,-0.17198,-0.065018,-0.15905,0.00013864,-0.21181,2.5235,-0.40196,-1.8591,2.6335,0.79407,-3.3612,-0.16896
-0.036495,-0.023044,0,0,0.062386,-0.047562,0.0094863,-0.009626,-0.0094257,0.0067258,0.10001,-0.025106,0.068614,-0.026541,0.055256,-0.036715,-0.057401,-0.17208,-0.064991,-0.15914,0.0001379,-0.21194,2.5218,-0.40295,-1.8588,2.633,0.79437,-3.3618,-0.16937
-0.036495,-0.023044,0,0,0.06237,-0.047625,0.0094704,-0.0096417,-0.0094145,0.0067414,0.099988,-0.025159,0.068593,-0.026603,0.055247,-0.036773,-0.057381,-0.17218,-0.064964,-0.15923,0.00013715,-0.21207,2.5202,-0.40394,-1.8586,2.6325,0.79467,-3.3624,-0.16977
-0.036495,-0.023044,0,0,0.062355,-0.047689,0.0094544,-0.0096573,-0.0094034,0.0067569,0.099966,-0.025211,0.068571,-0.026664,0.055237,-0.036831,-0.057361,-0.17227,-0.064937,-0.15933,0.0001364,-0.2122,2.5185,-0.40493,-1.8583,2.6319,0.79497,-3.3631,-0.17018
-0.036495,-0.023044,0,0,0.062339,-0.047752,0.0094384,-0.0096729,-0.0093922,0.0067725,0.099943,-0.025263,0.068549,-0.026726,0.055228,-0.036889,-0.057341,-0.17237,-0.06491,-0.15942,0.00013565,-0.21233,2.5169,-0.40592,-1.858,2.6314,0.79526,-3.3637,-0.17059
-0.036495,-0.023044,0,0,0.062323,-0.047815,0.0094224,-0.0096885,-0.009381,0.006788,0.099921,-0.025316,0.068527,-0.026787,0.055218,-0.036947,-0.05732,-0.17247,-0.064883,-0.15952,0.00013489,-0.21245,2.5152,-0.40691,-1.8577,2.6309,0.79556,-3.3644,-0.17099
-0.036495,-0.023044,0,0,0.062307,-0.047879,0.0094064,-0.0097041,-0.0093698,0.0068035,0.099899,-0.025368,0.068505,-0.026849,0.055209,-0.037005,-0.0573,-0.17257,-0.064856,-0.15961,0.00013413,-0.21258,2.5136,-0.40789,-1.8574,2.6304,0.79586,-3.365,-0.1714
-0.036495,-0.023044,0,0,0.062291,-0.047942,0.0093904,-0.0097196,-0.0093585,0.0068189,0.099876,-0.02542,0.068483,-0.02691,0.055199,-0.037063,-0.05728,-0.17266,-0.064829,-0.1597,0.00013336,-0.21271,2.5119,-0.40888,-1.8571,2.6298,0.79616,-3.3656,-0.17181
-0.036495,-0.023044,0,0,0.062275,-0.048005,0.0093743,-0.0097351,-0.0093472,0.0068344,0.099854,-0.025473,0.068461,-0.026971,0.055189,-0.037121,-0.05726,-0.17276,-0.064802,-0.1598,0.00013259,-0.21284,2.5103,-0.40987,-1.8568,2.6293,0.79646,-3.3663,-0.17221
-0.036495,-0.023044,0,0,0.062259,-0.048068,0.0093582,-0.0097506,-0.0093359,0.0068498,0.099831,-0.025525,0.068439,-0.027032,0.05518,-0.037179,-0.05724,-0.17286,-0.064775,-0.15989,0.00013182,-0.21297,2.5086,-0.41085,-1.8565,2.6288,0.79676,-3.3669,-0.17262
-0.036495,-0.023044,0,0,0.062243,-0.048131,0.0093421,-0.0097661,-0.0093246,0.0068653,0.099809,-0.025577,0.068417,-0.027094,0.05517,-0.037237,-0.057219,-0.17296,-0.064748,-0.15998,0.00013105,-0.21309,2.5069,-0.41184,-1.8562,2.6283,0.79706,-3.3676,-0.17302
-0.036495,-0.023044,0,0,0.062227,-0.048194,0.0093259,-0.0097815,-0.0093132,0.0068807,0.099786,-0.025629,0.068395,-0.027155,0.05516,-0.037295,-0.057199,-0.17306,-0.064721,-0.16008,0.00013026,-0.21322,2.5053,-0.41282,-1.8559,2.6277,0.79736,-3.3682,-0.17342
-0.036495,-0.023044,0,0,0.062211,-0.048257,0.0093097,-0.0097969,-0.0093018,0.006896,0.099764,-0.025681,0.068373,-0.027216,0.055151,-0.037353,-0.057179,-0.17315,-0.064694,-0.16017,0.00012948,-0.21335,2.5036,-0.41381,-1.8557,2.6272,0.79765,-3.3688,-0.17383
-0.036495,-0.023044,0,0,0.062195,-0.048319,0.0092935,-0.0098123,-0.0092904,0.0069114,0.099741,-0.025733,0.068351,-0.027277,0.055141,-0.03741,-0.057159,-0.17325,-0.064667,-0.16027,0.00012869,-0.21348,2.502,-0.41479,-1.8554,2.6267,0.79795,-3.3695,-0.17423
-0.036495,-0.023044,0,0,0.062179,-0.048382,0.0092773,-0.0098276,-0.009279,0.0069268,0.099718,-0.025784,0.068328,-0.027338,0.055131,-0.037468,-0.057138,-0.17335,-0.06464,-0.16036,0.0001279,-0.2136,2.5003,-0.41577,-1.8551,2.6262,0.79825,-3.3701,-0.17464
-0.036495,-0.023044,0,0,0.062163,-0.048445,0.009261,-0.0098429,-0.0092675,0.0069421,0.099696,-0.025836,0.068306,-0.027399,0.055121,-0.037525,-0.057118,-0.17345,-0.064613,-0.16045,0.0001271,-0.21373,2.4987,-0.41675,-1.8548,2.6256,0.79855,-3.3707,-0.17504
-0.036495,-0.023044,0,0,0.062147,-0.048507,0.0092448,-0.0098582,-0.009256,0.0069574,0.099673,-0.025888,0.068284,-0.027459,0.055112,-0.037583,-0.057098,-0.17354,-0.064586,-0.16055,0.0001263,-0.21386,2.497,-0.41774,-1.8545,2.6251,0.79885,-3.3714,-0.17544
-0.036495,-0.023044,0,0,0.062131,-0.04857,0.0092285,-0.0098735,-0.0092445,0.0069727,0.09965,-0.02594,0.068261,-0.02752,0.055102,-0.03764,-0.057078,-0.17364,-0.064559,-0.16064,0.0001255,-0.21398,2.4954,-0.41872,-1.8542,2.6246,0.79915,-3.372,-0.17584
-0.036495,-0.023044,0,0,0.062115,-0.048632,0.0092121,-0.0098887,-0.009233,0.0069879,0.099627,-0.025991,0.068239,-0.027581,0.055092,-0.037698,-0.057057,-0.17374,-0.064532,-0.16073,0.00012469,-0.21411,2.4937,-0.4197,-1.8539,2.6241,0.79945,-3.3726,-0.17625
-0.036495,-0.023044,0,0,0.062098,-0.048695,0.0091958,-0.0099039,-0.0092214,0.0070032,0.099605,-0.026043,0.068217,-0.027642,0.055082,-0.037755,-0.057037,-0.17383,-0.064505,-0.16083,0.00012388,-0.21424,2.4921,-0.42068,-1.8536,2.6236,0.79975,-3.3733,-0.17665
-0.036495,-0.023044,0,0,0.062082,-0.048757,0.0091794,-0.0099191,-0.0092099,0.0070184,0.099582,-0.026094,0.068194,-0.027702,0.055072,-0.037813,-0.057017,-0.17393,-0.064478,-0.16092,0.00012307,-0.21437,2.4904,-0.42166,-1.8533,2.623,0.80005,-3.3739,-0.17705
-0.036495,-0.023044,0,0,0.062066,-0.04882,0.009163,-0.0099343,-0.0091982,0.0070336,0.099559,-0.026146,0.068172,-0.027763,0.055062,-0.03787,-0.056997,-0.17403,-0.064451,-0.16101,0.00012225,-0.21449,2.4888,-0.42264,-1.853,2.6225,0.80035,-3.3745,-0.17745
-0.036495,-0.023044,0,0,0.062049,-0.048882,0.0091466,-0.0099494,-0.0091866,0.0070488,0.099536,-0.026197,0.068149,-0.027823,0.055052,-0.037927,-0.056976,-0.17413,-0.064424,-0.16111,0.00012143,-0.21462,2.4871,-0.42362,-1.8527,2.622,0.80065,-3.3752,-0.17785
-0.036495,-0.023044,0,0,0.062033,-0.048944,0.0091301,-0.0099645,-0.0091749,0.007064,0.099513,-0.026248,0.068127,-0.027884,0.055042,-0.037984,-0.056956,-0.17422,-0.064397,-0.1612,0.00012061,-0.21475,2.4855,-0.4246,-1.8525,2.6215,0.80096,-3.3758,-0.17825
-0.036495,-0.023044,0,0,0.062017,-0.049007,0.0091136,-0.0099796,-0.0091633,0.0070792,0.09949,-0.0263,0.068104,-0.027944,0.055032,-0.038042,-0.056936,-0.17432,-0.06437,-0.16129,0.00011978,-0.21487,2.4838,-0.42557,-1.8522,2.621,0.80126,-3.3764,-0.17865
-0.036495,-0.023044,0,0,0.062,-0.049069,0.0090971,-0.0099946,-0.0091515,0.0070943,0.099467,-0.026351,0.068082,-0.028005,0.055022,-0.038099,-0.056916,-0.17442,-0.064343,-0.16138,0.00011895,-0.215,2.4822,-0.42655,-1.8519,2.6204,0.80156,-3.3771,-0.17905
-0.036495,-0.023044,0,0,0.061984,-0.049131,0.0090806,-0.01001,-0.0091398,0.0071094,0.099444,-0.026402,0.068059,-0.028065,0.055011,-0.038156,-0.056895,-0.17451,-0.064316,-0.16148,0.00011811,-0.21513,2.4805,-0.42753,-1.8516,2.6199,0.80186,-3.3777,-0.17945
-0.036495,-0.023044,0,0,0.061967,-0.049193,0.009064,-0.010025,-0.009128,0.0071245,0.099421,-0.026453,0.068037,-0.028125,0.055001,-0.038213,-0.056875,-0.17461,-0.064289,-0.16157,0.00011727,-0.21525,2.4789,-0.4285,-1.8513,2.6194,0.80216,-3.3783,-0.17985
-0.036495,-0.023044,0,0,0.061951,-0.049255,0.0090474,-0.01004,-0.0091163,0.0071396,0.099398,-0.026504,0.068014,-0.028186,0.054991,-0.03827,-0.056855,-0.17471,-0.064262,-0.16166,0.00011643,-0.21538,2.4772,-0.42948,-1.851,2.6189,0.80246,-3.379,-0.18025
