impulse-robot/matlab/leg_analysis/salto_geometry/data/leg_geometry_stroke.csv
A_x,A_y,B_x,B_y,C_x,C_y,D_x,D_y,F_x,F_y,G_x,G_y,H_x,H_y,K_x,K_y,L_x,L_y,M_x,M_y,P_0_x,P_0_y,theta_1,theta_2,theta_3,theta_4,theta_5,theta_6,theta_7-0.036495,-0.023044,0,0,0.057345,0.016612,0.013265,-0.002586,-0.011577,0.00022685,0.096181,0.0369,0.064754,0.037247,0.044102,0.013207,-0.069305,-0.10092,-0.084303,-0.10063,0.00022277,-0.10902,3.122,0.45157,-1.9155,3.1228,0.72535,-2.7189,0.44445
-0.036495,-0.023044,0,0,0.057505,0.016231,0.01326,-0.0026105,-0.011577,0.00024827,0.096382,0.036441,0.064956,0.03685,0.044248,0.012879,-0.069381,-0.10104,-0.084377,-0.10071,0.00012082,-0.10938,3.1202,0.4461,-1.9175,3.1195,0.72341,-2.723,0.4392
-0.036495,-0.023044,0,0,0.057671,0.015833,0.013255,-0.002635,-0.011576,0.00026968,0.096588,0.035965,0.065163,0.036437,0.0444,0.012537,-0.069451,-0.10119,-0.084446,-0.1008,2.2109e-05,-0.10975,3.1183,0.44043,-1.9196,3.1161,0.72147,-2.7272,0.43378
-0.036495,-0.023044,0,0,0.057841,0.015417,0.013251,-0.0026595,-0.011576,0.00029109,0.096799,0.035471,0.065375,0.036006,0.044556,0.01218,-0.069516,-0.10135,-0.084509,-0.10091,-7.3144e-05,-0.11016,3.1165,0.43454,-1.9216,3.1126,0.71953,-2.7316,0.42815
-0.036495,-0.023044,0,0,0.058017,0.014982,0.013246,-0.002684,-0.011575,0.0003125,0.097015,0.034957,0.065593,0.035556,0.044717,0.011806,-0.069575,-0.10152,-0.084567,-0.10103,-0.00016469,-0.11059,3.1146,0.42842,-1.9236,3.109,0.71759,-2.7362,0.4223
-0.036495,-0.023044,0,0,0.0582,0.014526,0.013241,-0.0027085,-0.011574,0.0003339,0.097238,0.034422,0.065816,0.035085,0.044884,0.011414,-0.069628,-0.10172,-0.084618,-0.10118,-0.00025226,-0.11105,3.1128,0.42205,-1.9256,3.1053,0.71566,-2.741,0.41622
-0.036495,-0.023044,0,0,0.058388,0.014046,0.013236,-0.002733,-0.011574,0.00035531,0.097467,0.033863,0.066047,0.034589,0.045057,0.011002,-0.069674,-0.10194,-0.084661,-0.10134,-0.00033552,-0.11154,3.1109,0.41538,-1.9276,3.1013,0.71372,-2.7461,0.40987
-0.036495,-0.023044,0,0,0.058585,0.013541,0.013231,-0.0027575,-0.011573,0.00037672,0.097703,0.033278,0.066285,0.034068,0.045238,0.010567,-0.069713,-0.10219,-0.084698,-0.10152,-0.00041413,-0.11207,3.1091,0.4084,-1.9297,3.0972,0.7118,-2.7514,0.40322
-0.036495,-0.023044,0,0,0.058789,0.013006,0.013225,-0.002782,-0.011572,0.00039812,0.097947,0.032664,0.06653,0.033518,0.045425,0.010108,-0.069743,-0.10246,-0.084725,-0.10173,-0.00048766,-0.11264,3.1072,0.40107,-1.9317,3.093,0.70988,-2.757,0.39626
-0.036495,-0.023044,0,0,0.059001,0.012439,0.01322,-0.0028064,-0.011572,0.00041952,0.098199,0.032018,0.066784,0.032935,0.045621,0.0096205,-0.069765,-0.10277,-0.084743,-0.10197,-0.00055563,-0.11326,3.1054,0.39335,-1.9337,3.0885,0.70797,-2.763,0.38893
-0.036495,-0.023044,0,0,0.059223,0.011836,0.013215,-0.0028309,-0.011571,0.00044093,0.098461,0.031335,0.067048,0.032316,0.045825,0.0091016,-0.069776,-0.10311,-0.08475,-0.10224,-0.0006175,-0.11393,3.1035,0.38519,-1.9357,3.0837,0.70607,-2.7693,0.38119
-0.036495,-0.023044,0,0,0.059456,0.011191,0.01321,-0.0028553,-0.01157,0.00046233,0.098733,0.030611,0.067322,0.031656,0.04604,0.008547,-0.069776,-0.10349,-0.084746,-0.10255,-0.00067262,-0.11466,3.1017,0.37653,-1.9378,3.0787,0.70418,-2.776,0.37299
-0.036495,-0.023044,0,0,0.0597,0.010499,0.013204,-0.0028797,-0.011569,0.00048372,0.099016,0.02984,0.067607,0.030948,0.046265,0.0079519,-0.069763,-0.10392,-0.084727,-0.1029,-0.00072023,-0.11546,3.0998,0.3673,-1.9398,3.0733,0.70231,-2.7832,0.36428
-0.036495,-0.023044,0,0,0.059956,0.0097535,0.013199,-0.0029041,-0.011568,0.00050512,0.099312,0.029015,0.067905,0.030186,0.046502,0.0073102,-0.069735,-0.10441,-0.084693,-0.1033,-0.00075944,-0.11634,3.098,0.35743,-1.9418,3.0676,0.70048,-2.791,0.35497
-0.036495,-0.023044,0,0,0.060227,0.0089456,0.013194,-0.0029285,-0.011567,0.00052652,0.099621,0.028129,0.068216,0.029363,0.046753,0.006615,-0.06969,-0.10496,-0.084642,-0.10376,-0.00078922,-0.11731,3.0961,0.34682,-1.9438,3.0615,0.69867,-2.7993,0.34498
-0.036495,-0.023044,0,0,0.060514,0.0080659,0.013188,-0.0029529,-0.011566,0.00054791,0.099945,0.027173,0.068543,0.028467,0.047019,0.0058578,-0.069626,-0.10559,-0.084569,-0.10429,-0.00080834,-0.11839,3.0943,0.33535,-1.9457,3.0548,0.69692,-2.8084,0.33422
-0.036495,-0.023044,0,0,0.060817,0.0071033,0.013183,-0.0029773,-0.011565,0.0005693,0.10028,0.026135,0.068885,0.027489,0.047301,0.0050289,-0.069539,-0.1063,-0.084473,-0.10489,-0.00081542,-0.1196,3.0924,0.3229,-1.9476,3.0476,0.69523,-2.8183,0.32256
-0.036495,-0.023044,0,0,0.061139,0.0060454,0.013177,-0.0030017,-0.011564,0.00059069,0.10064,0.025004,0.069244,0.026417,0.047601,0.0041178,-0.069426,-0.10712,-0.084348,-0.10559,-0.00080896,-0.12096,3.0906,0.30933,-1.9495,3.0398,0.69364,-2.8292,0.30989
-0.036495,-0.023044,0,0,0.061479,0.0048802,0.013172,-0.0030261,-0.011563,0.00061208,0.10101,0.02377,0.069619,0.025237,0.047919,0.0031141,-0.069283,-0.10806,-0.084192,-0.1064,-0.00078748,-0.12249,3.0887,0.29451,-1.9512,3.0312,0.69217,-2.8411,0.29609
-0.036495,-0.023044,0,0,0.061835,0.0035992,0.013166,-0.0030504,-0.011562,0.00063346,0.1014,0.022426,0.070008,0.023943,0.048253,0.0020101,-0.069107,-0.10913,-0.083999,-0.10734,-0.0007499,-0.1242,3.0869,0.27835,-1.9528,3.0218,0.69087,-2.8541,0.28109
-0.036495,-0.023044,0,0,0.062202,0.0022034,0.01316,-0.0030748,-0.011561,0.00065485,0.10179,0.020975,0.070404,0.022536,0.0486,0.00080692,-0.068896,-0.11034,-0.08377,-0.1084,-0.00069619,-0.12611,3.085,0.26087,-1.9542,3.0117,0.6898,-2.8683,0.26496
-0.036495,-0.023044,0,0,0.062572,0.0007124,0.013155,-0.0030991,-0.01156,0.00067623,0.10218,0.01944,0.070796,0.021036,0.048949,-0.0004788,-0.068654,-0.11168,-0.083505,-0.10958,-0.00062833,-0.12819,3.0832,0.24235,-1.9553,3.0008,0.68902,-2.8834,0.24795
-0.036495,-0.023044,0,0,0.062929,-0.00082987,0.013149,-0.0031234,-0.011558,0.00069761,0.10256,0.017865,0.07117,0.019487,0.04929,-0.0018093,-0.068388,-0.11312,-0.083215,-0.11085,-0.00055086,-0.13038,3.0813,0.22333,-1.9561,2.9897,0.68856,-2.8989,0.23058
-0.036495,-0.023044,0,0,0.063259,-0.0023616,0.013143,-0.0031477,-0.011557,0.00071898,0.1029,0.016315,0.071509,0.017951,0.049606,-0.0031311,-0.068111,-0.11459,-0.082912,-0.11215,-0.00047021,-0.1326,3.0795,0.20455,-1.9566,2.9786,0.68843,-2.9143,0.21354
-0.036495,-0.023044,0,0,0.063551,-0.003823,0.013137,-0.0031721,-0.011556,0.00074036,0.10319,0.014846,0.071805,0.016488,0.049888,-0.0043927,-0.067839,-0.11603,-0.082614,-0.11344,-0.00039261,-0.13476,3.0776,0.18671,-1.9568,2.968,0.68858,-2.9289,0.19748
-0.036495,-0.023044,0,0,0.063801,-0.0051752,0.013131,-0.0031963,-0.011554,0.00076173,0.10344,0.013496,0.072054,0.015136,0.050132,-0.0055605,-0.067582,-0.11739,-0.08233,-0.11465,-0.00032218,-0.13678,3.0758,0.17027,-1.9567,2.9582,0.68894,-2.9424,0.18278
-0.036495,-0.023044,0,0,0.064012,-0.0064041,0.013125,-0.0032206,-0.011553,0.0007831,0.10365,0.012277,0.07226,0.013909,0.05034,-0.006622,-0.067345,-0.11865,-0.082068,-0.11578,-0.00026055,-0.13864,3.0739,0.15535,-1.9565,2.9493,0.68945,-2.9547,0.16956
-0.036495,-0.023044,0,0,0.064189,-0.0075127,0.013119,-0.0032449,-0.011551,0.00080446,0.10382,0.011182,0.072431,0.012804,0.050515,-0.0075799,-0.067129,-0.1198,-0.081828,-0.11682,-0.00020767,-0.14033,3.0721,0.14192,-1.9562,2.9412,0.69003,-2.9657,0.15774
-0.036495,-0.023044,0,0,0.064339,-0.0085123,0.013113,-0.0032692,-0.01155,0.00082582,0.10396,0.010199,0.072571,0.011808,0.050665,-0.0084439,-0.066933,-0.12086,-0.08161,-0.11776,-0.00016265,-0.14187,3.0702,0.12981,-1.9557,2.9339,0.69066,-2.9756,0.14718
-0.036495,-0.023044,0,0,0.064465,-0.0094167,0.013107,-0.0032934,-0.011548,0.00084718,0.10408,0.0093127,0.072688,0.010907,0.050792,-0.0092257,-0.066754,-0.12182,-0.081411,-0.11863,-0.00012437,-0.14328,3.0684,0.11886,-1.9553,2.9273,0.69132,-2.9846,0.1377
-0.036495,-0.023044,0,0,0.064572,-0.010239,0.013101,-0.0033176,-0.011547,0.00086854,0.10417,0.0085096,0.072786,0.010089,0.050902,-0.0099369,-0.066591,-0.12271,-0.081229,-0.11943,-9.1732e-05,-0.14456,3.0665,0.1089,-1.9548,2.9213,0.69198,-2.9927,0.12914
-0.036495,-0.023044,0,0,0.064665,-0.010992,0.013095,-0.0033419,-0.011545,0.0008899,0.10426,0.0077773,0.072868,0.0093404,0.050997,-0.010588,-0.066442,-0.12353,-0.081061,-0.12017,-6.3795e-05,-0.14575,3.0647,0.099776,-1.9543,2.9158,0.69265,-3.0002,0.12137
-0.036495,-0.023044,0,0,0.064745,-0.011684,0.013089,-0.0033661,-0.011543,0.00091125,0.10433,0.0071054,0.072938,0.0086524,0.05108,-0.011186,-0.066305,-0.12429,-0.080906,-0.12085,-3.976e-05,-0.14684,3.0628,0.091377,-1.9538,2.9107,0.6933,-3.007,0.11427
-0.036495,-0.023044,0,0,0.064815,-0.012324,0.013083,-0.0033903,-0.011542,0.0009326,0.10439,0.0064855,0.072997,0.0080164,0.051153,-0.01174,-0.066177,-0.12499,-0.080763,-0.12149,-1.8976e-05,-0.14786,3.061,0.083599,-1.9533,2.906,0.69394,-3.0133,0.10774
-0.036495,-0.023044,0,0,0.064876,-0.012919,0.013076,-0.0034145,-0.01154,0.00095394,0.10444,0.0059105,0.073048,0.0074254,0.051218,-0.012255,-0.066058,-0.12565,-0.080628,-0.12209,-9.1142e-07,-0.14881,3.0591,0.076357,-1.9527,2.9017,0.69458,-3.0192,0.10171
-0.036495,-0.023044,0,0,0.06493,-0.013475,0.01307,-0.0034387,-0.011538,0.00097528,0.10448,0.0053746,0.073091,0.0068735,0.051276,-0.012736,-0.065947,-0.12628,-0.080502,-0.12265,1.4865e-05,-0.14971,3.0573,0.069582,-1.9522,2.8976,0.69519,-3.0247,0.096113
-0.036495,-0.023044,0,0,0.064978,-0.013997,0.013064,-0.0034628,-0.011536,0.00099662,0.10452,0.0048729,0.073129,0.0063561,0.051328,-0.013187,-0.065843,-0.12686,-0.080384,-0.12318,2.8705e-05,-0.15055,3.0554,0.063217,-1.9517,2.8937,0.6958,-3.0298,0.09089
-0.036495,-0.023044,0,0,0.06502,-0.014488,0.013057,-0.003487,-0.011534,0.001018,0.10456,0.0044013,0.073162,0.005869,0.051374,-0.013613,-0.065744,-0.12742,-0.080272,-0.12369,4.0898e-05,-0.15134,3.0536,0.057214,-1.9512,2.8901,0.69639,-3.0347,0.086
-0.036495,-0.023044,0,0,0.065058,-0.014952,0.013051,-0.0035111,-0.011533,0.0010393,0.10458,0.0039566,0.07319,0.0054089,0.051416,-0.014014,-0.065651,-0.12795,-0.080166,-0.12417,5.1682e-05,-0.1521,3.0517,0.05153,-1.9507,2.8867,0.69697,-3.0392,0.081404
-0.036495,-0.023044,0,0,0.065093,-0.015392,0.013044,-0.0035353,-0.011531,0.0010606,0.10461,0.0035357,0.073214,0.0049729,0.051455,-0.014395,-0.065562,-0.12845,-0.080065,-0.12462,6.1254e-05,-0.15281,3.0499,0.046132,-1.9503,2.8834,0.69754,-3.0436,0.07707
-0.036495,-0.023044,0,0,0.065123,-0.01581,0.013038,-0.0035594,-0.011529,0.0010819,0.10463,0.0031362,0.073235,0.0045585,0.05149,-0.014757,-0.065478,-0.12893,-0.079969,-0.12506,6.978e-05,-0.1535,3.048,0.040991,-1.9498,2.8803,0.6981,-3.0477,0.072971
-0.036495,-0.023044,0,0,0.065151,-0.016209,0.013031,-0.0035835,-0.011527,0.0011033,0.10465,0.0027559,0.073253,0.0041636,0.051521,-0.015102,-0.065397,-0.12939,-0.079877,-0.12547,7.7399e-05,-0.15415,3.0462,0.036081,-1.9493,2.8774,0.69865,-3.0516,0.069083
-0.036495,-0.023044,0,0,0.065176,-0.01659,0.013024,-0.0036076,-0.011525,0.0011246,0.10467,0.0023932,0.073269,0.0037863,0.051551,-0.015432,-0.06532,-0.12983,-0.079788,-0.12587,8.4226e-05,-0.15478,3.0443,0.031381,-1.9489,2.8745,0.69918,-3.0554,0.065387
-0.036495,-0.023044,0,0,0.065198,-0.016955,0.013018,-0.0036317,-0.011522,0.0011459,0.10468,0.0020463,0.073282,0.0034251,0.051577,-0.015748,-0.065246,-0.13026,-0.079704,-0.12626,9.0361e-05,-0.15538,3.0425,0.02687,-1.9484,2.8718,0.69971,-3.0589,0.061865
-0.036495,-0.023044,0,0,0.065219,-0.017305,0.013011,-0.0036557,-0.01152,0.0011672,0.10469,0.0017138,0.073293,0.0030786,0.051602,-0.016052,-0.065175,-0.13067,-0.079622,-0.12663,9.5889e-05,-0.15596,3.0406,0.022533,-1.948,2.8692,0.70022,-3.0624,0.058501
-0.036495,-0.023044,0,0,0.065237,-0.017641,0.013004,-0.0036798,-0.011518,0.0011885,0.1047,0.0013946,0.073302,0.0027455,0.051625,-0.016343,-0.065107,-0.13106,-0.079543,-0.12699,0.00010088,-0.15651,3.0388,0.018355,-1.9475,2.8667,0.70073,-3.0657,0.055282
-0.036495,-0.023044,0,0,0.065254,-0.017966,0.012997,-0.0037038,-0.011516,0.0012098,0.10471,0.0010876,0.07331,0.0024248,0.051646,-0.016624,-0.06504,-0.13144,-0.079467,-0.12733,0.0001054,-0.15705,3.0369,0.014323,-1.9471,2.8643,0.70123,-3.0689,0.052197
-0.036495,-0.023044,0,0,0.065269,-0.018278,0.01299,-0.0037279,-0.011514,0.0012311,0.10472,0.00079183,0.073317,0.0021155,0.051665,-0.016895,-0.064976,-0.13181,-0.079394,-0.12767,0.00010951,-0.15757,3.0351,0.010425,-1.9467,2.862,0.70172,-3.072,0.049234
-0.036495,-0.023044,0,0,0.065283,-0.018581,0.012984,-0.0037519,-0.011511,0.0012524,0.10472,0.00050641,0.073322,0.0018167,0.051683,-0.017157,-0.064914,-0.13217,-0.079322,-0.12799,0.00011324,-0.15808,3.0332,0.0066523,-1.9462,2.8597,0.7022,-3.0749,0.046384
-0.036495,-0.023044,0,0,0.065295,-0.018873,0.012977,-0.0037759,-0.011509,0.0012737,0.10473,0.00023059,0.073325,0.0015277,0.051699,-0.01741,-0.064854,-0.13251,-0.079253,-0.12831,0.00011664,-0.15857,3.0314,0.0029946,-1.9458,2.8575,0.70268,-3.0778,0.043639
-0.036495,-0.023044,0,0,0.065306,-0.019156,0.01297,-0.0037999,-0.011507,0.001295,0.10473,-3.6296e-05,0.073328,0.0012478,0.051715,-0.017656,-0.064796,-0.13285,-0.079186,-0.12862,0.00011975,-0.15904,3.0295,-0.00055594,-1.9454,2.8554,0.70315,-3.0806,0.040992
-0.036495,-0.023044,0,0,0.065316,-0.019431,0.012963,-0.0038239,-0.011504,0.0013163,0.10473,-0.00029487,0.07333,0.00097634,0.051729,-0.017894,-0.064739,-0.13318,-0.07912,-0.12892,0.00012259,-0.1595,3.0277,-0.0040067,-1.945,2.8533,0.70361,-3.0833,0.038436
-0.036495,-0.023044,0,0,0.065325,-0.019698,0.012955,-0.0038478,-0.011502,0.0013375,0.10473,-0.00054569,0.073331,0.00071277,0.051742,-0.018125,-0.064684,-0.1335,-0.079056,-0.12921,0.0001252,-0.15995,3.0258,-0.0073644,-1.9446,2.8513,0.70406,-3.0859,0.035964
-0.036495,-0.023044,0,0,0.065334,-0.019957,0.012948,-0.0038718,-0.011499,0.0013588,0.10473,-0.00078925,0.073331,0.0004566,0.051754,-0.01835,-0.06463,-0.13381,-0.078994,-0.12949,0.0001276,-0.16039,3.024,-0.010635,-1.9442,2.8494,0.70451,-3.0884,0.033571
-0.036495,-0.023044,0,0,0.065341,-0.02021,0.012941,-0.0038957,-0.011497,0.0013801,0.10473,-0.001026,0.07333,0.00020735,0.051766,-0.018568,-0.064577,-0.13411,-0.078933,-0.12977,0.00012981,-0.16081,3.0221,-0.013824,-1.9438,2.8475,0.70496,-3.0909,0.031253
-0.036495,-0.023044,0,0,0.065347,-0.020455,0.012934,-0.0039197,-0.011494,0.0014013,0.10473,-0.0012564,0.073328,-3.539e-05,0.051776,-0.018782,-0.064526,-0.13441,-0.078874,-0.13004,0.00013185,-0.16123,3.0203,-0.016936,-1.9434,2.8457,0.7054,-3.0933,0.029004
-0.036495,-0.023044,0,0,0.065353,-0.020695,0.012927,-0.0039436,-0.011492,0.0014226,0.10473,-0.0014808,0.073326,-0.00027201,0.051786,-0.018989,-0.064476,-0.1347,-0.078815,-0.1303,0.00013373,-0.16164,3.0184,-0.019976,-1.943,2.8439,0.70583,-3.0957,0.02682
-0.036495,-0.023044,0,0,0.065358,-0.020929,0.012919,-0.0039675,-0.011489,0.0014438,0.10473,-0.0016995,0.073324,-0.00050286,0.051795,-0.019192,-0.064426,-0.13499,-0.078759,-0.13056,0.00013548,-0.16204,3.0166,-0.022949,-1.9426,2.8421,0.70626,-3.098,0.024698
-0.036495,-0.023044,0,0,0.065363,-0.021158,0.012912,-0.0039914,-0.011486,0.0014651,0.10473,-0.0019129,0.07332,-0.00072827,0.051803,-0.01939,-0.064378,-0.13526,-0.078703,-0.13081,0.0001371,-0.16242,3.0147,-0.025857,-1.9422,2.8404,0.70669,-3.1002,0.022634
-0.036495,-0.023044,0,0,0.065367,-0.021381,0.012905,-0.0040152,-0.011483,0.0014863,0.10472,-0.0021212,0.073316,-0.00094854,0.051811,-0.019584,-0.064331,-0.13554,-0.078648,-0.13106,0.00013861,-0.16281,3.0129,-0.028705,-1.9418,2.8387,0.70711,-3.1024,0.020625
-0.036495,-0.023044,0,0,0.06537,-0.021599,0.012897,-0.0040391,-0.011481,0.0015076,0.10472,-0.0023248,0.073312,-0.0011639,0.051818,-0.019773,-0.064285,-0.1358,-0.078594,-0.13131,0.00014002,-0.16318,3.011,-0.031496,-1.9415,2.8371,0.70753,-3.1046,0.018668
-0.036495,-0.023044,0,0,0.065373,-0.021813,0.01289,-0.0040629,-0.011478,0.0015288,0.10471,-0.0025239,0.073307,-0.0013747,0.051825,-0.019958,-0.064239,-0.13607,-0.078542,-0.13155,0.00014133,-0.16354,3.0092,-0.034232,-1.9411,2.8355,0.70794,-3.1067,0.016759
-0.036495,-0.023044,0,0,0.065375,-0.022022,0.012882,-0.0040868,-0.011475,0.00155,0.10471,-0.0027186,0.073302,-0.0015811,0.051831,-0.02014,-0.064195,-0.13632,-0.07849,-0.13178,0.00014257,-0.1639,3.0073,-0.036917,-1.9407,2.8339,0.70835,-3.1087,0.014898
-0.036495,-0.023044,0,0,0.065377,-0.022227,0.012875,-0.0041106,-0.011472,0.0015712,0.1047,-0.0029093,0.073296,-0.0017834,0.051837,-0.020318,-0.064151,-0.13658,-0.078439,-0.13201,0.00014372,-0.16425,3.0055,-0.039553,-1.9404,2.8323,0.70875,-3.1107,0.013081
-0.036495,-0.023044,0,0,0.065379,-0.022429,0.012867,-0.0041344,-0.011469,0.0015925,0.1047,-0.0030962,0.07329,-0.0019817,0.051842,-0.020492,-0.064108,-0.13682,-0.078389,-0.13224,0.00014481,-0.1646,3.0036,-0.042143,-1.94,2.8308,0.70915,-3.1127,0.011305
-0.036495,-0.023044,0,0,0.06538,-0.022626,0.012859,-0.0041582,-0.011466,0.0016137,0.10469,-0.0032793,0.073284,-0.0021762,0.051847,-0.020663,-0.064065,-0.13707,-0.07834,-0.13246,0.00014583,-0.16494,3.0018,-0.044688,-1.9396,2.8293,0.70955,-3.1146,0.00957
-0.036495,-0.023044,0,0,0.06538,-0.02282,0.012851,-0.004182,-0.011463,0.0016349,0.10469,-0.003459,0.073277,-0.0023671,0.051851,-0.020831,-0.064023,-0.13731,-0.078291,-0.13268,0.0001468,-0.16528,2.9999,-0.047191,-1.9393,2.8279,0.70995,-3.1165,0.0078729
-0.036495,-0.023044,0,0,0.06538,-0.02301,0.012844,-0.0042057,-0.01146,0.0016561,0.10468,-0.0036352,0.07327,-0.0025546,0.051855,-0.020996,-0.063982,-0.13755,-0.078243,-0.1329,0.00014772,-0.1656,2.9981,-0.049654,-1.9389,2.8264,0.71034,-3.1184,0.0062121
-0.036495,-0.023044,0,0,0.06538,-0.023197,0.012836,-0.0042295,-0.011457,0.0016773,0.10467,-0.0038083,0.073263,-0.0027389,0.051859,-0.021159,-0.063942,-0.13778,-0.078196,-0.13311,0.00014859,-0.16593,2.9962,-0.052079,-1.9386,2.825,0.71073,-3.1203,0.004586
-0.036495,-0.023044,0,0,0.06538,-0.023381,0.012828,-0.0042532,-0.011454,0.0016984,0.10467,-0.0039783,0.073255,-0.00292,0.051862,-0.021318,-0.063902,-0.13801,-0.078149,-0.13332,0.00014942,-0.16625,2.9944,-0.054467,-1.9382,2.8236,0.71111,-3.1221,0.002993
-0.036495,-0.023044,0,0,0.065379,-0.023562,0.01282,-0.0042769,-0.011451,0.0017196,0.10466,-0.0041454,0.073247,-0.0030981,0.051865,-0.021475,-0.063862,-0.13823,-0.078104,-0.13353,0.00015021,-0.16656,2.9925,-0.05682,-1.9379,2.8223,0.7115,-3.1238,0.0014318
-0.036495,-0.023044,0,0,0.065378,-0.02374,0.012812,-0.0043006,-0.011448,0.0017408,0.10465,-0.0043097,0.073239,-0.0032734,0.051868,-0.021629,-0.063823,-0.13846,-0.078058,-0.13373,0.00015097,-0.16687,2.9907,-0.05914,-1.9375,2.8209,0.71188,-3.1256,-9.9132e-05
-0.036495,-0.023044,0,0,0.065377,-0.023915,0.012804,-0.0043243,-0.011444,0.001762,0.10464,-0.0044714,0.07323,-0.0034459,0.05187,-0.021781,-0.063785,-0.13868,-0.078013,-0.13393,0.00015169,-0.16717,2.9888,-0.061427,-1.9372,2.8196,0.71226,-3.1273,-0.001601
-0.036495,-0.023044,0,0,0.065375,-0.024088,0.012796,-0.004348,-0.011441,0.0017831,0.10463,-0.0046304,0.073222,-0.0036158,0.051872,-0.021931,-0.063747,-0.1389,-0.077969,-0.13413,0.00015239,-0.16747,2.987,-0.063683,-1.9368,2.8183,0.71263,-3.129,-0.003075
-0.036495,-0.023044,0,0,0.065373,-0.024258,0.012788,-0.0043717,-0.011438,0.0018043,0.10463,-0.004787,0.073213,-0.0037831,0.051874,-0.022079,-0.063709,-0.13911,-0.077926,-0.13433,0.00015306,-0.16777,2.9851,-0.06591,-1.9365,2.817,0.71301,-3.1307,-0.0045223
-0.036495,-0.023044,0,0,0.065371,-0.024426,0.01278,-0.0043953,-0.011434,0.0018254,0.10462,-0.0049412,0.073204,-0.0039481,0.051875,-0.022224,-0.063672,-0.13932,-0.077882,-0.13452,0.00015371,-0.16806,2.9833,-0.068109,-1.9361,2.8157,0.71338,-3.1323,-0.005944
-0.036495,-0.023044,0,0,0.065369,-0.024591,0.012772,-0.0044189,-0.011431,0.0018466,0.10461,-0.0050931,0.073194,-0.0041107,0.051876,-0.022367,-0.063635,-0.13953,-0.07784,-0.13471,0.00015433,-0.16835,2.9814,-0.07028,-1.9358,2.8145,0.71375,-3.1339,-0.007341
-0.036495,-0.023044,0,0,0.065366,-0.024754,0.012764,-0.0044426,-0.011428,0.0018677,0.1046,-0.0052428,0.073185,-0.0042711,0.051877,-0.022509,-0.063599,-0.13974,-0.077797,-0.1349,0.00015494,-0.16864,2.9796,-0.072425,-1.9354,2.8132,0.71412,-3.1355,-0.0087143
-0.036495,-0.023044,0,0,0.065363,-0.024915,0.012756,-0.0044662,-0.011424,0.0018889,0.10459,-0.0053905,0.073175,-0.0044293,0.051878,-0.022648,-0.063563,-0.13994,-0.077755,-0.13509,0.00015552,-0.16892,2.9777,-0.074545,-1.9351,2.812,0.71448,-3.1371,-0.010065
-0.036495,-0.023044,0,0,0.06536,-0.025073,0.012747,-0.0044897,-0.011421,0.00191,0.10458,-0.0055361,0.073165,-0.0045854,0.051879,-0.022786,-0.063527,-0.14014,-0.077714,-0.13527,0.0001561,-0.1692,2.9759,-0.07664,-1.9348,2.8108,0.71485,-3.1387,-0.011393
-0.036495,-0.023044,0,0,0.065357,-0.02523,0.012739,-0.0045133,-0.011417,0.0019311,0.10457,-0.0056797,0.073155,-0.0047395,0.051879,-0.022922,-0.063492,-0.14034,-0.077673,-0.13545,0.00015665,-0.16948,2.974,-0.078712,-1.9344,2.8096,0.71521,-3.1402,-0.012701
-0.036495,-0.023044,0,0,0.065354,-0.025385,0.012731,-0.0045369,-0.011414,0.0019522,0.10456,-0.0058214,0.073145,-0.0048917,0.051879,-0.023056,-0.063457,-0.14054,-0.077632,-0.13564,0.0001572,-0.16975,2.9722,-0.080762,-1.9341,2.8084,0.71557,-3.1417,-0.013988
-0.036495,-0.023044,0,0,0.06535,-0.025538,0.012722,-0.0045604,-0.01141,0.0019733,0.10455,-0.0059614,0.073134,-0.0050421,0.051879,-0.023189,-0.063423,-0.14074,-0.077592,-0.13581,0.00015773,-0.17002,2.9703,-0.082789,-1.9338,2.8073,0.71593,-3.1432,-0.015255
-0.036495,-0.023044,0,0,0.065346,-0.025689,0.012714,-0.0045839,-0.011406,0.0019944,0.10454,-0.0060995,0.073124,-0.0051906,0.051879,-0.02332,-0.063389,-0.14093,-0.077552,-0.13599,0.00015825,-0.17028,2.9685,-0.084796,-1.9334,2.8061,0.71628,-3.1447,-0.016504
-0.036495,-0.023044,0,0,0.065342,-0.025838,0.012705,-0.0046074,-0.011403,0.0020155,0.10453,-0.006236,0.073113,-0.0053374,0.051878,-0.02345,-0.063355,-0.14112,-0.077513,-0.13617,0.00015876,-0.17055,2.9666,-0.086783,-1.9331,2.805,0.71664,-3.1462,-0.017734
-0.036495,-0.023044,0,0,0.065338,-0.025986,0.012697,-0.0046309,-0.011399,0.0020366,0.10452,-0.0063709,0.073102,-0.0054826,0.051877,-0.023578,-0.063321,-0.14131,-0.077473,-0.13634,0.00015926,-0.17081,2.9648,-0.088749,-1.9328,2.8039,0.71699,-3.1476,-0.018947
-0.036495,-0.023044,0,0,0.065334,-0.026132,0.012688,-0.0046544,-0.011395,0.0020577,0.10451,-0.0065041,0.073091,-0.0056261,0.051877,-0.023705,-0.063288,-0.1415,-0.077435,-0.13651,0.00015976,-0.17107,2.9629,-0.090697,-1.9325,2.8028,0.71735,-3.1491,-0.020142
-0.036495,-0.023044,0,0,0.065329,-0.026277,0.012679,-0.0046778,-0.011391,0.0020788,0.1045,-0.0066358,0.07308,-0.005768,0.051876,-0.02383,-0.063255,-0.14169,-0.077396,-0.13668,0.00016024,-0.17132,2.9611,-0.092627,-1.9321,2.8017,0.7177,-3.1505,-0.021321
-0.036495,-0.023044,0,0,0.065324,-0.026419,0.012671,-0.0047013,-0.011387,0.0020998,0.10449,-0.006766,0.073069,-0.0059084,0.051874,-0.023954,-0.063222,-0.14187,-0.077358,-0.13685,0.00016072,-0.17158,2.9592,-0.094539,-1.9318,2.8006,0.71805,-3.1519,-0.022485
-0.036495,-0.023044,0,0,0.06532,-0.026561,0.012662,-0.0047247,-0.011383,0.0021209,0.10447,-0.0068948,0.073057,-0.0060474,0.051873,-0.024077,-0.063189,-0.14205,-0.07732,-0.13702,0.0001612,-0.17183,2.9574,-0.096434,-1.9315,2.7995,0.7184,-3.1533,-0.023632
-0.036495,-0.023044,0,0,0.065315,-0.026701,0.012653,-0.0047481,-0.011379,0.0021419,0.10446,-0.0070222,0.073046,-0.0061849,0.051872,-0.024199,-0.063157,-0.14224,-0.077282,-0.13719,0.00016166,-0.17208,2.9555,-0.098312,-1.9312,2.7984,0.71874,-3.1547,-0.024765
-0.036495,-0.023044,0,0,0.06531,-0.02684,0.012644,-0.0047715,-0.011375,0.002163,0.10445,-0.0071483,0.073034,-0.0063211,0.05187,-0.024319,-0.063125,-0.14242,-0.077245,-0.13735,0.00016213,-0.17233,2.9537,-0.10017,-1.9308,2.7974,0.71909,-3.156,-0.025883
-0.036495,-0.023044,0,0,0.065304,-0.026977,0.012636,-0.0047949,-0.011371,0.002184,0.10444,-0.007273,0.073022,-0.0064559,0.051868,-0.024438,-0.063093,-0.14259,-0.077207,-0.13752,0.00016259,-0.17257,2.9518,-0.10202,-1.9305,2.7963,0.71943,-3.1574,-0.026987
-0.036495,-0.023044,0,0,0.065299,-0.027113,0.012627,-0.0048183,-0.011367,0.002205,0.10443,-0.0073965,0.07301,-0.0065894,0.051866,-0.024556,-0.063061,-0.14277,-0.077171,-0.13768,0.00016304,-0.17281,2.95,-0.10385,-1.9302,2.7953,0.71978,-3.1587,-0.028078
-0.036495,-0.023044,0,0,0.065294,-0.027248,0.012618,-0.0048416,-0.011363,0.0022261,0.10442,-0.0075188,0.072998,-0.0067217,0.051864,-0.024673,-0.06303,-0.14295,-0.077134,-0.13784,0.00016349,-0.17305,2.9481,-0.10567,-1.9299,2.7942,0.72012,-3.16,-0.029155
-0.036495,-0.023044,0,0,0.065288,-0.027381,0.012609,-0.0048649,-0.011359,0.0022471,0.1044,-0.0076398,0.072986,-0.0068528,0.051862,-0.024789,-0.062999,-0.14312,-0.077097,-0.138,0.00016394,-0.17329,2.9463,-0.10747,-1.9296,2.7932,0.72046,-3.1613,-0.03022
-0.036495,-0.023044,0,0,0.065282,-0.027513,0.0126,-0.0048883,-0.011355,0.0022681,0.10439,-0.0077597,0.072974,-0.0069826,0.051859,-0.024904,-0.062968,-0.14329,-0.077061,-0.13816,0.00016438,-0.17353,2.9444,-0.10926,-1.9293,2.7922,0.7208,-3.1626,-0.031272
-0.036495,-0.023044,0,0,0.065276,-0.027645,0.012591,-0.0049115,-0.011351,0.0022891,0.10438,-0.0078785,0.072962,-0.0071113,0.051857,-0.025018,-0.062937,-0.14347,-0.077025,-0.13832,0.00016482,-0.17377,2.9426,-0.11104,-1.9289,2.7912,0.72114,-3.1639,-0.032312
-0.036495,-0.023044,0,0,0.065271,-0.027775,0.012582,-0.0049348,-0.011347,0.0023101,0.10437,-0.0079962,0.072949,-0.0072389,0.051854,-0.025131,-0.062906,-0.14364,-0.076989,-0.13847,0.00016526,-0.174,2.9407,-0.1128,-1.9286,2.7902,0.72148,-3.1652,-0.03334
-0.036495,-0.023044,0,0,0.065264,-0.027904,0.012572,-0.0049581,-0.011342,0.002331,0.10436,-0.0081128,0.072937,-0.0073654,0.051852,-0.025242,-0.062876,-0.14381,-0.076954,-0.13863,0.0001657,-0.17423,2.9389,-0.11455,-1.9283,2.7892,0.72182,-3.1665,-0.034357
-0.036495,-0.023044,0,0,0.065258,-0.028031,0.012563,-0.0049813,-0.011338,0.002352,0.10434,-0.0082283,0.072924,-0.0074909,0.051849,-0.025353,-0.062846,-0.14397,-0.076919,-0.13878,0.00016613,-0.17446,2.937,-0.11629,-1.928,2.7882,0.72215,-3.1677,-0.035363
-0.036495,-0.023044,0,0,0.065252,-0.028158,0.012554,-0.0050046,-0.011334,0.002373,0.10433,-0.0083429,0.072911,-0.0076153,0.051846,-0.025464,-0.062815,-0.14414,-0.076883,-0.13894,0.00016656,-0.17469,2.9352,-0.11801,-1.9277,2.7873,0.72249,-3.169,-0.036358
-0.036495,-0.023044,0,0,0.065246,-0.028284,0.012545,-0.0050278,-0.011329,0.0023939,0.10432,-0.0084565,0.072898,-0.0077387,0.051843,-0.025573,-0.062786,-0.14431,-0.076848,-0.13909,0.00016699,-0.17491,2.9333,-0.11973,-1.9274,2.7863,0.72282,-3.1702,-0.037343
-0.036495,-0.023044,0,0,0.065239,-0.028409,0.012535,-0.005051,-0.011325,0.0024149,0.10431,-0.0085691,0.072885,-0.0078612,0.05184,-0.025681,-0.062756,-0.14447,-0.076814,-0.13924,0.00016742,-0.17514,2.9315,-0.12143,-1.927,2.7853,0.72316,-3.1714,-0.038318
-0.036495,-0.023044,0,0,0.065232,-0.028533,0.012526,-0.0050741,-0.01132,0.0024358,0.10429,-0.0086808,0.072872,-0.0079827,0.051836,-0.025789,-0.062726,-0.14463,-0.076779,-0.13939,0.00016785,-0.17536,2.9296,-0.12312,-1.9267,2.7844,0.72349,-3.1727,-0.039283
-0.036495,-0.023044,0,0,0.065226,-0.028656,0.012517,-0.0050973,-0.011316,0.0024568,0.10428,-0.0087916,0.072859,-0.0081033,0.051833,-0.025896,-0.062697,-0.1448,-0.076745,-0.13954,0.00016827,-0.17559,2.9278,-0.1248,-1.9264,2.7835,0.72382,-3.1739,-0.040238
-0.036495,-0.023044,0,0,0.065219,-0.028778,0.012507,-0.0051204,-0.011311,0.0024777,0.10427,-0.0089016,0.072846,-0.008223,0.05183,-0.026002,-0.062667,-0.14496,-0.07671,-0.13969,0.00016869,-0.17581,2.9259,-0.12647,-1.9261,2.7825,0.72416,-3.1751,-0.041183
-0.036495,-0.023044,0,0,0.065212,-0.028899,0.012498,-0.0051436,-0.011306,0.0024986,0.10425,-0.0090106,0.072833,-0.0083418,0.051826,-0.026107,-0.062638,-0.14512,-0.076676,-0.13984,0.00016911,-0.17603,2.9241,-0.12813,-1.9258,2.7816,0.72449,-3.1763,-0.04212
-0.036495,-0.023044,0,0,0.065205,-0.029019,0.012488,-0.0051667,-0.011302,0.0025195,0.10424,-0.0091188,0.07282,-0.0084597,0.051822,-0.026211,-0.062609,-0.14528,-0.076642,-0.13998,0.00016953,-0.17624,2.9222,-0.12978,-1.9255,2.7807,0.72482,-3.1774,-0.043047
-0.036495,-0.023044,0,0,0.065198,-0.029139,0.012479,-0.0051898,-0.011297,0.0025404,0.10423,-0.0092262,0.072806,-0.0085769,0.051818,-0.026315,-0.06258,-0.14544,-0.076609,-0.14013,0.00016995,-0.17646,2.9204,-0.13142,-1.9252,2.7797,0.72515,-3.1786,-0.043966
-0.036495,-0.023044,0,0,0.065191,-0.029257,0.012469,-0.0052128,-0.011292,0.0025613,0.10421,-0.0093328,0.072793,-0.0086932,0.051815,-0.026418,-0.062552,-0.1456,-0.076575,-0.14027,0.00017036,-0.17668,2.9186,-0.13306,-1.9249,2.7788,0.72548,-3.1798,-0.044877
-0.036495,-0.023044,0,0,0.065184,-0.029375,0.012459,-0.0052359,-0.011288,0.0025822,0.1042,-0.0094387,0.072779,-0.0088087,0.051811,-0.02652,-0.062523,-0.14575,-0.076542,-0.14042,0.00017078,-0.17689,2.9167,-0.13468,-1.9246,2.7779,0.72581,-3.1809,-0.045779
-0.036495,-0.023044,0,0,0.065176,-0.029492,0.01245,-0.0052589,-0.011283,0.0026031,0.10419,-0.0095437,0.072765,-0.0089235,0.051807,-0.026622,-0.062494,-0.14591,-0.076508,-0.14056,0.00017119,-0.1771,2.9149,-0.13629,-1.9243,2.777,0.72613,-3.1821,-0.046673
-0.036495,-0.023044,0,0,0.065169,-0.029609,0.01244,-0.0052819,-0.011278,0.0026239,0.10417,-0.0096481,0.072751,-0.0090374,0.051802,-0.026723,-0.062466,-0.14607,-0.076475,-0.14071,0.0001716,-0.17731,2.913,-0.1379,-1.924,2.7761,0.72646,-3.1832,-0.04756
-0.036495,-0.023044,0,0,0.065161,-0.029724,0.01243,-0.0053049,-0.011273,0.0026448,0.10416,-0.0097517,0.072738,-0.0091507,0.051798,-0.026824,-0.062438,-0.14622,-0.076442,-0.14085,0.00017201,-0.17752,2.9112,-0.13949,-1.9236,2.7752,0.72679,-3.1844,-0.048438
-0.036495,-0.023044,0,0,0.065154,-0.029839,0.01242,-0.0053279,-0.011268,0.0026656,0.10415,-0.0098546,0.072724,-0.0092632,0.051794,-0.026923,-0.06241,-0.14638,-0.076409,-0.14099,0.00017242,-0.17773,2.9093,-0.14108,-1.9233,2.7743,0.72711,-3.1855,-0.04931
-0.036495,-0.023044,0,0,0.065146,-0.029953,0.01241,-0.0053509,-0.011263,0.0026865,0.10413,-0.0099568,0.07271,-0.0093751,0.051789,-0.027023,-0.062382,-0.14653,-0.076377,-0.14113,0.00017282,-0.17794,2.9075,-0.14266,-1.923,2.7735,0.72744,-3.1866,-0.050174
-0.036495,-0.023044,0,0,0.065138,-0.030067,0.0124,-0.0053738,-0.011258,0.0027073,0.10412,-0.010058,0.072696,-0.0094862,0.051785,-0.027121,-0.062354,-0.14668,-0.076344,-0.14127,0.00017322,-0.17815,2.9056,-0.14423,-1.9227,2.7726,0.72777,-3.1877,-0.05103
-0.036495,-0.023044,0,0,0.06513,-0.03018,0.012391,-0.0053967,-0.011253,0.0027281,0.1041,-0.010159,0.072681,-0.0095967,0.05178,-0.027219,-0.062326,-0.14683,-0.076311,-0.14141,0.00017362,-0.17836,2.9038,-0.1458,-1.9224,2.7717,0.72809,-3.1888,-0.05188
-0.036495,-0.023044,0,0,0.065122,-0.030292,0.012381,-0.0054197,-0.011248,0.0027489,0.10409,-0.010259,0.072667,-0.0097065,0.051776,-0.027316,-0.062298,-0.14698,-0.076279,-0.14155,0.00017402,-0.17856,2.9019,-0.14735,-1.9221,2.7709,0.72841,-3.19,-0.052723
-0.036495,-0.023044,0,0,0.065114,-0.030403,0.01237,-0.0054425,-0.011243,0.0027697,0.10408,-0.010359,0.072653,-0.0098157,0.051771,-0.027413,-0.062271,-0.14713,-0.076247,-0.14169,0.00017442,-0.17877,2.9001,-0.1489,-1.9218,2.77,0.72874,-3.191,-0.05356
-0.036495,-0.023044,0,0,0.065106,-0.030514,0.01236,-0.0054654,-0.011238,0.0027905,0.10406,-0.010458,0.072639,-0.0099243,0.051766,-0.02751,-0.062243,-0.14728,-0.076215,-0.14183,0.00017482,-0.17897,2.8982,-0.15044,-1.9215,2.7691,0.72906,-3.1921,-0.05439
-0.036495,-0.023044,0,0,0.065098,-0.030624,0.01235,-0.0054883,-0.011233,0.0028113,0.10405,-0.010556,0.072624,-0.010032,0.051761,-0.027605,-0.062216,-0.14743,-0.076183,-0.14196,0.00017521,-0.17917,2.8964,-0.15198,-1.9212,2.7683,0.72939,-3.1932,-0.055213
-0.036495,-0.023044,0,0,0.06509,-0.030734,0.01234,-0.0055111,-0.011228,0.0028321,0.10403,-0.010654,0.07261,-0.01014,0.051756,-0.027701,-0.062189,-0.14758,-0.076151,-0.1421,0.0001756,-0.17937,2.8945,-0.15351,-1.9209,2.7674,0.72971,-3.1943,-0.056031
-0.036495,-0.023044,0,0,0.065081,-0.030843,0.01233,-0.0055339,-0.011222,0.0028528,0.10402,-0.010751,0.072595,-0.010246,0.051751,-0.027795,-0.062161,-0.14773,-0.076119,-0.14224,0.00017599,-0.17957,2.8927,-0.15503,-1.9206,2.7666,0.73003,-3.1954,-0.056842
-0.036495,-0.023044,0,0,0.065073,-0.030951,0.01232,-0.0055567,-0.011217,0.0028736,0.10401,-0.010848,0.07258,-0.010352,0.051746,-0.02789,-0.062134,-0.14788,-0.076087,-0.14237,0.00017637,-0.17977,2.8908,-0.15654,-1.9203,2.7658,0.73035,-3.1964,-0.057647
-0.036495,-0.023044,0,0,0.065065,-0.031059,0.012309,-0.0055795,-0.011212,0.0028943,0.10399,-0.010944,0.072566,-0.010458,0.051741,-0.027983,-0.062107,-0.14802,-0.076055,-0.14251,0.00017676,-0.17997,2.889,-0.15805,-1.92,2.7649,0.73067,-3.1975,-0.058447
-0.036495,-0.023044,0,0,0.065056,-0.031167,0.012299,-0.0056022,-0.011206,0.002915,0.10398,-0.01104,0.072551,-0.010563,0.051736,-0.028077,-0.06208,-0.14817,-0.076024,-0.14264,0.00017714,-0.18017,2.8871,-0.15955,-1.9197,2.7641,0.73099,-3.1986,-0.059241
-0.036495,-0.023044,0,0,0.065048,-0.031273,0.012289,-0.005625,-0.011201,0.0029358,0.10396,-0.011135,0.072536,-0.010668,0.05173,-0.028169,-0.062053,-0.14831,-0.075992,-0.14277,0.00017752,-0.18036,2.8853,-0.16105,-1.9194,2.7633,0.73132,-3.1996,-0.060029
-0.036495,-0.023044,0,0,0.065039,-0.03138,0.012278,-0.0056477,-0.011195,0.0029565,0.10395,-0.011229,0.072521,-0.010772,0.051725,-0.028262,-0.062027,-0.14846,-0.075961,-0.14291,0.00017789,-0.18056,2.8834,-0.16254,-1.9191,2.7624,0.73164,-3.2007,-0.060812
-0.036495,-0.023044,0,0,0.06503,-0.031485,0.012268,-0.0056704,-0.01119,0.0029772,0.10393,-0.011323,0.072506,-0.010875,0.051719,-0.028354,-0.062,-0.1486,-0.07593,-0.14304,0.00017826,-0.18076,2.8816,-0.16402,-1.9188,2.7616,0.73196,-3.2017,-0.06159
-0.036495,-0.023044,0,0,0.065021,-0.031591,0.012257,-0.0056931,-0.011184,0.0029979,0.10392,-0.011417,0.072491,-0.010978,0.051714,-0.028445,-0.061973,-0.14875,-0.075899,-0.14317,0.00017863,-0.18095,2.8797,-0.1655,-1.9185,2.7608,0.73228,-3.2027,-0.062362
-0.036495,-0.023044,0,0,0.065012,-0.031695,0.012247,-0.0057157,-0.011179,0.0030185,0.1039,-0.01151,0.072476,-0.011081,0.051708,-0.028536,-0.061947,-0.14889,-0.075868,-0.1433,0.000179,-0.18114,2.8779,-0.16697,-1.9182,2.76,0.7326,-3.2038,-0.063129
-0.036495,-0.023044,0,0,0.065003,-0.0318,0.012236,-0.0057384,-0.011173,0.0030392,0.10389,-0.011602,0.072461,-0.011183,0.051703,-0.028627,-0.06192,-0.14903,-0.075837,-0.14344,0.00017936,-0.18134,2.876,-0.16844,-1.9179,2.7592,0.73292,-3.2048,-0.063891
-0.036495,-0.023044,0,0,0.064994,-0.031903,0.012225,-0.005761,-0.011168,0.0030599,0.10387,-0.011694,0.072446,-0.011284,0.051697,-0.028717,-0.061894,-0.14917,-0.075806,-0.14357,0.00017972,-0.18153,2.8742,-0.1699,-1.9176,2.7584,0.73323,-3.2058,-0.064648
-0.036495,-0.023044,0,0,0.064985,-0.032007,0.012215,-0.0057836,-0.011162,0.0030805,0.10386,-0.011786,0.07243,-0.011385,0.051691,-0.028806,-0.061868,-0.14932,-0.075775,-0.1437,0.00018008,-0.18172,2.8723,-0.17135,-1.9173,2.7576,0.73355,-3.2068,-0.065401
-0.036495,-0.023044,0,0,0.064976,-0.032109,0.012204,-0.0058062,-0.011156,0.0031012,0.10384,-0.011877,0.072415,-0.011486,0.051685,-0.028896,-0.061841,-0.14946,-0.075744,-0.14383,0.00018044,-0.18191,2.8705,-0.1728,-1.917,2.7568,0.73387,-3.2079,-0.066149
-0.036495,-0.023044,0,0,0.064967,-0.032212,0.012193,-0.0058287,-0.011151,0.0031218,0.10383,-0.011967,0.0724,-0.011586,0.051679,-0.028985,-0.061815,-0.1496,-0.075714,-0.14396,0.00018079,-0.1821,2.8686,-0.17425,-1.9167,2.756,0.73419,-3.2089,-0.066892
-0.036495,-0.023044,0,0,0.064958,-0.032314,0.012182,-0.0058513,-0.011145,0.0031424,0.10381,-0.012058,0.072384,-0.011686,0.051673,-0.029073,-0.061789,-0.14974,-0.075683,-0.14408,0.00018113,-0.18229,2.8668,-0.17569,-1.9164,2.7552,0.73451,-3.2099,-0.06763
-0.036495,-0.023044,0,0,0.064949,-0.032415,0.012172,-0.0058738,-0.011139,0.003163,0.1038,-0.012147,0.072369,-0.011785,0.051667,-0.029162,-0.061763,-0.14988,-0.075653,-0.14421,0.00018148,-0.18248,2.8649,-0.17712,-1.9161,2.7544,0.73483,-3.2109,-0.068365
-0.036495,-0.023044,0,0,0.064939,-0.032516,0.012161,-0.0058963,-0.011133,0.0031836,0.10378,-0.012237,0.072353,-0.011884,0.051661,-0.029249,-0.061737,-0.15002,-0.075622,-0.14434,0.00018182,-0.18267,2.8631,-0.17855,-1.9158,2.7536,0.73514,-3.2119,-0.069094
-0.036495,-0.023044,0,0,0.06493,-0.032617,0.01215,-0.0059188,-0.011127,0.0032042,0.10376,-0.012326,0.072337,-0.011982,0.051655,-0.029337,-0.061711,-0.15016,-0.075592,-0.14447,0.00018215,-0.18285,2.8612,-0.17998,-1.9155,2.7528,0.73546,-3.2129,-0.06982
-0.036495,-0.023044,0,0,0.06492,-0.032717,0.012139,-0.0059413,-0.011121,0.0032248,0.10375,-0.012414,0.072322,-0.01208,0.051648,-0.029424,-0.061685,-0.15029,-0.075561,-0.1446,0.00018248,-0.18304,2.8594,-0.1814,-1.9152,2.7521,0.73578,-3.2138,-0.070541
-0.036495,-0.023044,0,0,0.064911,-0.032817,0.012128,-0.0059637,-0.011115,0.0032453,0.10373,-0.012502,0.072306,-0.012178,0.051642,-0.029511,-0.06166,-0.15043,-0.075531,-0.14472,0.00018281,-0.18322,2.8575,-0.18282,-1.9149,2.7513,0.7361,-3.2148,-0.071258
-0.036495,-0.023044,0,0,0.064901,-0.032916,0.012117,-0.0059861,-0.011109,0.0032659,0.10372,-0.01259,0.07229,-0.012275,0.051636,-0.029597,-0.061634,-0.15057,-0.075501,-0.14485,0.00018314,-0.18341,2.8557,-0.18423,-1.9146,2.7505,0.73641,-3.2158,-0.071971
-0.036495,-0.023044,0,0,0.064891,-0.033015,0.012106,-0.0060085,-0.011103,0.0032864,0.1037,-0.012677,0.072274,-0.012372,0.051629,-0.029683,-0.061608,-0.15071,-0.075471,-0.14498,0.00018346,-0.18359,2.8538,-0.18564,-1.9143,2.7497,0.73673,-3.2168,-0.072681
-0.036495,-0.023044,0,0,0.064882,-0.033114,0.012095,-0.0060309,-0.011097,0.003307,0.10369,-0.012764,0.072258,-0.012468,0.051623,-0.029769,-0.061583,-0.15084,-0.075441,-0.1451,0.00018377,-0.18378,2.852,-0.18704,-1.914,2.749,0.73705,-3.2178,-0.073386
-0.036495,-0.023044,0,0,0.064872,-0.033212,0.012083,-0.0060533,-0.011091,0.0033275,0.10367,-0.012851,0.072242,-0.012564,0.051616,-0.029854,-0.061557,-0.15098,-0.075411,-0.14523,0.00018408,-0.18396,2.8501,-0.18844,-1.9137,2.7482,0.73736,-3.2187,-0.074087
-0.036495,-0.023044,0,0,0.064862,-0.03331,0.012072,-0.0060756,-0.011085,0.003348,0.10365,-0.012937,0.072226,-0.01266,0.05161,-0.029939,-0.061531,-0.15111,-0.075381,-0.14535,0.00018439,-0.18415,2.8483,-0.18983,-1.9134,2.7474,0.73768,-3.2197,-0.074785
-0.036495,-0.023044,0,0,0.064852,-0.033408,0.012061,-0.0060979,-0.011078,0.0033685,0.10364,-0.013023,0.07221,-0.012755,0.051603,-0.030024,-0.061506,-0.15125,-0.075351,-0.14548,0.00018469,-0.18433,2.8464,-0.19122,-1.9131,2.7467,0.738,-3.2207,-0.075479
-0.036495,-0.023044,0,0,0.064842,-0.033505,0.01205,-0.0061202,-0.011072,0.003389,0.10362,-0.013109,0.072194,-0.01285,0.051596,-0.030109,-0.061481,-0.15139,-0.075322,-0.1456,0.00018499,-0.18451,2.8446,-0.19261,-1.9128,2.7459,0.73831,-3.2216,-0.07617
-0.036495,-0.023044,0,0,0.064832,-0.033602,0.012038,-0.0061425,-0.011066,0.0034094,0.10361,-0.013194,0.072178,-0.012945,0.051589,-0.030193,-0.061455,-0.15152,-0.075292,-0.14573,0.00018529,-0.18469,2.8427,-0.19399,-1.9125,2.7452,0.73863,-3.2226,-0.076856
-0.036495,-0.023044,0,0,0.064822,-0.033698,0.012027,-0.0061647,-0.01106,0.0034299,0.10359,-0.013279,0.072161,-0.013039,0.051583,-0.030277,-0.06143,-0.15165,-0.075262,-0.14585,0.00018558,-0.18487,2.8409,-0.19537,-1.9122,2.7444,0.73894,-3.2235,-0.07754
-0.036495,-0.023044,0,0,0.064812,-0.033794,0.012015,-0.006187,-0.011053,0.0034504,0.10357,-0.013363,0.072145,-0.013133,0.051576,-0.03036,-0.061405,-0.15179,-0.075233,-0.14598,0.00018586,-0.18505,2.839,-0.19674,-1.9119,2.7437,0.73926,-3.2245,-0.07822
-0.036495,-0.023044,0,0,0.064801,-0.03389,0.012004,-0.0062092,-0.011047,0.0034708,0.10356,-0.013447,0.072129,-0.013226,0.051569,-0.030443,-0.06138,-0.15192,-0.075203,-0.1461,0.00018614,-0.18523,2.8372,-0.19811,-1.9116,2.7429,0.73958,-3.2254,-0.078896
-0.036495,-0.023044,0,0,0.064791,-0.033986,0.011992,-0.0062314,-0.01104,0.0034912,0.10354,-0.013531,0.072112,-0.01332,0.051562,-0.030526,-0.061354,-0.15205,-0.075174,-0.14622,0.00018641,-0.18541,2.8353,-0.19948,-1.9113,2.7422,0.73989,-3.2264,-0.07957
-0.036495,-0.023044,0,0,0.064781,-0.034081,0.011981,-0.0062535,-0.011034,0.0035116,0.10352,-0.013615,0.072096,-0.013413,0.051555,-0.030609,-0.061329,-0.15219,-0.075144,-0.14634,0.00018668,-0.18559,2.8335,-0.20084,-1.911,2.7414,0.74021,-3.2273,-0.08024
-0.036495,-0.023044,0,0,0.06477,-0.034175,0.011969,-0.0062757,-0.011027,0.003532,0.10351,-0.013698,0.072079,-0.013505,0.051548,-0.030692,-0.061304,-0.15232,-0.075115,-0.14647,0.00018695,-0.18577,2.8316,-0.2022,-1.9107,2.7407,0.74052,-3.2282,-0.080906
-0.036495,-0.023044,0,0,0.06476,-0.03427,0.011958,-0.0062978,-0.011021,0.0035524,0.10349,-0.013781,0.072062,-0.013597,0.05154,-0.030774,-0.061279,-0.15245,-0.075085,-0.14659,0.00018721,-0.18595,2.8298,-0.20356,-1.9104,2.7399,0.74084,-3.2292,-0.08157
-0.036495,-0.023044,0,0,0.06475,-0.034364,0.011946,-0.0063199,-0.011014,0.0035728,0.10347,-0.013863,0.072046,-0.013689,0.051533,-0.030856,-0.061254,-0.15258,-0.075056,-0.14671,0.00018746,-0.18612,2.8279,-0.20491,-1.9101,2.7392,0.74115,-3.2301,-0.082231
-0.036495,-0.023044,0,0,0.064739,-0.034458,0.011934,-0.006342,-0.011008,0.0035932,0.10346,-0.013946,0.072029,-0.013781,0.051526,-0.030937,-0.061229,-0.15272,-0.075027,-0.14683,0.00018771,-0.1863,2.8261,-0.20626,-1.9098,2.7385,0.74147,-3.231,-0.082888
-0.036495,-0.023044,0,0,0.064728,-0.034552,0.011923,-0.0063641,-0.011001,0.0036135,0.10344,-0.014028,0.072012,-0.013873,0.051519,-0.031019,-0.061205,-0.15285,-0.074998,-0.14695,0.00018796,-0.18648,2.8242,-0.20761,-1.9095,2.7377,0.74178,-3.2319,-0.083543
-0.036495,-0.023044,0,0,0.064718,-0.034645,0.011911,-0.0063861,-0.010994,0.0036339,0.10342,-0.014109,0.071995,-0.013964,0.051511,-0.0311,-0.06118,-0.15298,-0.074969,-0.14707,0.00018819,-0.18665,2.8224,-0.20895,-1.9092,2.737,0.7421,-3.2329,-0.084194
-0.036495,-0.023044,0,0,0.064707,-0.034738,0.011899,-0.0064081,-0.010988,0.0036542,0.10341,-0.014191,0.071978,-0.014054,0.051504,-0.031181,-0.061155,-0.15311,-0.074939,-0.1472,0.00018843,-0.18683,2.8205,-0.21029,-1.9089,2.7363,0.74241,-3.2338,-0.084843
-0.036495,-0.023044,0,0,0.064696,-0.034831,0.011887,-0.0064301,-0.010981,0.0036745,0.10339,-0.014272,0.071961,-0.014145,0.051496,-0.031261,-0.06113,-0.15324,-0.07491,-0.14732,0.00018865,-0.187,2.8187,-0.21162,-1.9086,2.7356,0.74273,-3.2347,-0.085489
-0.036495,-0.023044,0,0,0.064686,-0.034923,0.011875,-0.0064521,-0.010974,0.0036948,0.10337,-0.014352,0.071944,-0.014235,0.051489,-0.031342,-0.061105,-0.15337,-0.074881,-0.14744,0.00018888,-0.18718,2.8168,-0.21296,-1.9083,2.7348,0.74304,-3.2356,-0.086132
-0.036495,-0.023044,0,0,0.064675,-0.035015,0.011863,-0.0064741,-0.010967,0.0037151,0.10336,-0.014433,0.071927,-0.014325,0.051481,-0.031422,-0.061081,-0.1535,-0.074852,-0.14756,0.00018909,-0.18735,2.815,-0.21429,-1.908,2.7341,0.74336,-3.2365,-0.086772
-0.036495,-0.023044,0,0,0.064664,-0.035107,0.011851,-0.006496,-0.01096,0.0037354,0.10334,-0.014513,0.07191,-0.014415,0.051473,-0.031502,-0.061056,-0.15363,-0.074823,-0.14768,0.0001893,-0.18752,2.8131,-0.21561,-1.9077,2.7334,0.74367,-3.2374,-0.08741
-0.036495,-0.023044,0,0,0.064653,-0.035199,0.011839,-0.0065179,-0.010953,0.0037556,0.10332,-0.014593,0.071893,-0.014504,0.051466,-0.031581,-0.061032,-0.15376,-0.074795,-0.14779,0.00018951,-0.1877,2.8113,-0.21694,-1.9074,2.7327,0.74399,-3.2383,-0.088045
-0.036495,-0.023044,0,0,0.064642,-0.03529,0.011827,-0.0065398,-0.010946,0.0037759,0.1033,-0.014673,0.071876,-0.014593,0.051458,-0.031661,-0.061007,-0.15389,-0.074766,-0.14791,0.00018971,-0.18787,2.8094,-0.21826,-1.9071,2.732,0.7443,-3.2392,-0.088677
-0.036495,-0.023044,0,0,0.064631,-0.035381,0.011815,-0.0065616,-0.010939,0.0037961,0.10329,-0.014752,0.071859,-0.014682,0.05145,-0.03174,-0.060982,-0.15402,-0.074737,-0.14803,0.0001899,-0.18804,2.8076,-0.21958,-1.9068,2.7312,0.74462,-3.2401,-0.089306
-0.036495,-0.023044,0,0,0.06462,-0.035472,0.011803,-0.0065835,-0.010932,0.0038164,0.10327,-0.014832,0.071841,-0.014771,0.051442,-0.031819,-0.060958,-0.15415,-0.074708,-0.14815,0.00019009,-0.18822,2.8057,-0.22089,-1.9065,2.7305,0.74493,-3.241,-0.089934
-0.036495,-0.023044,0,0,0.064608,-0.035562,0.011791,-0.0066053,-0.010925,0.0038366,0.10325,-0.014911,0.071824,-0.014859,0.051434,-0.031898,-0.060934,-0.15427,-0.074679,-0.14827,0.00019027,-0.18839,2.8039,-0.2222,-1.9062,2.7298,0.74525,-3.2419,-0.090558
-0.036495,-0.023044,0,0,0.064597,-0.035653,0.011778,-0.0066271,-0.010918,0.0038568,0.10323,-0.014989,0.071806,-0.014947,0.051427,-0.031976,-0.060909,-0.1544,-0.074651,-0.14839,0.00019045,-0.18856,2.802,-0.22351,-1.9059,2.7291,0.74556,-3.2428,-0.09118
-0.036495,-0.023044,0,0,0.064586,-0.035743,0.011766,-0.0066489,-0.010911,0.003877,0.10322,-0.015068,0.071789,-0.015035,0.051419,-0.032054,-0.060885,-0.15453,-0.074622,-0.14851,0.00019061,-0.18873,2.8002,-0.22482,-1.9056,2.7284,0.74588,-3.2437,-0.0918
-0.036495,-0.023044,0,0,0.064575,-0.035832,0.011754,-0.0066706,-0.010904,0.0038971,0.1032,-0.015146,0.071771,-0.015123,0.051411,-0.032132,-0.06086,-0.15466,-0.074593,-0.14862,0.00019078,-0.1889,2.7983,-0.22612,-1.9053,2.7277,0.74619,-3.2446,-0.092417
-0.036495,-0.023044,0,0,0.064563,-0.035922,0.011741,-0.0066923,-0.010897,0.0039173,0.10318,-0.015224,0.071754,-0.01521,0.051402,-0.03221,-0.060836,-0.15478,-0.074565,-0.14874,0.00019093,-0.18907,2.7965,-0.22742,-1.905,2.727,0.7465,-3.2455,-0.093032
-0.036495,-0.023044,0,0,0.064552,-0.036011,0.011729,-0.0067141,-0.010889,0.0039374,0.10316,-0.015302,0.071736,-0.015298,0.051394,-0.032288,-0.060812,-0.15491,-0.074536,-0.14886,0.00019109,-0.18924,2.7946,-0.22872,-1.9047,2.7263,0.74682,-3.2464,-0.093645
-0.036495,-0.023044,0,0,0.06454,-0.0361,0.011717,-0.0067357,-0.010882,0.0039576,0.10315,-0.015379,0.071718,-0.015384,0.051386,-0.032366,-0.060787,-0.15504,-0.074508,-0.14898,0.00019123,-0.18941,2.7928,-0.23002,-1.9044,2.7256,0.74713,-3.2473,-0.094255
-0.036495,-0.023044,0,0,0.064529,-0.036189,0.011704,-0.0067574,-0.010875,0.0039777,0.10313,-0.015456,0.071701,-0.015471,0.051378,-0.032443,-0.060763,-0.15516,-0.074479,-0.14909,0.00019137,-0.18958,2.7909,-0.23131,-1.9041,2.7249,0.74745,-3.2481,-0.094863
-0.036495,-0.023044,0,0,0.064517,-0.036278,0.011692,-0.006779,-0.010867,0.0039978,0.10311,-0.015533,0.071683,-0.015558,0.05137,-0.03252,-0.060739,-0.15529,-0.074451,-0.14921,0.0001915,-0.18975,2.7891,-0.2326,-1.9038,2.7242,0.74776,-3.249,-0.095469
-0.036495,-0.023044,0,0,0.064506,-0.036366,0.011679,-0.0068006,-0.01086,0.0040179,0.10309,-0.01561,0.071665,-0.015644,0.051361,-0.032597,-0.060715,-0.15542,-0.074423,-0.14933,0.00019163,-0.18992,2.7872,-0.23389,-1.9035,2.7235,0.74808,-3.2499,-0.096073
-0.036495,-0.023044,0,0,0.064494,-0.036454,0.011666,-0.0068222,-0.010852,0.004038,0.10308,-0.015687,0.071647,-0.01573,0.051353,-0.032674,-0.060691,-0.15554,-0.074394,-0.14944,0.00019175,-0.19009,2.7854,-0.23518,-1.9031,2.7228,0.74839,-3.2508,-0.096674
-0.036495,-0.023044,0,0,0.064482,-0.036542,0.011654,-0.0068438,-0.010845,0.004058,0.10306,-0.015763,0.071629,-0.015816,0.051344,-0.03275,-0.060667,-0.15567,-0.074366,-0.14956,0.00019186,-0.19025,2.7835,-0.23646,-1.9028,2.7221,0.74871,-3.2516,-0.097274
-0.036495,-0.023044,0,0,0.06447,-0.03663,0.011641,-0.0068653,-0.010837,0.0040781,0.10304,-0.015839,0.071611,-0.015901,0.051336,-0.032826,-0.060643,-0.15579,-0.074337,-0.14967,0.00019196,-0.19042,2.7817,-0.23774,-1.9025,2.7214,0.74902,-3.2525,-0.097871
-0.036495,-0.023044,0,0,0.064459,-0.036718,0.011628,-0.0068869,-0.01083,0.0040981,0.10302,-0.015915,0.071593,-0.015987,0.051327,-0.032902,-0.060619,-0.15592,-0.074309,-0.14979,0.00019206,-0.19059,2.7798,-0.23902,-1.9022,2.7207,0.74934,-3.2534,-0.098466
-0.036495,-0.023044,0,0,0.064447,-0.036805,0.011616,-0.0069084,-0.010822,0.0041181,0.103,-0.015991,0.071575,-0.016072,0.051319,-0.032978,-0.060594,-0.15604,-0.074281,-0.14991,0.00019216,-0.19075,2.778,-0.2403,-1.9019,2.72,0.74965,-3.2542,-0.099059
-0.036495,-0.023044,0,0,0.064435,-0.036892,0.011603,-0.0069298,-0.010815,0.0041382,0.10299,-0.016066,0.071557,-0.016157,0.05131,-0.033054,-0.06057,-0.15617,-0.074253,-0.15002,0.00019224,-0.19092,2.7761,-0.24157,-1.9016,2.7193,0.74997,-3.2551,-0.099651
-0.036495,-0.023044,0,0,0.064423,-0.036979,0.01159,-0.0069513,-0.010807,0.0041581,0.10297,-0.016142,0.071539,-0.016242,0.051302,-0.03313,-0.060547,-0.15629,-0.074224,-0.15014,0.00019232,-0.19109,2.7743,-0.24284,-1.9013,2.7186,0.75028,-3.256,-0.10024
-0.036495,-0.023044,0,0,0.064411,-0.037066,0.011577,-0.0069727,-0.010799,0.0041781,0.10295,-0.016217,0.07152,-0.016326,0.051293,-0.033205,-0.060523,-0.15642,-0.074196,-0.15025,0.0001924,-0.19125,2.7724,-0.24411,-1.901,2.718,0.7506,-3.2568,-0.10083
-0.036495,-0.023044,0,0,0.064399,-0.037152,0.011564,-0.0069941,-0.010791,0.0041981,0.10293,-0.016292,0.071502,-0.01641,0.051284,-0.033281,-0.060499,-0.15654,-0.074168,-0.15037,0.00019246,-0.19142,2.7706,-0.24538,-1.9007,2.7173,0.75091,-3.2577,-0.10141
-0.036495,-0.023044,0,0,0.064387,-0.037238,0.011551,-0.0070155,-0.010784,0.004218,0.10291,-0.016366,0.071484,-0.016495,0.051275,-0.033356,-0.060475,-0.15667,-0.07414,-0.15048,0.00019252,-0.19158,2.7687,-0.24665,-1.9004,2.7166,0.75123,-3.2585,-0.102
-0.036495,-0.023044,0,0,0.064375,-0.037325,0.011538,-0.0070368,-0.010776,0.004238,0.10289,-0.016441,0.071465,-0.016579,0.051267,-0.03343,-0.060451,-0.15679,-0.074112,-0.15059,0.00019258,-0.19175,2.7669,-0.24791,-1.9001,2.7159,0.75154,-3.2594,-0.10258
-0.036495,-0.023044,0,0,0.064362,-0.03741,0.011525,-0.0070582,-0.010768,0.0042579,0.10288,-0.016515,0.071447,-0.016662,0.051258,-0.033505,-0.060427,-0.15691,-0.074084,-0.15071,0.00019262,-0.19191,2.765,-0.24917,-1.8998,2.7152,0.75186,-3.2602,-0.10316
-0.036495,-0.023044,0,0,0.06435,-0.037496,0.011512,-0.0070795,-0.01076,0.0042778,0.10286,-0.016589,0.071428,-0.016746,0.051249,-0.03358,-0.060403,-0.15704,-0.074056,-0.15082,0.00019266,-0.19208,2.7632,-0.25043,-1.8995,2.7145,0.75217,-3.2611,-0.10373
-0.036495,-0.023044,0,0,0.064338,-0.037582,0.011499,-0.0071007,-0.010752,0.0042977,0.10284,-0.016663,0.07141,-0.016829,0.05124,-0.033654,-0.060379,-0.15716,-0.074028,-0.15094,0.00019269,-0.19224,2.7613,-0.25169,-1.8992,2.7139,0.75249,-3.2619,-0.10431
-0.036495,-0.023044,0,0,0.064326,-0.037667,0.011486,-0.007122,-0.010744,0.0043176,0.10282,-0.016737,0.071391,-0.016913,0.051231,-0.033728,-0.060356,-0.15728,-0.074,-0.15105,0.00019272,-0.19241,2.7595,-0.25294,-1.8989,2.7132,0.75281,-3.2628,-0.10489
-0.036495,-0.023044,0,0,0.064313,-0.037752,0.011473,-0.0071432,-0.010736,0.0043375,0.1028,-0.01681,0.071373,-0.016996,0.051222,-0.033803,-0.060332,-0.1574,-0.073972,-0.15116,0.00019274,-0.19257,2.7576,-0.25419,-1.8986,2.7125,0.75312,-3.2636,-0.10546
-0.036495,-0.023044,0,0,0.064301,-0.037837,0.01146,-0.0071644,-0.010728,0.0043573,0.10278,-0.016884,0.071354,-0.017078,0.051213,-0.033877,-0.060308,-0.15753,-0.073944,-0.15128,0.00019275,-0.19273,2.7558,-0.25544,-1.8983,2.7118,0.75344,-3.2645,-0.10603
-0.036495,-0.023044,0,0,0.064288,-0.037922,0.011446,-0.0071856,-0.01072,0.0043771,0.10276,-0.016957,0.071335,-0.017161,0.051204,-0.03395,-0.060284,-0.15765,-0.073916,-0.15139,0.00019275,-0.1929,2.7539,-0.25669,-1.898,2.7112,0.75375,-3.2653,-0.1066
-0.036495,-0.023044,0,0,0.064276,-0.038007,0.011433,-0.0072068,-0.010712,0.004397,0.10274,-0.01703,0.071316,-0.017244,0.051194,-0.034024,-0.060261,-0.15777,-0.073888,-0.1515,0.00019275,-0.19306,2.7521,-0.25794,-1.8977,2.7105,0.75407,-3.2662,-0.10717
-0.036495,-0.023044,0,0,0.064263,-0.038091,0.01142,-0.0072279,-0.010704,0.0044168,0.10273,-0.017103,0.071297,-0.017326,0.051185,-0.034097,-0.060237,-0.15789,-0.07386,-0.15162,0.00019274,-0.19322,2.7502,-0.25919,-1.8974,2.7098,0.75438,-3.267,-0.10773
-0.036495,-0.023044,0,0,0.064251,-0.038175,0.011406,-0.007249,-0.010696,0.0044366,0.10271,-0.017175,0.071279,-0.017408,0.051176,-0.034171,-0.060213,-0.15802,-0.073832,-0.15173,0.00019272,-0.19339,2.7484,-0.26043,-1.8971,2.7092,0.7547,-3.2678,-0.10829
-0.036495,-0.023044,0,0,0.064238,-0.038259,0.011393,-0.0072701,-0.010687,0.0044563,0.10269,-0.017248,0.07126,-0.01749,0.051167,-0.034244,-0.06019,-0.15814,-0.073805,-0.15184,0.0001927,-0.19355,2.7465,-0.26167,-1.8968,2.7085,0.75502,-3.2687,-0.10886
-0.036495,-0.023044,0,0,0.064225,-0.038343,0.011379,-0.0072912,-0.010679,0.0044761,0.10267,-0.01732,0.071241,-0.017572,0.051157,-0.034317,-0.060166,-0.15826,-0.073777,-0.15196,0.00019267,-0.19371,2.7447,-0.26291,-1.8965,2.7078,0.75533,-3.2695,-0.10942
-0.036495,-0.023044,0,0,0.064212,-0.038427,0.011366,-0.0073122,-0.010671,0.0044958,0.10265,-0.017392,0.071222,-0.017653,0.051148,-0.03439,-0.060143,-0.15838,-0.073749,-0.15207,0.00019263,-0.19387,2.7428,-0.26415,-1.8962,2.7072,0.75565,-3.2703,-0.10998
-0.036495,-0.023044,0,0,0.0642,-0.038511,0.011352,-0.0073332,-0.010663,0.0045156,0.10263,-0.017464,0.071202,-0.017735,0.051138,-0.034463,-0.060119,-0.1585,-0.073721,-0.15218,0.00019259,-0.19403,2.741,-0.26538,-1.8959,2.7065,0.75596,-3.2712,-0.11054
-0.036495,-0.023044,0,0,0.064187,-0.038594,0.011339,-0.0073542,-0.010654,0.0045353,0.10261,-0.017536,0.071183,-0.017816,0.051129,-0.034535,-0.060095,-0.15862,-0.073693,-0.15229,0.00019254,-0.19419,2.7391,-0.26662,-1.8956,2.7058,0.75628,-3.272,-0.11109
-0.036495,-0.023044,0,0,0.064174,-0.038677,0.011325,-0.0073751,-0.010646,0.004555,0.10259,-0.017607,0.071164,-0.017897,0.051119,-0.034608,-0.060072,-0.15874,-0.073666,-0.1524,0.00019248,-0.19435,2.7373,-0.26785,-1.8953,2.7052,0.7566,-3.2728,-0.11165
-0.036495,-0.023044,0,0,0.064161,-0.03876,0.011311,-0.0073961,-0.010637,0.0045746,0.10257,-0.017679,0.071145,-0.017978,0.05111,-0.03468,-0.060048,-0.15887,-0.073638,-0.15252,0.00019241,-0.19452,2.7354,-0.26908,-1.895,2.7045,0.75691,-3.2736,-0.1122
-0.036495,-0.023044,0,0,0.064148,-0.038843,0.011298,-0.007417,-0.010629,0.0045943,0.10255,-0.01775,0.071126,-0.018059,0.0511,-0.034752,-0.060025,-0.15899,-0.07361,-0.15263,0.00019234,-0.19468,2.7336,-0.27031,-1.8947,2.7038,0.75723,-3.2745,-0.11275
-0.036495,-0.023044,0,0,0.064135,-0.038926,0.011284,-0.0074379,-0.01062,0.004614,0.10253,-0.017821,0.071106,-0.01814,0.05109,-0.034824,-0.060001,-0.15911,-0.073583,-0.15274,0.00019226,-0.19484,2.7317,-0.27153,-1.8944,2.7032,0.75755,-3.2753,-0.1133
-0.036495,-0.023044,0,0,0.064122,-0.039009,0.01127,-0.0074587,-0.010612,0.0046336,0.10251,-0.017892,0.071087,-0.01822,0.051081,-0.034896,-0.059978,-0.15923,-0.073555,-0.15285,0.00019217,-0.195,2.7299,-0.27276,-1.8941,2.7025,0.75786,-3.2761,-0.11385
-0.036495,-0.023044,0,0,0.064109,-0.039091,0.011256,-0.0074796,-0.010603,0.0046532,0.10249,-0.017963,0.071067,-0.0183,0.051071,-0.034968,-0.059955,-0.15935,-0.073527,-0.15296,0.00019207,-0.19516,2.728,-0.27398,-1.8938,2.7019,0.75818,-3.2769,-0.1144
-0.036495,-0.023044,0,0,0.064096,-0.039173,0.011243,-0.0075004,-0.010595,0.0046728,0.10247,-0.018033,0.071048,-0.018381,0.051061,-0.035039,-0.059931,-0.15947,-0.0735,-0.15307,0.00019197,-0.19532,2.7262,-0.27521,-1.8935,2.7012,0.7585,-3.2777,-0.11494
-0.036495,-0.023044,0,0,0.064082,-0.039256,0.011229,-0.0075211,-0.010586,0.0046924,0.10245,-0.018104,0.071028,-0.018461,0.051051,-0.035111,-0.059908,-0.15959,-0.073472,-0.15318,0.00019186,-0.19547,2.7243,-0.27643,-1.8932,2.7005,0.75881,-3.2786,-0.11549
-0.036495,-0.023044,0,0,0.064069,-0.039338,0.011215,-0.0075419,-0.010577,0.004712,0.10244,-0.018174,0.071009,-0.018541,0.051042,-0.035182,-0.059884,-0.15971,-0.073444,-0.15329,0.00019175,-0.19563,2.7225,-0.27764,-1.8929,2.6999,0.75913,-3.2794,-0.11603
-0.036495,-0.023044,0,0,0.064056,-0.039419,0.011201,-0.0075626,-0.010568,0.0047315,0.10242,-0.018244,0.070989,-0.01862,0.051032,-0.035253,-0.059861,-0.15983,-0.073417,-0.15341,0.00019162,-0.19579,2.7206,-0.27886,-1.8926,2.6992,0.75945,-3.2802,-0.11657
-0.036495,-0.023044,0,0,0.064042,-0.039501,0.011187,-0.0075833,-0.01056,0.0047511,0.1024,-0.018314,0.070969,-0.0187,0.051022,-0.035325,-0.059838,-0.15995,-0.073389,-0.15352,0.00019149,-0.19595,2.7188,-0.28008,-1.8923,2.6986,0.75977,-3.281,-0.11711
-0.036495,-0.023044,0,0,0.064029,-0.039583,0.011173,-0.007604,-0.010551,0.0047706,0.10238,-0.018384,0.07095,-0.018779,0.051012,-0.035396,-0.059814,-0.16006,-0.073362,-0.15363,0.00019135,-0.19611,2.717,-0.28129,-1.892,2.6979,0.76008,-3.2818,-0.11765
-0.036495,-0.023044,0,0,0.064016,-0.039664,0.011159,-0.0076247,-0.010542,0.0047901,0.10236,-0.018454,0.07093,-0.018859,0.051002,-0.035466,-0.059791,-0.16018,-0.073334,-0.15374,0.00019121,-0.19627,2.7151,-0.2825,-1.8916,2.6973,0.7604,-3.2826,-0.11819
-0.036495,-0.023044,0,0,0.064002,-0.039745,0.011144,-0.0076453,-0.010533,0.0048096,0.10234,-0.018523,0.07091,-0.018938,0.050992,-0.035537,-0.059768,-0.1603,-0.073307,-0.15385,0.00019105,-0.19643,2.7133,-0.28372,-1.8913,2.6966,0.76072,-3.2834,-0.11873
-0.036495,-0.023044,0,0,0.063989,-0.039826,0.01113,-0.0076659,-0.010524,0.0048291,0.10232,-0.018593,0.07089,-0.019017,0.050981,-0.035608,-0.059744,-0.16042,-0.073279,-0.15396,0.00019089,-0.19658,2.7114,-0.28492,-1.891,2.696,0.76104,-3.2842,-0.11926
-0.036495,-0.023044,0,0,0.063975,-0.039907,0.011116,-0.0076865,-0.010515,0.0048485,0.1023,-0.018662,0.07087,-0.019096,0.050971,-0.035678,-0.059721,-0.16054,-0.073252,-0.15407,0.00019073,-0.19674,2.7096,-0.28613,-1.8907,2.6953,0.76135,-3.285,-0.1198
-0.036495,-0.023044,0,0,0.063961,-0.039988,0.011102,-0.007707,-0.010506,0.004868,0.10228,-0.018731,0.07085,-0.019174,0.050961,-0.035749,-0.059698,-0.16066,-0.073224,-0.15418,0.00019055,-0.1969,2.7077,-0.28734,-1.8904,2.6947,0.76167,-3.2858,-0.12033
-0.036495,-0.023044,0,0,0.063948,-0.040069,0.011088,-0.0077275,-0.010497,0.0048874,0.10226,-0.0188,0.07083,-0.019253,0.050951,-0.035819,-0.059674,-0.16078,-0.073197,-0.15429,0.00019037,-0.19706,2.7059,-0.28854,-1.8901,2.694,0.76199,-3.2867,-0.12086
-0.036495,-0.023044,0,0,0.063934,-0.04015,0.011073,-0.007748,-0.010488,0.0049068,0.10224,-0.018869,0.07081,-0.019331,0.050941,-0.035889,-0.059651,-0.1609,-0.073169,-0.1544,0.00019018,-0.19721,2.704,-0.28975,-1.8898,2.6934,0.76231,-3.2875,-0.12139
-0.036495,-0.023044,0,0,0.06392,-0.04023,0.011059,-0.0077685,-0.010479,0.0049262,0.10222,-0.018938,0.07079,-0.01941,0.05093,-0.035959,-0.059628,-0.16101,-0.073142,-0.15451,0.00018998,-0.19737,2.7022,-0.29095,-1.8895,2.6928,0.76263,-3.2883,-0.12192
-0.036495,-0.023044,0,0,0.063907,-0.04031,0.011045,-0.0077889,-0.01047,0.0049456,0.10219,-0.019006,0.07077,-0.019488,0.05092,-0.036029,-0.059605,-0.16113,-0.073115,-0.15462,0.00018978,-0.19753,2.7003,-0.29215,-1.8892,2.6921,0.76295,-3.2891,-0.12245
-0.036495,-0.023044,0,0,0.063893,-0.04039,0.01103,-0.0078093,-0.010461,0.0049649,0.10217,-0.019075,0.07075,-0.019566,0.05091,-0.036099,-0.059582,-0.16125,-0.073087,-0.15472,0.00018957,-0.19768,2.6985,-0.29335,-1.8889,2.6915,0.76326,-3.2899,-0.12298
-0.036495,-0.023044,0,0,0.063879,-0.04047,0.011016,-0.0078297,-0.010452,0.0049843,0.10215,-0.019143,0.07073,-0.019644,0.050899,-0.036169,-0.059558,-0.16137,-0.07306,-0.15483,0.00018935,-0.19784,2.6966,-0.29455,-1.8886,2.6908,0.76358,-3.2906,-0.1235
-0.036495,-0.023044,0,0,0.063865,-0.04055,0.011001,-0.0078501,-0.010442,0.0050036,0.10213,-0.019211,0.070709,-0.019722,0.050889,-0.036238,-0.059535,-0.16149,-0.073032,-0.15494,0.00018913,-0.198,2.6948,-0.29574,-1.8883,2.6902,0.7639,-3.2914,-0.12403
-0.036495,-0.023044,0,0,0.063851,-0.04063,0.010987,-0.0078704,-0.010433,0.0050229,0.10211,-0.019279,0.070689,-0.019799,0.050878,-0.036308,-0.059512,-0.1616,-0.073005,-0.15505,0.00018889,-0.19815,2.6929,-0.29694,-1.888,2.6895,0.76422,-3.2922,-0.12455
-0.036495,-0.023044,0,0,0.063837,-0.04071,0.010972,-0.0078907,-0.010424,0.0050422,0.10209,-0.019347,0.070669,-0.019877,0.050868,-0.036377,-0.059489,-0.16172,-0.072978,-0.15516,0.00018865,-0.19831,2.6911,-0.29813,-1.8877,2.6889,0.76454,-3.293,-0.12507
-0.036495,-0.023044,0,0,0.063823,-0.040789,0.010957,-0.007911,-0.010414,0.0050614,0.10207,-0.019415,0.070648,-0.019954,0.050857,-0.036446,-0.059466,-0.16184,-0.07295,-0.15527,0.00018841,-0.19846,2.6892,-0.29933,-1.8874,2.6883,0.76486,-3.2938,-0.12559
-0.036495,-0.023044,0,0,0.063809,-0.040869,0.010943,-0.0079313,-0.010405,0.0050807,0.10205,-0.019483,0.070628,-0.020032,0.050846,-0.036515,-0.059443,-0.16196,-0.072923,-0.15538,0.00018815,-0.19862,2.6874,-0.30052,-1.8871,2.6876,0.76518,-3.2946,-0.12611
-0.036495,-0.023044,0,0,0.063795,-0.040948,0.010928,-0.0079515,-0.010396,0.0050999,0.10203,-0.01955,0.070607,-0.020109,0.050836,-0.036584,-0.059419,-0.16207,-0.072896,-0.15549,0.00018789,-0.19877,2.6855,-0.30171,-1.8867,2.687,0.7655,-3.2954,-0.12663
-0.036495,-0.023044,0,0,0.063781,-0.041027,0.010913,-0.0079717,-0.010386,0.0051191,0.10201,-0.019618,0.070587,-0.020186,0.050825,-0.036653,-0.059396,-0.16219,-0.072868,-0.1556,0.00018762,-0.19893,2.6837,-0.3029,-1.8864,2.6864,0.76582,-3.2962,-0.12715
-0.036495,-0.023044,0,0,0.063767,-0.041106,0.010899,-0.0079919,-0.010377,0.0051383,0.10199,-0.019685,0.070566,-0.020263,0.050814,-0.036722,-0.059373,-0.16231,-0.072841,-0.1557,0.00018734,-0.19908,2.6818,-0.30408,-1.8861,2.6857,0.76614,-3.297,-0.12767
-0.036495,-0.023044,0,0,0.063752,-0.041185,0.010884,-0.008012,-0.010367,0.0051575,0.10197,-0.019752,0.070545,-0.02034,0.050803,-0.036791,-0.05935,-0.16242,-0.072814,-0.15581,0.00018706,-0.19924,2.68,-0.30527,-1.8858,2.6851,0.76646,-3.2978,-0.12818
-0.036495,-0.023044,0,0,0.063738,-0.041264,0.010869,-0.0080321,-0.010358,0.0051767,0.10195,-0.019819,0.070525,-0.020416,0.050793,-0.036859,-0.059327,-0.16254,-0.072787,-0.15592,0.00018677,-0.19939,2.6781,-0.30645,-1.8855,2.6844,0.76678,-3.2986,-0.1287
-0.036495,-0.023044,0,0,0.063724,-0.041342,0.010854,-0.0080522,-0.010348,0.0051958,0.10193,-0.019886,0.070504,-0.020493,0.050782,-0.036928,-0.059304,-0.16266,-0.072759,-0.15603,0.00018647,-0.19955,2.6763,-0.30764,-1.8852,2.6838,0.7671,-3.2993,-0.12921
-0.036495,-0.023044,0,0,0.063709,-0.041421,0.010839,-0.0080723,-0.010338,0.005215,0.10191,-0.019953,0.070483,-0.020569,0.050771,-0.036996,-0.059281,-0.16277,-0.072732,-0.15614,0.00018616,-0.1997,2.6744,-0.30882,-1.8849,2.6832,0.76742,-3.3001,-0.12973
-0.036495,-0.023044,0,0,0.063695,-0.041499,0.010824,-0.0080923,-0.010329,0.0052341,0.10188,-0.020019,0.070462,-0.020646,0.05076,-0.037065,-0.059258,-0.16289,-0.072705,-0.15624,0.00018585,-0.19985,2.6726,-0.31,-1.8846,2.6825,0.76774,-3.3009,-0.13024
-0.036495,-0.023044,0,0,0.06368,-0.041578,0.010809,-0.0081123,-0.010319,0.0052532,0.10186,-0.020086,0.070441,-0.020722,0.050749,-0.037133,-0.059235,-0.16301,-0.072678,-0.15635,0.00018553,-0.20001,2.6707,-0.31118,-1.8843,2.6819,0.76806,-3.3017,-0.13075
-0.036495,-0.023044,0,0,0.063666,-0.041656,0.010794,-0.0081323,-0.010309,0.0052723,0.10184,-0.020152,0.07042,-0.020798,0.050738,-0.037201,-0.059212,-0.16312,-0.07265,-0.15646,0.00018521,-0.20016,2.6689,-0.31236,-1.884,2.6813,0.76838,-3.3025,-0.13126
-0.036495,-0.023044,0,0,0.063651,-0.041734,0.010779,-0.0081522,-0.0103,0.0052913,0.10182,-0.020218,0.070399,-0.020874,0.050727,-0.037269,-0.059189,-0.16324,-0.072623,-0.15657,0.00018487,-0.20031,2.667,-0.31354,-1.8837,2.6807,0.7687,-3.3033,-0.13177
-0.036495,-0.023044,0,0,0.063637,-0.041812,0.010764,-0.0081722,-0.01029,0.0053104,0.1018,-0.020285,0.070378,-0.02095,0.050716,-0.037337,-0.059166,-0.16335,-0.072596,-0.15667,0.00018453,-0.20047,2.6652,-0.31471,-1.8834,2.68,0.76902,-3.304,-0.13227
-0.036495,-0.023044,0,0,0.063622,-0.04189,0.010749,-0.0081921,-0.01028,0.0053294,0.10178,-0.020351,0.070357,-0.021026,0.050705,-0.037405,-0.059143,-0.16347,-0.072569,-0.15678,0.00018418,-0.20062,2.6633,-0.31589,-1.883,2.6794,0.76934,-3.3048,-0.13278
-0.036495,-0.023044,0,0,0.063608,-0.041967,0.010734,-0.0082119,-0.01027,0.0053484,0.10176,-0.020417,0.070336,-0.021101,0.050693,-0.037472,-0.05912,-0.16359,-0.072542,-0.15689,0.00018383,-0.20077,2.6615,-0.31706,-1.8827,2.6788,0.76966,-3.3056,-0.13329
-0.036495,-0.023044,0,0,0.063593,-0.042045,0.010719,-0.0082318,-0.01026,0.0053674,0.10174,-0.020482,0.070315,-0.021177,0.050682,-0.03754,-0.059097,-0.1637,-0.072514,-0.157,0.00018346,-0.20093,2.6596,-0.31824,-1.8824,2.6781,0.76999,-3.3064,-0.13379
-0.036495,-0.023044,0,0,0.063578,-0.042123,0.010703,-0.0082516,-0.01025,0.0053863,0.10171,-0.020548,0.070294,-0.021252,0.050671,-0.037607,-0.059074,-0.16382,-0.072487,-0.1571,0.00018309,-0.20108,2.6578,-0.31941,-1.8821,2.6775,0.77031,-3.3071,-0.1343
-0.036495,-0.023044,0,0,0.063563,-0.0422,0.010688,-0.0082714,-0.01024,0.0054053,0.10169,-0.020614,0.070273,-0.021328,0.05066,-0.037675,-0.059051,-0.16393,-0.07246,-0.15721,0.00018272,-0.20123,2.6559,-0.32058,-1.8818,2.6769,0.77063,-3.3079,-0.1348
-0.036495,-0.023044,0,0,0.063548,-0.042277,0.010673,-0.0082911,-0.01023,0.0054242,0.10167,-0.020679,0.070251,-0.021403,0.050648,-0.037742,-0.059028,-0.16405,-0.072433,-0.15732,0.00018233,-0.20138,2.6541,-0.32175,-1.8815,2.6763,0.77095,-3.3087,-0.1353
-0.036495,-0.023044,0,0,0.063534,-0.042355,0.010657,-0.0083108,-0.01022,0.0054431,0.10165,-0.020744,0.07023,-0.021478,0.050637,-0.037809,-0.059005,-0.16416,-0.072406,-0.15742,0.00018194,-0.20154,2.6522,-0.32292,-1.8812,2.6756,0.77127,-3.3095,-0.1358
-0.036495,-0.023044,0,0,0.063519,-0.042432,0.010642,-0.0083305,-0.01021,0.005462,0.10163,-0.02081,0.070208,-0.021553,0.050626,-0.037876,-0.058982,-0.16428,-0.072379,-0.15753,0.00018154,-0.20169,2.6504,-0.32408,-1.8809,2.675,0.7716,-3.3102,-0.1363
-0.036495,-0.023044,0,0,0.063504,-0.042509,0.010627,-0.0083502,-0.0102,0.0054809,0.10161,-0.020875,0.070187,-0.021628,0.050614,-0.037944,-0.058959,-0.16439,-0.072352,-0.15764,0.00018114,-0.20184,2.6485,-0.32525,-1.8806,2.6744,0.77192,-3.311,-0.1368
-0.036495,-0.023044,0,0,0.063489,-0.042585,0.010611,-0.0083698,-0.01019,0.0054998,0.10158,-0.02094,0.070166,-0.021703,0.050603,-0.03801,-0.058936,-0.16451,-0.072324,-0.15774,0.00018073,-0.20199,2.6467,-0.32642,-1.8802,2.6738,0.77224,-3.3118,-0.1373
-0.036495,-0.023044,0,0,0.063474,-0.042662,0.010596,-0.0083895,-0.01018,0.0055186,0.10156,-0.021005,0.070144,-0.021777,0.050591,-0.038077,-0.058913,-0.16462,-0.072297,-0.15785,0.00018031,-0.20214,2.6448,-0.32758,-1.8799,2.6731,0.77256,-3.3125,-0.1378
-0.036495,-0.023044,0,0,0.063459,-0.042739,0.01058,-0.008409,-0.010169,0.0055374,0.10154,-0.021069,0.070122,-0.021852,0.05058,-0.038144,-0.058891,-0.16474,-0.07227,-0.15796,0.00017988,-0.2023,2.643,-0.32874,-1.8796,2.6725,0.77289,-3.3133,-0.1383
-0.036495,-0.023044,0,0,0.063444,-0.042815,0.010565,-0.0084286,-0.010159,0.0055562,0.10152,-0.021134,0.070101,-0.021926,0.050568,-0.038211,-0.058868,-0.16485,-0.072243,-0.15806,0.00017945,-0.20245,2.6411,-0.3299,-1.8793,2.6719,0.77321,-3.3141,-0.13879
-0.036495,-0.023044,0,0,0.063428,-0.042892,0.010549,-0.0084481,-0.010149,0.005575,0.1015,-0.021199,0.070079,-0.022001,0.050556,-0.038277,-0.058845,-0.16497,-0.072216,-0.15817,0.00017901,-0.2026,2.6393,-0.33107,-1.879,2.6713,0.77353,-3.3148,-0.13929
-0.036495,-0.023044,0,0,0.063413,-0.042968,0.010533,-0.0084676,-0.010139,0.0055937,0.10148,-0.021263,0.070057,-0.022075,0.050545,-0.038344,-0.058822,-0.16508,-0.072189,-0.15828,0.00017856,-0.20275,2.6374,-0.33223,-1.8787,2.6707,0.77385,-3.3156,-0.13978
-0.036495,-0.023044,0,0,0.063398,-0.043044,0.010518,-0.0084871,-0.010128,0.0056125,0.10145,-0.021328,0.070036,-0.022149,0.050533,-0.03841,-0.058799,-0.1652,-0.072162,-0.15838,0.00017811,-0.2029,2.6356,-0.33338,-1.8784,2.67,0.77418,-3.3164,-0.14028
-0.036495,-0.023044,0,0,0.063383,-0.043121,0.010502,-0.0085065,-0.010118,0.0056312,0.10143,-0.021392,0.070014,-0.022223,0.050521,-0.038477,-0.058776,-0.16531,-0.072135,-0.15849,0.00017765,-0.20305,2.6337,-0.33454,-1.8781,2.6694,0.7745,-3.3171,-0.14077
-0.036495,-0.023044,0,0,0.063367,-0.043197,0.010486,-0.0085259,-0.010107,0.0056499,0.10141,-0.021456,0.069992,-0.022297,0.050509,-0.038543,-0.058753,-0.16542,-0.072108,-0.15859,0.00017718,-0.2032,2.6319,-0.3357,-1.8778,2.6688,0.77483,-3.3179,-0.14126
-0.036495,-0.023044,0,0,0.063352,-0.043273,0.01047,-0.0085453,-0.010097,0.0056686,0.10139,-0.02152,0.06997,-0.022371,0.050498,-0.038609,-0.05873,-0.16554,-0.072081,-0.1587,0.0001767,-0.20335,2.63,-0.33685,-1.8774,2.6682,0.77515,-3.3186,-0.14175
-0.036495,-0.023044,0,0,0.063337,-0.043348,0.010455,-0.0085647,-0.010086,0.0056873,0.10136,-0.021584,0.069948,-0.022445,0.050486,-0.038675,-0.058708,-0.16565,-0.072054,-0.15881,0.00017622,-0.2035,2.6282,-0.33801,-1.8771,2.6676,0.77547,-3.3194,-0.14224
-0.036495,-0.023044,0,0,0.063321,-0.043424,0.010439,-0.008584,-0.010076,0.0057059,0.10134,-0.021648,0.069926,-0.022518,0.050474,-0.038741,-0.058685,-0.16577,-0.072026,-0.15891,0.00017573,-0.20365,2.6263,-0.33916,-1.8768,2.667,0.7758,-3.3202,-0.14273
-0.036495,-0.023044,0,0,0.063306,-0.0435,0.010423,-0.0086033,-0.010065,0.0057245,0.10132,-0.021712,0.069904,-0.022592,0.050462,-0.038807,-0.058662,-0.16588,-0.071999,-0.15902,0.00017524,-0.2038,2.6245,-0.34032,-1.8765,2.6663,0.77612,-3.3209,-0.14322
-0.036495,-0.023044,0,0,0.06329,-0.043575,0.010407,-0.0086225,-0.010055,0.0057431,0.1013,-0.021775,0.069882,-0.022666,0.05045,-0.038873,-0.058639,-0.16599,-0.071972,-0.15912,0.00017474,-0.20395,2.6226,-0.34147,-1.8762,2.6657,0.77645,-3.3217,-0.14371
-0.036495,-0.023044,0,0,0.063275,-0.043651,0.010391,-0.0086418,-0.010044,0.0057617,0.10128,-0.021839,0.06986,-0.022739,0.050438,-0.038939,-0.058616,-0.16611,-0.071945,-0.15923,0.00017423,-0.2041,2.6208,-0.34262,-1.8759,2.6651,0.77677,-3.3224,-0.1442
-0.036495,-0.023044,0,0,0.063259,-0.043726,0.010375,-0.008661,-0.010033,0.0057803,0.10125,-0.021902,0.069838,-0.022812,0.050426,-0.039004,-0.058594,-0.16622,-0.071918,-0.15933,0.00017371,-0.20425,2.6189,-0.34377,-1.8756,2.6645,0.77709,-3.3232,-0.14469
-0.036495,-0.023044,0,0,0.063243,-0.043801,0.010359,-0.0086801,-0.010023,0.0057988,0.10123,-0.021966,0.069816,-0.022885,0.050414,-0.03907,-0.058571,-0.16633,-0.071891,-0.15944,0.00017319,-0.2044,2.6171,-0.34492,-1.8753,2.6639,0.77742,-3.3239,-0.14517
-0.036495,-0.023044,0,0,0.063228,-0.043877,0.010343,-0.0086993,-0.010012,0.0058174,0.10121,-0.022029,0.069793,-0.022959,0.050402,-0.039135,-0.058548,-0.16645,-0.071864,-0.15954,0.00017266,-0.20455,2.6152,-0.34607,-1.8749,2.6633,0.77774,-3.3247,-0.14566
-0.036495,-0.023044,0,0,0.063212,-0.043952,0.010327,-0.0087184,-0.010001,0.0058359,0.10119,-0.022092,0.069771,-0.023032,0.05039,-0.039201,-0.058525,-0.16656,-0.071837,-0.15965,0.00017213,-0.2047,2.6134,-0.34721,-1.8746,2.6627,0.77807,-3.3254,-0.14614
-0.036495,-0.023044,0,0,0.063196,-0.044027,0.01031,-0.0087375,-0.0099903,0.0058544,0.10116,-0.022155,0.069749,-0.023104,0.050377,-0.039266,-0.058502,-0.16667,-0.07181,-0.15975,0.00017158,-0.20485,2.6115,-0.34836,-1.8743,2.6621,0.7784,-3.3262,-0.14663
-0.036495,-0.023044,0,0,0.06318,-0.044102,0.010294,-0.0087565,-0.0099795,0.0058728,0.10114,-0.022218,0.069726,-0.023177,0.050365,-0.039331,-0.05848,-0.16679,-0.071783,-0.15986,0.00017104,-0.205,2.6097,-0.3495,-1.874,2.6614,0.77872,-3.3269,-0.14711
-0.036495,-0.023044,0,0,0.063165,-0.044176,0.010278,-0.0087756,-0.0099686,0.0058913,0.10112,-0.022281,0.069704,-0.02325,0.050353,-0.039397,-0.058457,-0.1669,-0.071756,-0.15996,0.00017048,-0.20515,2.6078,-0.35065,-1.8737,2.6608,0.77905,-3.3277,-0.14759
-0.036495,-0.023044,0,0,0.063149,-0.044251,0.010262,-0.0087946,-0.0099577,0.0059097,0.10109,-0.022344,0.069682,-0.023323,0.050341,-0.039462,-0.058434,-0.16701,-0.071729,-0.16007,0.00016992,-0.2053,2.606,-0.35179,-1.8734,2.6602,0.77937,-3.3284,-0.14807
-0.036495,-0.023044,0,0,0.063133,-0.044326,0.010246,-0.0088135,-0.0099467,0.0059281,0.10107,-0.022406,0.069659,-0.023395,0.050328,-0.039527,-0.058411,-0.16713,-0.071702,-0.16017,0.00016935,-0.20544,2.6041,-0.35293,-1.873,2.6596,0.7797,-3.3292,-0.14855
-0.036495,-0.023044,0,0,0.063117,-0.0444,0.010229,-0.0088325,-0.0099357,0.0059465,0.10105,-0.022469,0.069637,-0.023468,0.050316,-0.039592,-0.058388,-0.16724,-0.071675,-0.16028,0.00016878,-0.20559,2.6023,-0.35408,-1.8727,2.659,0.78002,-3.3299,-0.14903
-0.036495,-0.023044,0,0,0.063101,-0.044475,0.010213,-0.0088514,-0.0099247,0.0059649,0.10103,-0.022531,0.069614,-0.02354,0.050304,-0.039657,-0.058366,-0.16735,-0.071648,-0.16038,0.00016819,-0.20574,2.6004,-0.35522,-1.8724,2.6584,0.78035,-3.3307,-0.14951
-0.036495,-0.023044,0,0,0.063085,-0.044549,0.010197,-0.0088702,-0.0099137,0.0059832,0.101,-0.022594,0.069591,-0.023612,0.050291,-0.039721,-0.058343,-0.16747,-0.071621,-0.16049,0.00016761,-0.20589,2.5986,-0.35636,-1.8721,2.6578,0.78068,-3.3314,-0.14999
-0.036495,-0.023044,0,0,0.063069,-0.044623,0.01018,-0.0088891,-0.0099026,0.0060015,0.10098,-0.022656,0.069569,-0.023685,0.050279,-0.039786,-0.05832,-0.16758,-0.071594,-0.16059,0.00016701,-0.20604,2.5967,-0.3575,-1.8718,2.6572,0.781,-3.3322,-0.15047
-0.036495,-0.023044,0,0,0.063053,-0.044697,0.010164,-0.0089079,-0.0098915,0.0060198,0.10096,-0.022718,0.069546,-0.023757,0.050266,-0.039851,-0.058297,-0.16769,-0.071567,-0.1607,0.00016641,-0.20619,2.5949,-0.35863,-1.8715,2.6566,0.78133,-3.3329,-0.15095
-0.036495,-0.023044,0,0,0.063037,-0.044772,0.010147,-0.0089267,-0.0098803,0.0060381,0.10093,-0.02278,0.069523,-0.023829,0.050254,-0.039915,-0.058275,-0.1678,-0.07154,-0.1608,0.00016581,-0.20633,2.593,-0.35977,-1.8712,2.656,0.78166,-3.3337,-0.15143
-0.036495,-0.023044,0,0,0.06302,-0.044846,0.010131,-0.0089454,-0.0098691,0.0060564,0.10091,-0.022842,0.0695,-0.023901,0.050241,-0.03998,-0.058252,-0.16792,-0.071513,-0.16091,0.00016519,-0.20648,2.5912,-0.36091,-1.8708,2.6554,0.78198,-3.3344,-0.1519
-0.036495,-0.023044,0,0,0.063004,-0.044919,0.010114,-0.0089641,-0.0098579,0.0060746,0.10089,-0.022904,0.069478,-0.023973,0.050229,-0.040044,-0.058229,-0.16803,-0.071486,-0.16101,0.00016457,-0.20663,2.5893,-0.36204,-1.8705,2.6548,0.78231,-3.3352,-0.15238
-0.036495,-0.023044,0,0,0.062988,-0.044993,0.010097,-0.0089828,-0.0098467,0.0060929,0.10086,-0.022966,0.069455,-0.024044,0.050216,-0.040109,-0.058207,-0.16814,-0.071459,-0.16111,0.00016395,-0.20678,2.5875,-0.36318,-1.8702,2.6542,0.78264,-3.3359,-0.15285
-0.036495,-0.023044,0,0,0.062972,-0.045067,0.010081,-0.0090015,-0.0098354,0.0061111,0.10084,-0.023028,0.069432,-0.024116,0.050203,-0.040173,-0.058184,-0.16825,-0.071432,-0.16122,0.00016331,-0.20692,2.5856,-0.36431,-1.8699,2.6535,0.78297,-3.3366,-0.15333
-0.036495,-0.023044,0,0,0.062955,-0.045141,0.010064,-0.0090201,-0.0098241,0.0061292,0.10082,-0.023089,0.069409,-0.024188,0.050191,-0.040237,-0.058161,-0.16836,-0.071405,-0.16132,0.00016268,-0.20707,2.5838,-0.36544,-1.8696,2.6529,0.78329,-3.3374,-0.1538
-0.036495,-0.023044,0,0,0.062939,-0.045214,0.010047,-0.0090387,-0.0098127,0.0061474,0.10079,-0.023151,0.069386,-0.024259,0.050178,-0.040301,-0.058138,-0.16848,-0.071378,-0.16143,0.00016203,-0.20722,2.5819,-0.36658,-1.8693,2.6523,0.78362,-3.3381,-0.15428
-0.036495,-0.023044,0,0,0.062922,-0.045288,0.010031,-0.0090573,-0.0098013,0.0061655,0.10077,-0.023213,0.069363,-0.024331,0.050165,-0.040365,-0.058116,-0.16859,-0.071351,-0.16153,0.00016138,-0.20737,2.5801,-0.36771,-1.8689,2.6517,0.78395,-3.3389,-0.15475
-0.036495,-0.023044,0,0,0.062906,-0.045361,0.010014,-0.0090758,-0.0097899,0.0061837,0.10075,-0.023274,0.06934,-0.024402,0.050152,-0.040429,-0.058093,-0.1687,-0.071324,-0.16163,0.00016072,-0.20751,2.5782,-0.36884,-1.8686,2.6511,0.78428,-3.3396,-0.15522
-0.036495,-0.023044,0,0,0.06289,-0.045434,0.0099971,-0.0090943,-0.0097784,0.0062018,0.10072,-0.023335,0.069316,-0.024473,0.050139,-0.040493,-0.05807,-0.16881,-0.071298,-0.16174,0.00016006,-0.20766,2.5764,-0.36997,-1.8683,2.6505,0.78461,-3.3403,-0.15569
-0.036495,-0.023044,0,0,0.062873,-0.045508,0.0099803,-0.0091128,-0.009767,0.0062198,0.1007,-0.023396,0.069293,-0.024544,0.050126,-0.040557,-0.058048,-0.16892,-0.071271,-0.16184,0.00015939,-0.20781,2.5745,-0.3711,-1.868,2.6499,0.78494,-3.3411,-0.15616
-0.036495,-0.023044,0,0,0.062856,-0.045581,0.0099634,-0.0091313,-0.0097554,0.0062379,0.10068,-0.023458,0.06927,-0.024616,0.050114,-0.040621,-0.058025,-0.16903,-0.071244,-0.16195,0.00015872,-0.20795,2.5727,-0.37222,-1.8677,2.6493,0.78526,-3.3418,-0.15664
-0.036495,-0.023044,0,0,0.06284,-0.045654,0.0099465,-0.0091497,-0.0097439,0.0062559,0.10065,-0.023519,0.069247,-0.024687,0.050101,-0.040684,-0.058002,-0.16915,-0.071217,-0.16205,0.00015803,-0.2081,2.5708,-0.37335,-1.8673,2.6487,0.78559,-3.3425,-0.1571
-0.036495,-0.023044,0,0,0.062823,-0.045727,0.0099296,-0.009168,-0.0097323,0.0062739,0.10063,-0.02358,0.069223,-0.024758,0.050088,-0.040748,-0.057979,-0.16926,-0.07119,-0.16215,0.00015735,-0.20824,2.569,-0.37448,-1.867,2.6481,0.78592,-3.3433,-0.15757
-0.036495,-0.023044,0,0,0.062807,-0.0458,0.0099126,-0.0091864,-0.0097207,0.0062919,0.10061,-0.02364,0.0692,-0.024828,0.050075,-0.040812,-0.057957,-0.16937,-0.071163,-0.16226,0.00015665,-0.20839,2.5671,-0.3756,-1.8667,2.6475,0.78625,-3.344,-0.15804
-0.036495,-0.023044,0,0,0.06279,-0.045873,0.0098956,-0.0092047,-0.009709,0.0063099,0.10058,-0.023701,0.069177,-0.024899,0.050062,-0.040875,-0.057934,-0.16948,-0.071136,-0.16236,0.00015596,-0.20854,2.5653,-0.37673,-1.8664,2.6469,0.78658,-3.3448,-0.15851
-0.036495,-0.023044,0,0,0.062773,-0.045945,0.0098786,-0.009223,-0.0096973,0.0063278,0.10056,-0.023762,0.069153,-0.02497,0.050048,-0.040939,-0.057911,-0.16959,-0.071109,-0.16246,0.00015525,-0.20868,2.5634,-0.37785,-1.8661,2.6463,0.78691,-3.3455,-0.15898
-0.036495,-0.023044,0,0,0.062756,-0.046018,0.0098615,-0.0092413,-0.0096856,0.0063458,0.10053,-0.023822,0.06913,-0.025041,0.050035,-0.041002,-0.057889,-0.1697,-0.071082,-0.16257,0.00015454,-0.20883,2.5616,-0.37898,-1.8658,2.6457,0.78724,-3.3462,-0.15945
-0.036495,-0.023044,0,0,0.062739,-0.046091,0.0098444,-0.0092595,-0.0096739,0.0063637,0.10051,-0.023883,0.069106,-0.025111,0.050022,-0.041065,-0.057866,-0.16981,-0.071055,-0.16267,0.00015382,-0.20898,2.5597,-0.3801,-1.8654,2.6451,0.78757,-3.3469,-0.15991
-0.036495,-0.023044,0,0,0.062723,-0.046163,0.0098272,-0.0092777,-0.0096621,0.0063815,0.10049,-0.023943,0.069083,-0.025182,0.050009,-0.041128,-0.057843,-0.16993,-0.071028,-0.16277,0.0001531,-0.20912,2.5579,-0.38122,-1.8651,2.6445,0.7879,-3.3477,-0.16038
-0.036495,-0.023044,0,0,0.062706,-0.046236,0.0098101,-0.0092958,-0.0096503,0.0063994,0.10046,-0.024004,0.069059,-0.025252,0.049996,-0.041192,-0.057821,-0.17004,-0.071001,-0.16288,0.00015237,-0.20927,2.556,-0.38234,-1.8648,2.6439,0.78823,-3.3484,-0.16084
-0.036495,-0.023044,0,0,0.062689,-0.046308,0.0097929,-0.009314,-0.0096384,0.0064172,0.10044,-0.024064,0.069035,-0.025322,0.049983,-0.041255,-0.057798,-0.17015,-0.070974,-0.16298,0.00015164,-0.20941,2.5542,-0.38346,-1.8645,2.6433,0.78856,-3.3491,-0.16131
-0.036495,-0.023044,0,0,0.062672,-0.04638,0.0097756,-0.0093321,-0.0096265,0.006435,0.10041,-0.024124,0.069012,-0.025393,0.049969,-0.041318,-0.057775,-0.17026,-0.070947,-0.16308,0.0001509,-0.20956,2.5523,-0.38458,-1.8642,2.6428,0.78889,-3.3499,-0.16177
-0.036495,-0.023044,0,0,0.062655,-0.046452,0.0097583,-0.0093501,-0.0096146,0.0064528,0.10039,-0.024184,0.068988,-0.025463,0.049956,-0.041381,-0.057753,-0.17037,-0.07092,-0.16318,0.00015015,-0.2097,2.5505,-0.3857,-1.8638,2.6422,0.78922,-3.3506,-0.16224
-0.036495,-0.023044,0,0,0.062638,-0.046525,0.009741,-0.0093682,-0.0096026,0.0064706,0.10037,-0.024244,0.068964,-0.025533,0.049943,-0.041444,-0.05773,-0.17048,-0.070893,-0.16329,0.0001494,-0.20985,2.5486,-0.38682,-1.8635,2.6416,0.78955,-3.3513,-0.1627
-0.036495,-0.023044,0,0,0.062621,-0.046597,0.0097237,-0.0093862,-0.0095907,0.0064884,0.10034,-0.024304,0.06894,-0.025603,0.049929,-0.041506,-0.057707,-0.17059,-0.070866,-0.16339,0.00014864,-0.20999,2.5468,-0.38794,-1.8632,2.641,0.78988,-3.352,-0.16316
-0.036495,-0.023044,0,0,0.062603,-0.046669,0.0097063,-0.0094041,-0.0095786,0.0065061,0.10032,-0.024364,0.068916,-0.025673,0.049916,-0.041569,-0.057685,-0.1707,-0.070839,-0.16349,0.00014788,-0.21014,2.5449,-0.38905,-1.8629,2.6404,0.79021,-3.3528,-0.16363
-0.036495,-0.023044,0,0,0.062586,-0.04674,0.0096889,-0.0094221,-0.0095666,0.0065238,0.10029,-0.024424,0.068892,-0.025743,0.049902,-0.041632,-0.057662,-0.17081,-0.070812,-0.1636,0.00014711,-0.21028,2.5431,-0.39017,-1.8626,2.6398,0.79055,-3.3535,-0.16409
-0.036495,-0.023044,0,0,0.062569,-0.046812,0.0096715,-0.00944,-0.0095545,0.0065415,0.10027,-0.024484,0.068868,-0.025812,0.049889,-0.041694,-0.057639,-0.17092,-0.070785,-0.1637,0.00014634,-0.21043,2.5412,-0.39128,-1.8622,2.6392,0.79088,-3.3542,-0.16455
-0.036495,-0.023044,0,0,0.062552,-0.046884,0.009654,-0.0094578,-0.0095424,0.0065591,0.10024,-0.024543,0.068845,-0.025882,0.049875,-0.041757,-0.057617,-0.17103,-0.070759,-0.1638,0.00014556,-0.21057,2.5394,-0.3924,-1.8619,2.6386,0.79121,-3.3549,-0.16501
-0.036495,-0.023044,0,0,0.062535,-0.046956,0.0096365,-0.0094757,-0.0095302,0.0065768,0.10022,-0.024603,0.06882,-0.025952,0.049862,-0.041819,-0.057594,-0.17114,-0.070732,-0.1639,0.00014478,-0.21072,2.5375,-0.39351,-1.8616,2.638,0.79154,-3.3557,-0.16547
-0.036495,-0.023044,0,0,0.062517,-0.047027,0.0096189,-0.0094935,-0.0095181,0.0065944,0.1002,-0.024662,0.068796,-0.026021,0.049848,-0.041882,-0.057571,-0.17125,-0.070705,-0.16401,0.00014399,-0.21086,2.5357,-0.39463,-1.8613,2.6374,0.79187,-3.3564,-0.16593
-0.036495,-0.023044,0,0,0.0625,-0.047099,0.0096013,-0.0095113,-0.0095059,0.006612,0.10017,-0.024722,0.068772,-0.026091,0.049834,-0.041944,-0.057549,-0.17136,-0.070678,-0.16411,0.00014319,-0.21101,2.5338,-0.39574,-1.8609,2.6368,0.79221,-3.3571,-0.16639
-0.036495,-0.023044,0,0,0.062483,-0.04717,0.0095837,-0.009529,-0.0094936,0.0066296,0.10015,-0.024781,0.068748,-0.02616,0.049821,-0.042007,-0.057526,-0.17147,-0.070651,-0.16421,0.00014239,-0.21115,2.532,-0.39685,-1.8606,2.6362,0.79254,-3.3578,-0.16685
-0.036495,-0.023044,0,0,0.062465,-0.047242,0.0095661,-0.0095467,-0.0094813,0.0066471,0.10012,-0.02484,0.068724,-0.02623,0.049807,-0.042069,-0.057503,-0.17158,-0.070624,-0.16431,0.00014159,-0.21129,2.5301,-0.39796,-1.8603,2.6356,0.79287,-3.3586,-0.16731
-0.036495,-0.023044,0,0,0.062448,-0.047313,0.0095484,-0.0095644,-0.009469,0.0066646,0.1001,-0.024899,0.0687,-0.026299,0.049793,-0.042131,-0.057481,-0.17169,-0.070597,-0.16442,0.00014078,-0.21144,2.5283,-0.39907,-1.86,2.635,0.7932,-3.3593,-0.16777
-0.036495,-0.023044,0,0,0.06243,-0.047384,0.0095307,-0.009582,-0.0094567,0.0066821,0.10007,-0.024959,0.068675,-0.026368,0.04978,-0.042193,-0.057458,-0.1718,-0.07057,-0.16452,0.00013996,-0.21158,2.5264,-0.40018,-1.8597,2.6345,0.79354,-3.36,-0.16822
-0.036495,-0.023044,0,0,0.062413,-0.047455,0.009513,-0.0095996,-0.0094443,0.0066996,0.10005,-0.025017,0.068651,-0.026437,0.049766,-0.042255,-0.057435,-0.17191,-0.070543,-0.16462,0.00013914,-0.21173,2.5246,-0.40129,-1.8593,2.6339,0.79387,-3.3607,-0.16868
-0.036495,-0.023044,0,0,0.062395,-0.047526,0.0094952,-0.0096172,-0.0094319,0.0067171,0.10002,-0.025076,0.068627,-0.026506,0.049752,-0.042317,-0.057413,-0.17202,-0.070516,-0.16472,0.00013831,-0.21187,2.5227,-0.4024,-1.859,2.6333,0.7942,-3.3614,-0.16914
-0.036495,-0.023044,0,0,0.062377,-0.047597,0.0094774,-0.0096348,-0.0094195,0.0067345,0.099998,-0.025135,0.068602,-0.026575,0.049738,-0.042379,-0.05739,-0.17213,-0.070489,-0.16482,0.00013748,-0.21201,2.5209,-0.4035,-1.8587,2.6327,0.79454,-3.3622,-0.16959
-0.036495,-0.023044,0,0,0.06236,-0.047668,0.0094596,-0.0096523,-0.009407,0.0067519,0.099973,-0.025194,0.068578,-0.026644,0.049724,-0.042441,-0.057367,-0.17224,-0.070462,-0.16493,0.00013664,-0.21216,2.5191,-0.40461,-1.8584,2.6321,0.79487,-3.3629,-0.17005
-0.036495,-0.023044,0,0,0.062342,-0.047739,0.0094417,-0.0096698,-0.0093945,0.0067693,0.099948,-0.025253,0.068553,-0.026713,0.04971,-0.042503,-0.057345,-0.17235,-0.070435,-0.16503,0.0001358,-0.2123,2.5172,-0.40572,-1.858,2.6315,0.7952,-3.3636,-0.1705
-0.036495,-0.023044,0,0,0.062324,-0.04781,0.0094238,-0.0096872,-0.0093819,0.0067867,0.099923,-0.025311,0.068529,-0.026782,0.049696,-0.042564,-0.057322,-0.17246,-0.070408,-0.16513,0.00013495,-0.21244,2.5154,-0.40682,-1.8577,2.6309,0.79554,-3.3643,-0.17096
-0.036495,-0.023044,0,0,0.062307,-0.047881,0.0094059,-0.0097046,-0.0093694,0.006804,0.099898,-0.02537,0.068504,-0.026851,0.049682,-0.042626,-0.0573,-0.17257,-0.070381,-0.16523,0.0001341,-0.21259,2.5135,-0.40793,-1.8574,2.6303,0.79587,-3.365,-0.17141
-0.036495,-0.023044,0,0,0.062289,-0.047951,0.0093879,-0.009722,-0.0093568,0.0068213,0.099873,-0.025428,0.06848,-0.026919,0.049668,-0.042688,-0.057277,-0.17268,-0.070354,-0.16533,0.00013325,-0.21273,2.5117,-0.40903,-1.8571,2.6297,0.79621,-3.3657,-0.17187
-0.036495,-0.023044,0,0,0.062271,-0.048022,0.0093699,-0.0097393,-0.0093441,0.0068386,0.099848,-0.025487,0.068455,-0.026988,0.049654,-0.042749,-0.057254,-0.17279,-0.070327,-0.16543,0.00013238,-0.21287,2.5098,-0.41013,-1.8567,2.6292,0.79654,-3.3665,-0.17232
-0.036495,-0.023044,0,0,0.062253,-0.048092,0.0093519,-0.0097567,-0.0093315,0.0068559,0.099823,-0.025545,0.06843,-0.027056,0.04964,-0.042811,-0.057232,-0.1729,-0.0703,-0.16554,0.00013152,-0.21302,2.508,-0.41124,-1.8564,2.6286,0.79687,-3.3672,-0.17277
-0.036495,-0.023044,0,0,0.062235,-0.048163,0.0093338,-0.0097739,-0.0093188,0.0068731,0.099797,-0.025603,0.068406,-0.027125,0.049626,-0.042872,-0.057209,-0.17301,-0.070273,-0.16564,0.00013065,-0.21316,2.5061,-0.41234,-1.8561,2.628,0.79721,-3.3679,-0.17323
-0.036495,-0.023044,0,0,0.062217,-0.048233,0.0093157,-0.0097912,-0.0093061,0.0068904,0.099772,-0.025661,0.068381,-0.027193,0.049612,-0.042934,-0.057186,-0.17312,-0.070246,-0.16574,0.00012977,-0.2133,2.5043,-0.41344,-1.8558,2.6274,0.79754,-3.3686,-0.17368
-0.036495,-0.023044,0,0,0.062199,-0.048304,0.0092976,-0.0098084,-0.0092933,0.0069076,0.099747,-0.02572,0.068356,-0.027261,0.049598,-0.042995,-0.057164,-0.17323,-0.070219,-0.16584,0.00012889,-0.21344,2.5024,-0.41454,-1.8554,2.6268,0.79788,-3.3693,-0.17413
-0.036495,-0.023044,0,0,0.062181,-0.048374,0.0092794,-0.0098256,-0.0092805,0.0069247,0.099721,-0.025778,0.068331,-0.02733,0.049583,-0.043056,-0.057141,-0.17333,-0.070193,-0.16594,0.000128,-0.21359,2.5006,-0.41564,-1.8551,2.6262,0.79821,-3.37,-0.17458
-0.036495,-0.023044,0,0,0.062163,-0.048444,0.0092613,-0.0098427,-0.0092677,0.0069419,0.099696,-0.025836,0.068306,-0.027398,0.049569,-0.043117,-0.057118,-0.17344,-0.070166,-0.16604,0.00012711,-0.21373,2.4987,-0.41674,-1.8548,2.6256,0.79855,-3.3707,-0.17503
-0.036495,-0.023044,0,0,0.062145,-0.048514,0.009243,-0.0098598,-0.0092548,0.006959,0.099671,-0.025893,0.068281,-0.027466,0.049555,-0.043179,-0.057096,-0.17355,-0.070139,-0.16614,0.00012622,-0.21387,2.4969,-0.41784,-1.8545,2.6251,0.79888,-3.3714,-0.17548
-0.036495,-0.023044,0,0,0.062127,-0.048584,0.0092248,-0.0098769,-0.0092419,0.0069761,0.099645,-0.025951,0.068256,-0.027534,0.049541,-0.04324,-0.057073,-0.17366,-0.070112,-0.16625,0.00012532,-0.21401,2.495,-0.41894,-1.8541,2.6245,0.79922,-3.3721,-0.17593
-0.036495,-0.023044,0,0,0.062109,-0.048654,0.0092065,-0.009894,-0.009229,0.0069932,0.09962,-0.026009,0.068231,-0.027602,0.049526,-0.043301,-0.05705,-0.17377,-0.070085,-0.16635,0.00012442,-0.21416,2.4932,-0.42004,-1.8538,2.6239,0.79956,-3.3729,-0.17638
-0.036495,-0.023044,0,0,0.062091,-0.048724,0.0091882,-0.009911,-0.0092161,0.0070103,0.099594,-0.026067,0.068206,-0.02767,0.049512,-0.043362,-0.057028,-0.17388,-0.070058,-0.16645,0.00012351,-0.2143,2.4913,-0.42113,-1.8535,2.6233,0.79989,-3.3736,-0.17683
-0.036495,-0.023044,0,0,0.062073,-0.048794,0.0091698,-0.0099279,-0.0092031,0.0070273,0.099568,-0.026124,0.068181,-0.027738,0.049497,-0.043423,-0.057005,-0.17399,-0.070031,-0.16655,0.00012259,-0.21444,2.4895,-0.42223,-1.8532,2.6227,0.80023,-3.3743,-0.17728
-0.036495,-0.023044,0,0,0.062054,-0.048863,0.0091515,-0.0099449,-0.0091901,0.0070443,0.099543,-0.026182,0.068156,-0.027805,0.049483,-0.043484,-0.056982,-0.1741,-0.070004,-0.16665,0.00012168,-0.21458,2.4876,-0.42333,-1.8528,2.6221,0.80057,-3.375,-0.17773
-0.036495,-0.023044,0,0,0.062036,-0.048933,0.009133,-0.0099618,-0.009177,0.0070613,0.099517,-0.026239,0.068131,-0.027873,0.049469,-0.043544,-0.05696,-0.17421,-0.069977,-0.16675,0.00012076,-0.21472,2.4858,-0.42442,-1.8525,2.6216,0.8009,-3.3757,-0.17818
-0.036495,-0.023044,0,0,0.062018,-0.049003,0.0091146,-0.0099787,-0.009164,0.0070782,0.099491,-0.026296,0.068106,-0.027941,0.049454,-0.043605,-0.056937,-0.17431,-0.06995,-0.16685,0.00011983,-0.21486,2.4839,-0.42552,-1.8522,2.621,0.80124,-3.3764,-0.17863
-0.036495,-0.023044,0,0,0.061999,-0.049072,0.0090961,-0.0099955,-0.0091508,0.0070952,0.099465,-0.026354,0.068081,-0.028008,0.049439,-0.043666,-0.056915,-0.17442,-0.069923,-0.16695,0.0001189,-0.21501,2.4821,-0.42661,-1.8519,2.6204,0.80158,-3.3771,-0.17908
-0.036495,-0.023044,0,0,0.061981,-0.049142,0.0090776,-0.010012,-0.0091377,0.0071121,0.09944,-0.026411,0.068055,-0.028076,0.049425,-0.043726,-0.056892,-0.17453,-0.069896,-0.16705,0.00011796,-0.21515,2.4802,-0.4277,-1.8515,2.6198,0.80191,-3.3778,-0.17952
-0.036495,-0.023044,0,0,0.061963,-0.049211,0.0090591,-0.010029,-0.0091245,0.007129,0.099414,-0.026468,0.06803,-0.028143,0.04941,-0.043787,-0.056869,-0.17464,-0.069869,-0.16716,0.00011702,-0.21529,2.4784,-0.4288,-1.8512,2.6192,0.80225,-3.3785,-0.17997
-0.036495,-0.023044,0,0,0.061944,-0.049281,0.0090405,-0.010046,-0.0091113,0.0071458,0.099388,-0.026525,0.068005,-0.028211,0.049396,-0.043847,-0.056847,-0.17475,-0.069842,-0.16726,0.00011608,-0.21543,2.4765,-0.42989,-1.8509,2.6187,0.80259,-3.3792,-0.18042
-0.036495,-0.023044,0,0,0.061926,-0.04935,0.0090219,-0.010063,-0.0090981,0.0071627,0.099362,-0.026582,0.067979,-0.028278,0.049381,-0.043908,-0.056824,-0.17486,-0.069815,-0.16736,0.00011513,-0.21557,2.4747,-0.43098,-1.8505,2.6181,0.80292,-3.3799,-0.18086
-0.036495,-0.023044,0,0,0.061907,-0.049419,0.0090033,-0.010079,-0.0090848,0.0071795,0.099336,-0.026639,0.067954,-0.028345,0.049366,-0.043968,-0.056801,-0.17496,-0.069788,-0.16746,0.00011418,-0.21571,2.4728,-0.43207,-1.8502,2.6175,0.80326,-3.3806,-0.18131
-0.036495,-0.023044,0,0,0.061889,-0.049488,0.0089847,-0.010096,-0.0090715,0.0071963,0.09931,-0.026696,0.067928,-0.028412,0.049352,-0.044029,-0.056779,-0.17507,-0.069761,-0.16756,0.00011323,-0.21585,2.471,-0.43316,-1.8499,2.6169,0.8036,-3.3813,-0.18175
-0.036495,-0.023044,0,0,0.06187,-0.049557,0.008966,-0.010112,-0.0090582,0.0072131,0.099284,-0.026753,0.067903,-0.028479,0.049337,-0.044089,-0.056756,-0.17518,-0.069734,-0.16766,0.00011227,-0.216,2.4691,-0.43425,-1.8496,2.6163,0.80394,-3.382,-0.1822
-0.036495,-0.023044,0,0,0.061851,-0.049626,0.0089472,-0.010129,-0.0090449,0.0072298,0.099258,-0.02681,0.067877,-0.028547,0.049322,-0.044149,-0.056733,-0.17529,-0.069707,-0.16776,0.0001113,-0.21614,2.4673,-0.43534,-1.8492,2.6158,0.80428,-3.3827,-0.18264
-0.036495,-0.023044,0,0,0.061833,-0.049695,0.0089285,-0.010146,-0.0090315,0.0072465,0.099231,-0.026866,0.067852,-0.028614,0.049307,-0.044209,-0.056711,-0.1754,-0.06968,-0.16786,0.00011033,-0.21628,2.4654,-0.43643,-1.8489,2.6152,0.80461,-3.3834,-0.18309
-0.036495,-0.023044,0,0,0.061814,-0.049764,0.0089097,-0.010162,-0.0090181,0.0072632,0.099205,-0.026923,0.067826,-0.02868,0.049292,-0.04427,-0.056688,-0.1755,-0.069653,-0.16796,0.00010936,-0.21642,2.4636,-0.43751,-1.8486,2.6146,0.80495,-3.3841,-0.18353
-0.036495,-0.023044,0,0,0.061795,-0.049833,0.0088909,-0.010178,-0.0090046,0.0072799,0.099179,-0.026979,0.0678,-0.028747,0.049277,-0.04433,-0.056665,-0.17561,-0.069626,-0.16806,0.00010839,-0.21656,2.4617,-0.4386,-1.8482,2.614,0.80529,-3.3848,-0.18398
-0.036495,-0.023044,0,0,0.061776,-0.049902,0.0088721,-0.010195,-0.0089911,0.0072965,0.099153,-0.027036,0.067775,-0.028814,0.049263,-0.04439,-0.056643,-0.17572,-0.069599,-0.16816,0.00010741,-0.2167,2.4599,-0.43969,-1.8479,2.6135,0.80563,-3.3855,-0.18442
-0.036495,-0.023044,0,0,0.061758,-0.049971,0.0088532,-0.010211,-0.0089776,0.0073131,0.099126,-0.027092,0.067749,-0.028881,0.049248,-0.04445,-0.05662,-0.17583,-0.069572,-0.16826,0.00010642,-0.21684,2.458,-0.44077,-1.8476,2.6129,0.80597,-3.3862,-0.18486
-0.036495,-0.023044,0,0,0.061739,-0.050039,0.0088343,-0.010228,-0.0089641,0.0073297,0.0991,-0.027149,0.067723,-0.028948,0.049233,-0.044509,-0.056597,-0.17593,-0.069545,-0.16836,0.00010544,-0.21698,2.4562,-0.44186,-1.8473,2.6123,0.80631,-3.3869,-0.18531
-0.036495,-0.023044,0,0,0.06172,-0.050108,0.0088154,-0.010244,-0.0089505,0.0073463,0.099074,-0.027205,0.067697,-0.029014,0.049218,-0.044569,-0.056575,-0.17604,-0.069518,-0.16846,0.00010445,-0.21712,2.4543,-0.44295,-1.8469,2.6117,0.80665,-3.3876,-0.18575
-0.036495,-0.023044,0,0,0.061701,-0.050176,0.0087964,-0.01026,-0.0089369,0.0073628,0.099047,-0.027261,0.067671,-0.029081,0.049203,-0.044629,-0.056552,-0.17615,-0.069491,-0.16856,0.00010345,-0.21726,2.4525,-0.44403,-1.8466,2.6111,0.80699,-3.3883,-0.18619
-0.036495,-0.023044,0,0,0.061682,-0.050245,0.0087774,-0.010277,-0.0089233,0.0073793,0.099021,-0.027317,0.067645,-0.029147,0.049187,-0.044689,-0.056529,-0.17626,-0.069463,-0.16866,0.00010245,-0.2174,2.4506,-0.44511,-1.8463,2.6106,0.80733,-3.389,-0.18663
-0.036495,-0.023044,0,0,0.061663,-0.050313,0.0087584,-0.010293,-0.0089096,0.0073958,0.098994,-0.027373,0.067619,-0.029214,0.049172,-0.044749,-0.056507,-0.17637,-0.069436,-0.16876,0.00010145,-0.21754,2.4488,-0.4462,-1.8459,2.61,0.80767,-3.3897,-0.18707
-0.036495,-0.023044,0,0,0.061644,-0.050382,0.0087393,-0.010309,-0.0088959,0.0074123,0.098967,-0.027429,0.067593,-0.02928,0.049157,-0.044808,-0.056484,-0.17647,-0.069409,-0.16886,0.00010045,-0.21768,2.4469,-0.44728,-1.8456,2.6094,0.80801,-3.3904,-0.18752
-0.036495,-0.023044,0,0,0.061625,-0.05045,0.0087203,-0.010325,-0.0088822,0.0074287,0.098941,-0.027485,0.067567,-0.029346,0.049142,-0.044868,-0.056461,-0.17658,-0.069382,-0.16896,9.9438e-05,-0.21782,2.4451,-0.44836,-1.8453,2.6088,0.80835,-3.3911,-0.18796
-0.036495,-0.023044,0,0,0.061606,-0.050518,0.0087011,-0.010341,-0.0088684,0.0074452,0.098914,-0.027541,0.067541,-0.029413,0.049127,-0.044927,-0.056439,-0.17669,-0.069355,-0.16906,9.8426e-05,-0.21796,2.4432,-0.44944,-1.8449,2.6083,0.80869,-3.3918,-0.1884
-0.036495,-0.023044,0,0,0.061587,-0.050586,0.008682,-0.010357,-0.0088547,0.0074616,0.098887,-0.027597,0.067515,-0.029479,0.049112,-0.044987,-0.056416,-0.17679,-0.069328,-0.16916,9.741e-05,-0.2181,2.4414,-0.45052,-1.8446,2.6077,0.80903,-3.3925,-0.18884
-0.036495,-0.023044,0,0,0.061568,-0.050654,0.0086628,-0.010373,-0.0088408,0.0074779,0.098861,-0.027653,0.067489,-0.029545,0.049096,-0.045046,-0.056393,-0.1769,-0.069301,-0.16926,9.6391e-05,-0.21824,2.4395,-0.4516,-1.8443,2.6071,0.80937,-3.3932,-0.18928
-0.036495,-0.023044,0,0,0.061549,-0.050722,0.0086436,-0.010389,-0.008827,0.0074943,0.098834,-0.027708,0.067463,-0.029611,0.049081,-0.045106,-0.056371,-0.17701,-0.069274,-0.16936,9.5368e-05,-0.21838,2.4377,-0.45268,-1.8439,2.6066,0.80971,-3.3939,-0.18972
-0.036495,-0.023044,0,0,0.061529,-0.05079,0.0086244,-0.010405,-0.0088131,0.0075106,0.098807,-0.027764,0.067437,-0.029677,0.049066,-0.045165,-0.056348,-0.17712,-0.069247,-0.16946,9.4343e-05,-0.21852,2.4358,-0.45376,-1.8436,2.606,0.81005,-3.3946,-0.19016
-0.036495,-0.023044,0,0,0.06151,-0.050858,0.0086051,-0.010421,-0.0087992,0.0075269,0.09878,-0.027819,0.06741,-0.029743,0.04905,-0.045224,-0.056325,-0.17722,-0.06922,-0.16956,9.3313e-05,-0.21866,2.434,-0.45484,-1.8433,2.6054,0.81039,-3.3953,-0.1906
-0.036495,-0.023044,0,0,0.061491,-0.050926,0.0085859,-0.010437,-0.0087853,0.0075431,0.098753,-0.027875,0.067384,-0.029809,0.049035,-0.045283,-0.056302,-0.17733,-0.069193,-0.16966,9.2281e-05,-0.2188,2.4321,-0.45592,-1.8429,2.6048,0.81073,-3.396,-0.19104
-0.036495,-0.023044,0,0,0.061471,-0.050994,0.0085665,-0.010453,-0.0087713,0.0075594,0.098726,-0.02793,0.067358,-0.029875,0.04902,-0.045343,-0.05628,-0.17744,-0.069166,-0.16976,9.1245e-05,-0.21894,2.4303,-0.457,-1.8426,2.6043,0.81108,-3.3967,-0.19147
-0.036495,-0.023044,0,0,0.061452,-0.051062,0.0085472,-0.010469,-0.0087573,0.0075756,0.098699,-0.027986,0.067331,-0.02994,0.049004,-0.045402,-0.056257,-0.17754,-0.069139,-0.16986,9.0207e-05,-0.21908,2.4284,-0.45808,-1.8423,2.6037,0.81142,-3.3974,-0.19191
-0.036495,-0.023044,0,0,0.061433,-0.051129,0.0085278,-0.010485,-0.0087433,0.0075917,0.098672,-0.028041,0.067305,-0.030006,0.048989,-0.045461,-0.056234,-0.17765,-0.069112,-0.16996,8.9165e-05,-0.21921,2.4266,-0.45915,-1.842,2.6031,0.81176,-3.398,-0.19235
-0.036495,-0.023044,0,0,0.061413,-0.051197,0.0085084,-0.0105,-0.0087292,0.0076079,0.098645,-0.028096,0.067279,-0.030072,0.048973,-0.04552,-0.056212,-0.17776,-0.069084,-0.17006,8.812e-05,-0.21935,2.4247,-0.46023,-1.8416,2.6025,0.8121,-3.3987,-0.19279
-0.036495,-0.023044,0,0,0.061394,-0.051264,0.008489,-0.010516,-0.0087151,0.007624,0.098618,-0.028151,0.067252,-0.030137,0.048958,-0.045579,-0.056189,-0.17786,-0.069057,-0.17016,8.7072e-05,-0.21949,2.4229,-0.4613,-1.8413,2.602,0.81244,-3.3994,-0.19323
-0.036495,-0.023044,0,0,0.061374,-0.051332,0.0084695,-0.010532,-0.008701,0.0076401,0.098591,-0.028206,0.067226,-0.030203,0.048942,-0.045638,-0.056166,-0.17797,-0.06903,-0.17026,8.6021e-05,-0.21963,2.421,-0.46238,-1.841,2.6014,0.81279,-3.4001,-0.19366
-0.036495,-0.023044,0,0,0.061355,-0.051399,0.00845,-0.010547,-0.0086869,0.0076562,0.098563,-0.028261,0.067199,-0.030268,0.048927,-0.045697,-0.056144,-0.17808,-0.069003,-0.17036,8.4967e-05,-0.21977,2.4192,-0.46345,-1.8406,2.6008,0.81313,-3.4008,-0.1941
-0.036495,-0.023044,0,0,0.061335,-0.051467,0.0084305,-0.010563,-0.0086727,0.0076723,0.098536,-0.028316,0.067172,-0.030334,0.048911,-0.045755,-0.056121,-0.17818,-0.068976,-0.17045,8.391e-05,-0.21991,2.4173,-0.46453,-1.8403,2.6003,0.81347,-3.4015,-0.19454
-0.036495,-0.023044,0,0,0.061316,-0.051534,0.0084109,-0.010579,-0.0086585,0.0076883,0.098509,-0.028371,0.067146,-0.030399,0.048895,-0.045814,-0.056098,-0.17829,-0.068949,-0.17055,8.285e-05,-0.22005,2.4155,-0.4656,-1.84,2.5997,0.81381,-3.4022,-0.19497
-0.036495,-0.023044,0,0,0.061296,-0.051601,0.0083914,-0.010594,-0.0086443,0.0077043,0.098482,-0.028426,0.067119,-0.030464,0.04888,-0.045873,-0.056075,-0.1784,-0.068922,-0.17065,8.1788e-05,-0.22018,2.4136,-0.46667,-1.8396,2.5991,0.81416,-3.4029,-0.19541
-0.036495,-0.023044,0,0,0.061277,-0.051668,0.0083717,-0.01061,-0.00863,0.0077203,0.098454,-0.028481,0.067092,-0.03053,0.048864,-0.045931,-0.056053,-0.1785,-0.068895,-0.17075,8.0722e-05,-0.22032,2.4118,-0.46775,-1.8393,2.5986,0.8145,-3.4036,-0.19584
-0.036495,-0.023044,0,0,0.061257,-0.051736,0.0083521,-0.010625,-0.0086157,0.0077362,0.098427,-0.028535,0.067066,-0.030595,0.048848,-0.04599,-0.05603,-0.17861,-0.068868,-0.17085,7.9654e-05,-0.22046,2.4099,-0.46882,-1.839,2.598,0.81484,-3.4042,-0.19628
-0.036495,-0.023044,0,0,0.061237,-0.051803,0.0083324,-0.01064,-0.0086014,0.0077521,0.098399,-0.02859,0.067039,-0.03066,0.048832,-0.046049,-0.056007,-0.17872,-0.06884,-0.17095,7.8583e-05,-0.2206,2.4081,-0.46989,-1.8386,2.5974,0.81519,-3.4049,-0.19671
-0.036495,-0.023044,0,0,0.061217,-0.05187,0.0083128,-0.010656,-0.008587,0.007768,0.098372,-0.028645,0.067012,-0.030725,0.048817,-0.046107,-0.055985,-0.17882,-0.068813,-0.17105,7.751e-05,-0.22074,2.4062,-0.47096,-1.8383,2.5969,0.81553,-3.4056,-0.19715
-0.036495,-0.023044,0,0,0.061198,-0.051937,0.008293,-0.010671,-0.0085726,0.0077839,0.098344,-0.028699,0.066985,-0.03079,0.048801,-0.046166,-0.055962,-0.17893,-0.068786,-0.17115,7.6434e-05,-0.22088,2.4044,-0.47203,-1.8379,2.5963,0.81588,-3.4063,-0.19758
-0.036495,-0.023044,0,0,0.061178,-0.052003,0.0082733,-0.010687,-0.0085582,0.0077998,0.098317,-0.028754,0.066958,-0.030855,0.048785,-0.046224,-0.055939,-0.17903,-0.068759,-0.17125,7.5355e-05,-0.22101,2.4025,-0.4731,-1.8376,2.5957,0.81622,-3.407,-0.19802
-0.036495,-0.023044,0,0,0.061158,-0.05207,0.0082535,-0.010702,-0.0085438,0.0078156,0.098289,-0.028808,0.066931,-0.03092,0.048769,-0.046282,-0.055916,-0.17914,-0.068732,-0.17135,7.4274e-05,-0.22115,2.4007,-0.47417,-1.8373,2.5952,0.81656,-3.4077,-0.19845
-0.036495,-0.023044,0,0,0.061138,-0.052137,0.0082337,-0.010717,-0.0085293,0.0078314,0.098261,-0.028862,0.066904,-0.030985,0.048753,-0.046341,-0.055894,-0.17925,-0.068705,-0.17144,7.319e-05,-0.22129,2.3988,-0.47524,-1.8369,2.5946,0.81691,-3.4084,-0.19889
-0.036495,-0.023044,0,0,0.061118,-0.052204,0.0082139,-0.010732,-0.0085148,0.0078471,0.098234,-0.028917,0.066877,-0.031049,0.048737,-0.046399,-0.055871,-0.17935,-0.068677,-0.17154,7.2104e-05,-0.22143,2.397,-0.4763,-1.8366,2.594,0.81725,-3.409,-0.19932
-0.036495,-0.023044,0,0,0.061098,-0.05227,0.008194,-0.010747,-0.0085003,0.0078629,0.098206,-0.028971,0.06685,-0.031114,0.048721,-0.046457,-0.055848,-0.17946,-0.06865,-0.17164,7.1015e-05,-0.22156,2.3951,-0.47737,-1.8363,2.5935,0.8176,-3.4097,-0.19976
-0.036495,-0.023044,0,0,0.061078,-0.052337,0.0081741,-0.010763,-0.0084857,0.0078786,0.098178,-0.029025,0.066823,-0.031179,0.048705,-0.046515,-0.055825,-0.17956,-0.068623,-0.17174,6.9924e-05,-0.2217,2.3933,-0.47844,-1.8359,2.5929,0.81794,-3.4104,-0.20019
-0.036495,-0.023044,0,0,0.061058,-0.052404,0.0081542,-0.010778,-0.0084712,0.0078942,0.09815,-0.029079,0.066796,-0.031243,0.048689,-0.046573,-0.055803,-0.17967,-0.068596,-0.17184,6.8831e-05,-0.22184,2.3914,-0.47951,-1.8356,2.5923,0.81829,-3.4111,-0.20062
